;FLAVOR:Marlin
;TIME:493
;Filament used: 0.228767m
;Layer height: 0.14
;MINX:104.583
;MINY:104.096
;MINZ:0.24
;MAXX:130.417
;MAXY:130.907
;MAXZ:5.56
;Generated with Cura_SteamEngine 4.11.0
M140 S60
M105
M190 S60
M104 S210
M105
M109 S210
M82 ;absolute extrusion mode
; Ender 3 Custom Start G-code
G92 E0 ; Reset Extruder
G28 ; Home all axes
G1 Z2.0 F3000 ; Move Z Axis up little to prevent scratching of Heat Bed
G1 X0.1 Y20 Z0.3 F5000.0 ; Move to start position
G1 X0.1 Y200.0 Z0.3 F1500.0 E15 ; Draw the first line
G1 X0.4 Y200.0 Z0.3 F5000.0 ; Move to side a little
G1 X0.4 Y20 Z0.3 F1500.0 E30 ; Draw the second line
G92 E0 ; Reset Extruder
G1 Z2.0 F3000 ; Move Z Axis up little to prevent scratching of Heat Bed
G1 X5 Y20 Z0.3 F5000.0 ; Move over to prevent blob squish
G92 E0
G92 E0
G1 F4500 E-5
;LAYER_COUNT:35
;LAYER:-5
M107
G0 F12000 X109.613 Y106.677 Z0.24
;TYPE:SUPPORT-INTERFACE
G1 F4500 E0
G1 F1125 X109.859 Y106.485 E0.02491
G1 X110.094 Y106.348 E0.04662
G1 X110.407 Y106.225 E0.07347
G1 X110.713 Y106.171 E0.09827
G1 X111.055 Y106.181 E0.12558
G1 X111.288 Y106.217 E0.1444
G1 X111.793 Y106.325 E0.18563
G1 X111.816 Y106.316 E0.1876
G1 X112.498 Y106.358 E0.24214
G1 X113.179 Y106.314 E0.29661
G1 X113.85 Y106.184 E0.35117
G1 X114.498 Y105.971 E0.40562
G1 X115.115 Y105.678 E0.46014
G1 X115.693 Y105.307 E0.51497
G1 X116.363 Y104.722 E0.58597
G1 X116.61 Y104.488 E0.61313
G1 X116.852 Y104.314 E0.63692
G1 X117.141 Y104.184 E0.66222
G1 X117.186 Y104.172 E0.66594
G1 X117.591 Y104.102 E0.69874
G1 X117.913 Y104.106 E0.72445
G1 X118.197 Y104.146 E0.74734
G1 X118.508 Y104.256 E0.77368
G1 X118.768 Y104.411 E0.79784
G1 X119.038 Y104.652 E0.82673
G1 X119.056 Y104.674 E0.829
G1 X119.525 Y105.154 E0.88257
G1 X120.059 Y105.579 E0.93704
G1 X120.643 Y105.933 E0.99156
G1 X121.267 Y106.211 E1.04609
G1 X121.921 Y106.407 E1.10059
G1 X122.594 Y106.521 E1.15507
G1 X123.277 Y106.548 E1.20964
G1 X123.963 Y106.486 E1.26462
G1 X124.308 Y106.434 E1.29247
G1 X124.381 Y106.433 E1.2983
G1 X124.731 Y106.456 E1.3263
G1 X125.084 Y106.539 E1.35524
G1 X125.358 Y106.639 E1.37853
G1 X125.628 Y106.804 E1.40378
G1 X125.86 Y107.017 E1.42892
G1 X126.048 Y107.277 E1.45454
G1 X126.08 Y107.341 E1.46025
G1 X126.22 Y107.693 E1.49049
G1 X126.282 Y107.995 E1.5151
G1 X126.365 Y108.659 E1.56851
G1 X126.381 Y108.691 E1.57137
G1 X126.558 Y109.351 E1.62591
G1 X126.818 Y109.982 E1.68039
G1 X127.155 Y110.576 E1.73491
G1 X127.564 Y111.123 E1.78943
G1 X128.038 Y111.614 E1.8439
G1 X128.574 Y112.043 E1.89871
G1 X129.29 Y112.467 E1.96513
G1 X129.606 Y112.638 E1.99381
G1 X129.846 Y112.816 E2.01766
G1 X130.057 Y113.051 E2.04287
G1 X130.221 Y113.323 E2.06823
G1 X130.332 Y113.623 E2.09376
G1 X130.392 Y113.892 E2.11576
G1 X130.415 Y114.209 E2.14113
G1 X130.372 Y114.538 E2.16762
G1 X130.255 Y114.865 E2.19534
G1 X130.157 Y115.063 E2.21298
G1 X129.99 Y115.361 E2.24024
G1 X129.888 Y115.557 E2.25788
G1 X129.637 Y116.192 E2.31239
G1 X129.47 Y116.854 E2.36689
G1 X129.387 Y117.533 E2.42149
G1 X129.391 Y118.215 E2.47593
G1 X129.48 Y118.891 E2.53036
G1 X129.656 Y119.556 E2.58527
G1 X129.996 Y120.353 E2.65444
G1 X130.17 Y120.727 E2.68736
G1 X130.245 Y120.98 E2.70843
G1 X130.277 Y121.297 E2.73386
G1 X130.245 Y121.614 E2.75929
G1 X130.144 Y121.952 E2.78745
G1 X130.031 Y122.198 E2.80906
G1 X129.86 Y122.461 E2.8341
G1 X129.639 Y122.686 E2.85928
G1 X129.34 Y122.885 E2.88795
G1 X129.09 Y123.006 E2.91012
G1 X128.497 Y123.312 E2.96339
G1 X127.934 Y123.7 E3.01797
G1 X127.425 Y124.156 E3.07252
G1 X126.978 Y124.671 E3.12695
G1 X126.6 Y125.24 E3.18148
G1 X126.296 Y125.852 E3.23603
G1 X126.072 Y126.497 E3.29053
G1 X125.931 Y127.174 E3.34573
G1 X125.861 Y127.521 E3.37399
G1 X125.77 Y127.79 E3.39666
G1 X125.609 Y128.073 E3.42265
G1 X125.579 Y128.109 E3.42639
G1 X125.296 Y128.398 E3.45868
G1 X125.027 Y128.585 E3.48483
G1 X124.775 Y128.718 E3.50757
G1 X124.468 Y128.808 E3.53311
G1 X124.153 Y128.836 E3.55835
G1 X123.775 Y128.794 E3.58871
G1 X123.172 Y128.691 E3.63754
G1 X122.489 Y128.66 E3.69212
G1 X121.809 Y128.716 E3.74658
G1 X121.141 Y128.858 E3.8011
G1 X120.497 Y129.083 E3.85555
G1 X119.885 Y129.386 E3.91006
G1 X119.312 Y129.768 E3.96504
G1 X119.075 Y129.986 E3.99074
G1 X119.064 Y129.972 E3.99216
G1 X118.477 Y130.539 E4.05731
G1 X118.224 Y130.708 E4.0816
G1 X117.937 Y130.831 E4.10652
G1 X117.869 Y130.847 E4.1121
G1 X117.482 Y130.904 E4.14332
G1 X117.174 Y130.904 E4.16791
G1 X116.853 Y130.877 E4.19362
G1 X116.545 Y130.803 E4.21891
G1 X116.265 Y130.672 E4.24358
G1 X116.003 Y130.481 E4.26947
G1 X115.778 Y130.256 E4.29487
G1 X115.454 Y129.911 E4.33264
G1 X114.928 Y129.475 E4.38718
G1 X114.351 Y129.11 E4.44168
G1 X113.733 Y128.819 E4.49621
G1 X113.084 Y128.61 E4.55063
G1 X112.412 Y128.483 E4.60523
G1 X111.724 Y128.442 E4.66024
G1 X111.389 Y128.475 E4.68711
G1 X111.299 Y128.46 E4.6944
G1 X110.802 Y128.53 E4.73446
G1 X110.482 Y128.555 E4.76008
G1 X110.179 Y128.533 E4.78433
G1 X109.942 Y128.475 E4.80381
G1 X109.566 Y128.293 E4.83715
G1 X109.298 Y128.097 E4.86366
G1 X109.082 Y127.888 E4.88765
G1 X108.903 Y127.627 E4.91291
G1 X108.78 Y127.34 E4.93784
G1 X108.703 Y126.982 E4.96707
G1 X108.7 Y126.943 E4.97019
G1 X108.605 Y126.277 E5.02389
G1 X108.424 Y125.619 E5.07837
G1 X108.162 Y124.989 E5.13283
G1 X107.821 Y124.397 E5.18737
G1 X107.41 Y123.853 E5.24179
G1 X106.932 Y123.364 E5.29638
G1 X106.394 Y122.937 E5.35121
G1 X106.107 Y122.774 E5.37755
G1 X106.12 Y122.748 E5.37987
G1 X105.488 Y122.421 E5.43667
G1 X105.26 Y122.268 E5.45859
G1 X105.031 Y122.057 E5.48345
G1 X104.837 Y121.787 E5.50999
G1 X104.705 Y121.489 E5.536
G1 X104.611 Y121.119 E5.56648
G1 X104.583 Y120.845 E5.58846
G1 X104.611 Y120.534 E5.61339
G1 X104.625 Y120.477 E5.61807
G1 X104.766 Y120.088 E5.6511
G1 X105.136 Y119.384 E5.71459
G1 X105.158 Y119.316 E5.72029
G1 X105.385 Y118.672 E5.7748
G1 X105.528 Y118.005 E5.82925
G1 X105.588 Y117.324 E5.88382
G1 X105.56 Y116.642 E5.93831
G1 X105.446 Y115.969 E5.9928
G1 X105.248 Y115.312 E6.04757
G1 X104.905 Y114.573 E6.11261
G1 X104.787 Y114.326 E6.13446
G1 X104.707 Y114.017 E6.15994
G1 X104.689 Y113.691 E6.186
G1 X104.727 Y113.422 E6.20768
G1 X104.824 Y113.107 E6.23399
G1 X104.931 Y112.872 E6.25461
G1 X105.084 Y112.591 E6.28015
G1 X105.262 Y112.356 E6.30368
G1 X105.511 Y112.137 E6.33015
G1 X105.662 Y112.038 E6.34456
G1 X106.317 Y111.728 E6.40241
G1 X106.895 Y111.365 E6.45689
G1 X107.423 Y110.931 E6.51145
G1 X107.892 Y110.435 E6.56594
G1 X108.294 Y109.883 E6.62045
G1 X108.624 Y109.285 E6.67497
G1 X108.877 Y108.646 E6.72983
G1 X109.077 Y107.79 E6.8
G1 X109.139 Y107.476 E6.82555
G1 X109.232 Y107.201 E6.84872
G1 X109.395 Y106.923 E6.87444
G1 X109.613 Y106.677 E6.90068
G0 F12000 X110.4 Y106.227
G1 F1125 X110.4 Y128.549 E8.68252
G0 F12000 X112 Y128.458
G1 F1125 X112 Y106.328 E10.44903
G0 F12000 X113.6 Y106.232
G1 F1125 X113.6 Y128.776 E12.24859
G0 F12000 X115.2 Y129.7
G1 F1125 X115.2 Y105.623 E14.17052
G0 F12000 X116.8 Y104.351
G1 F1125 X116.8 Y130.864 E16.2869
G0 F12000 X118.4 Y130.591
G1 F1125 X118.4 Y104.218 E18.39211
G0 F12000 X120 Y105.533
G1 F1125 X120 Y129.33 E20.29169
G0 F12000 X121.6 Y128.761
G1 F1125 X121.6 Y106.311 E22.08375
G0 F12000 X123.2 Y106.545
G1 F1125 X123.2 Y128.695 E23.85186
G0 F12000 X124.8 Y128.705
G1 F1125 X124.8 Y106.473 E25.62651
G0 F12000 X126.4 Y108.762
G1 F1125 X126.4 Y125.643 E26.97402
G0 F12000 X128 Y123.655
G1 F1125 X128 Y111.575 E27.9383
G0 F12000 X129.6 Y112.635
G1 F1125 X129.6 Y116.339 E28.23397
G0 F12000 X129.6 Y119.345
G1 F1125 X129.6 Y122.712 E28.50274
G0 F12000 X108.8 Y127.386
G1 F1125 X108.8 Y108.84 E29.98316
G0 F12000 X107.2 Y111.114
G1 F1125 X107.2 Y123.638 E30.98288
G0 F12000 X105.6 Y122.478
G1 F1125 X105.6 Y112.078 E31.81306
G0 F300 X105.6 Y112.078 Z0.45
G0 F12000 X116.045 Y105
;TIME_ELAPSED:28.541541
;LAYER:-4
;TYPE:SUPPORT
G1 F1125 X115.693 Y105.307 E31.84568
G1 X115.115 Y105.678 E31.89365
G1 X114.498 Y105.971 E31.94136
G1 X114.41 Y106 E31.94783
G1 X120.796 Y106 E32.39387
G1 X121.267 Y106.21 E32.42989
G1 X121.921 Y106.406 E32.47757
G1 X122.594 Y106.52 E32.52525
G1 X123.277 Y106.547 E32.57299
G1 X123.963 Y106.485 E32.6211
G1 X124.308 Y106.433 E32.64547
G1 X124.381 Y106.432 E32.65057
G1 X124.731 Y106.455 E32.67507
G1 X124.885 Y106.485 E32.68603
G1 X125.084 Y106.538 E32.70041
G1 X125.192 Y106.573 E32.70834
G1 X125.368 Y106.643 E32.72157
G1 X125.475 Y106.704 E32.73017
G1 X125.628 Y106.803 E32.7429
G1 X125.738 Y106.897 E32.75301
G1 X125.844 Y107 E32.76333
G1 X109.347 Y107 E33.91559
G1 X109.289 Y107.093 E33.92324
G1 X109.232 Y107.201 E33.93177
G1 X109.175 Y107.357 E33.94337
G1 X109.139 Y107.476 E33.95206
G1 X109.1 Y107.632 E33.96329
G1 X109.077 Y107.79 E33.97444
G1 X109.028 Y108 E33.9895
G1 X126.283 Y108 E35.1947
G1 X126.365 Y108.658 E35.24101
G1 X126.376 Y108.656 E35.24179
G1 X126.381 Y108.69 E35.24419
G1 X126.465 Y109 E35.26663
G1 X108.737 Y109 E36.50486
G1 X108.624 Y109.285 E36.52628
G1 X108.294 Y109.883 E36.57398
G1 X108.209 Y110 E36.58408
G1 X126.829 Y110 E37.88462
G1 X127.155 Y110.575 E37.93079
G1 X127.473 Y111 E37.96786
G1 X107.34 Y111 E39.37408
G1 X106.895 Y111.365 E39.41428
G1 X106.317 Y111.728 E39.46195
G1 X105.743 Y112 E39.50631
G1 X128.522 Y112 E41.09734
G1 X128.574 Y112.042 E41.10201
G1 X129.29 Y112.466 E41.16013
G1 X129.472 Y112.554 E41.17425
G1 X129.606 Y112.637 E41.18526
G1 X129.689 Y112.693 E41.19225
G1 X129.846 Y112.815 E41.20614
G1 X129.933 Y112.904 E41.21484
G1 X130.015 Y113 E41.22365
G1 X104.873 Y113 E42.97973
G1 X104.824 Y113.107 E42.98795
G1 X104.727 Y113.422 E43.01097
G1 X104.704 Y113.522 E43.01814
G1 X104.689 Y113.691 E43.02999
G1 X104.686 Y113.817 E43.03879
G1 X104.705 Y114 E43.05164
G1 X130.406 Y114 E44.84676
G1 X130.417 Y114.094 E44.85337
G1 X130.415 Y114.208 E44.86133
G1 X130.4 Y114.407 E44.87527
G1 X130.372 Y114.537 E44.88456
G1 X130.323 Y114.711 E44.89719
G1 X130.255 Y114.864 E44.90888
G1 X130.187 Y115 E44.9195
G1 X105.103 Y115 E46.67153
G1 X105.248 Y115.312 E46.69556
G1 X105.446 Y115.969 E46.74348
G1 X105.451 Y116 E46.74568
G1 X129.712 Y116 E48.44022
G1 X129.637 Y116.191 E48.45455
G1 X129.47 Y116.853 E48.50224
G1 X129.452 Y117 E48.51258
G1 X105.574 Y117 E50.18037
G1 X105.588 Y117.324 E50.20302
G1 X105.529 Y118 E50.25042
G1 X129.39 Y118 E51.91702
G1 X129.391 Y118.214 E51.93197
G1 X129.479 Y118.89 E51.97958
G1 X129.509 Y119 E51.98755
G1 X105.269 Y119 E53.68062
G1 X105.157 Y119.316 E53.70404
G1 X105.124 Y119.381 E53.70913
G1 X105.135 Y119.384 E53.70992
G1 X104.812 Y120 E53.75851
G1 X129.845 Y120 E55.50697
G1 X129.995 Y120.352 E55.53369
G1 X130.095 Y120.543 E55.54875
G1 X130.169 Y120.726 E55.56254
G1 X130.197 Y120.808 E55.56859
G1 X130.245 Y120.983 E55.58127
G1 X130.248 Y121 E55.58247
G1 X104.595 Y121 E57.37424
G1 X104.599 Y121.043 E57.37725
G1 X104.61 Y121.119 E57.38262
G1 X104.646 Y121.3 E57.39551
G1 X104.704 Y121.489 E57.40932
G1 X104.756 Y121.633 E57.42001
G1 X104.836 Y121.787 E57.43213
G1 X104.91 Y121.908 E57.44204
G1 X104.984 Y122 E57.45028
G1 X130.121 Y122 E59.20601
G1 X130.069 Y122.117 E59.21495
G1 X130.03 Y122.197 E59.22117
G1 X129.929 Y122.37 E59.23516
G1 X129.859 Y122.46 E59.24312
G1 X129.714 Y122.62 E59.25821
G1 X129.638 Y122.685 E59.26519
G1 X129.471 Y122.81 E59.27976
G1 X129.339 Y122.884 E59.29033
G1 X129.146 Y122.979 E59.30536
G1 X129.099 Y123 E59.30895
G1 X106.472 Y123 E60.88936
G1 X106.931 Y123.364 E60.93028
G1 X107.409 Y123.853 E60.97804
G1 X107.52 Y124 E60.99091
G1 X127.597 Y124 E62.39321
G1 X127.424 Y124.155 E62.40944
G1 X126.977 Y124.67 E62.45707
G1 X126.757 Y125 E62.48477
G1 X108.165 Y125 E63.78335
G1 X108.423 Y125.619 E63.83019
G1 X108.527 Y126 E63.85778
G1 X126.243 Y126 E65.09517
G1 X126.071 Y126.496 E65.13184
G1 X125.966 Y127 E65.1678
G1 X108.705 Y127 E66.37341
G1 X108.73 Y127.138 E66.38321
G1 X108.779 Y127.34 E66.39773
G1 X108.85 Y127.518 E66.41111
G1 X108.899 Y127.621 E66.41908
G1 X109.005 Y127.784 E66.43266
G1 X109.082 Y127.888 E66.4417
G1 X109.192 Y128 E66.45266
G1 X125.651 Y128 E67.60226
G1 X125.608 Y128.072 E67.60812
G1 X125.578 Y128.108 E67.61139
G1 X125.295 Y128.397 E67.63965
G1 X125.187 Y128.481 E67.6492
G1 X125.026 Y128.584 E67.66255
G1 X124.935 Y128.637 E67.66991
G1 X124.774 Y128.717 E67.68247
G1 X124.644 Y128.76 E67.69203
G1 X124.467 Y128.807 E67.70482
G1 X124.339 Y128.823 E67.71383
G1 X124.151 Y128.834 E67.72698
G1 X123.978 Y128.82 E67.73911
G1 X123.774 Y128.793 E67.75348
G1 X123.171 Y128.69 E67.79621
G1 X122.488 Y128.659 E67.84396
G1 X121.808 Y128.715 E67.89162
G1 X121.14 Y128.857 E67.93932
G1 X120.73 Y129 E67.96965
G1 X114.116 Y129 E68.43161
G1 X114.35 Y129.11 E68.44967
G1 X114.927 Y129.475 E68.49736
G1 X115.453 Y129.911 E68.54508
G1 X115.536 Y130 E68.55358
G1 X119.033 Y130 E68.79783
G1 X118.476 Y130.539 E68.85197
G1 X118.39 Y130.601 E68.85937
G1 X118.223 Y130.708 E68.87322
G1 X118.088 Y130.771 E68.88363
G1 X117.936 Y130.831 E68.89504
G1 X117.868 Y130.847 E68.89992
G1 X117.481 Y130.904 E68.92725
G1 X117.32 Y130.907 E68.93849
G1 X117.173 Y130.904 E68.94876
G1 X116.934 Y130.887 E68.9655
G1 X116.852 Y130.877 E68.97127
G1 X116.66 Y130.841 E68.98491
G1 X116.544 Y130.803 E68.99344
G1 X116.36 Y130.727 E69.00734
G1 X116.264 Y130.672 E69.01507
G1 X116.081 Y130.55 E69.03043
G1 X116.002 Y130.481 E69.03776
G1 X115.777 Y130.256 E69.05998
G0 F12000 X116.045 Y105
G1 F1125 X116.363 Y104.722 E69.08948
G1 X116.481 Y104.6 E69.10134
G1 X116.61 Y104.488 E69.11327
G1 X116.69 Y104.426 E69.12034
G1 X116.852 Y104.314 E69.1341
G1 X116.957 Y104.262 E69.14228
G1 X117.141 Y104.184 E69.15624
G1 X117.186 Y104.172 E69.15949
G1 X117.591 Y104.102 E69.1882
G1 X117.726 Y104.096 E69.19764
G1 X117.913 Y104.106 E69.21072
G1 X118.015 Y104.116 E69.21788
G1 X118.197 Y104.146 E69.23076
G1 X118.307 Y104.179 E69.23878
G1 X118.508 Y104.256 E69.25382
G1 X118.614 Y104.314 E69.26226
G1 X118.768 Y104.411 E69.27497
G1 X118.904 Y104.525 E69.28736
G1 X119.038 Y104.651 E69.30021
G1 X119.056 Y104.673 E69.3022
G0 F12000 X119.376 Y105
G1 F1125 X116.045 Y105 E69.53485
G0 F300 X116.045 Y105 Z0.567
G0 F12000 X110.874 Y107.97
;TIME_ELAPSED:58.811407
;LAYER:-3
;TYPE:SUPPORT
G1 F600 X111.117 Y108.344 E69.5444
G1 X111.232 Y108.53 E69.54908
G1 X111.507 Y108.931 E69.55949
G1 X112.439 Y110.394 E69.59661
G1 X112.712 Y110.682 E69.60511
G1 X113.707 Y112.197 E69.6439
G1 X113.531 Y112.305 E69.64832
G1 X112.388 Y110.382 E69.6962
G1 X112.292 Y110.23 E69.70005
G1 X112.075 Y109.868 E69.70908
G1 X111.743 Y109.334 E69.72254
G1 X111.656 Y109.189 E69.72616
G1 X111.379 Y108.754 E69.73719
G1 X111.001 Y108.178 E69.75194
G1 X110.874 Y107.97 E69.75716
G0 F12000 X108.672 Y114.534
G1 F600 X107.453 Y114.043 E69.78528
G1 X109.194 Y114.723 E69.82529
G1 X109.596 Y114.785 E69.83399
G1 X110.171 Y115.011 E69.84722
G1 X111.293 Y115.419 E69.87277
G1 X111.213 Y115.608 E69.87716
G1 X108.672 Y114.534 E69.9362
G0 F12000 X107.022 Y113.875
G1 F600 X106.633 Y113.737 E69.94504
G1 X106.538 Y113.686 E69.94735
G1 X107.022 Y113.875 E69.95847
G0 F12000 X109.546 Y119.94
G1 F600 X110.086 Y119.799 E69.97041
G1 X111.288 Y119.454 E69.99718
G1 X111.344 Y119.693 E70.00243
G1 X109.465 Y120.088 E70.04353
G1 X109.122 Y120.174 E70.05109
G1 X108.944 Y120.215 E70.055
G1 X109.204 Y120.151 E70.06073
G1 X109.546 Y119.94 E70.06933
G0 F12000 X107.08 Y120.677
G1 F600 X106.762 Y120.762 E70.07638
G1 X106.392 Y120.868 E70.08462
G1 X106.39 Y120.859 E70.08481
G1 X106.759 Y120.757 E70.09301
G1 X107.08 Y120.677 E70.10009
G0 F12000 X112.519 Y124.134
G1 F600 X113.18 Y123.301 E70.12285
G1 X113.674 Y122.697 E70.13955
G1 X113.83 Y122.831 E70.14395
G1 X113.434 Y123.28 E70.15676
G1 X113.156 Y123.572 E70.16539
G1 X111.805 Y125.15 E70.20985
G1 X111.322 Y125.72 E70.22584
G1 X111.208 Y125.865 E70.22979
