;FLAVOR:Marlin
;TIME:455
;Filament used: 0.0742831m
;Layer height: 0.08
;MINX:113.087
;MINY:112.327
;MINZ:0.144
;MAXX:121.916
;MAXY:122.734
;MAXZ:8.934
;Generated with Cura_SteamEngine 4.11.0
M140 S60
M105
M190 S60
M104 S210
M105
M109 S210
M82 ;absolute extrusion mode
; Ender 3 Custom Start G-code
G92 E0 ; Reset Extruder
G28 ; Home all axes
G1 Z2.0 F3000 ; Move Z Axis up little to prevent scratching of Heat Bed
G1 X0.1 Y20 Z0.3 F5000.0 ; Move to start position
G1 X0.1 Y200.0 Z0.3 F1500.0 E15 ; Draw the first line
G1 X0.4 Y200.0 Z0.3 F5000.0 ; Move to side a little
G1 X0.4 Y20 Z0.3 F1500.0 E30 ; Draw the second line
G92 E0 ; Reset Extruder
G1 Z2.0 F3000 ; Move Z Axis up little to prevent scratching of Heat Bed
G1 X5 Y20 Z0.3 F5000.0 ; Move over to prevent blob squish
G92 E0
G92 E0
G1 F4500 E-5
;LAYER_COUNT:111
;LAYER:-5
M106 S204
G0 F12000 X113.746 Y114.315 Z0.144
;TYPE:SUPPORT-INTERFACE
G1 F4500 E0
G1 F600 X113.898 Y114.167 E0.01016
G1 X114.155 Y113.975 E0.02553
G1 X114.506 Y113.824 E0.04383
G1 X114.842 Y113.698 E0.06101
G1 X115.168 Y113.63 E0.07696
G1 X115.464 Y113.628 E0.09114
G1 X115.808 Y113.692 E0.1079
G1 X115.906 Y113.723 E0.11282
G1 X116.556 Y113.882 E0.14487
G1 X117.235 Y113.959 E0.1776
G1 X117.919 Y113.95 E0.21036
G1 X118.594 Y113.855 E0.24301
G1 X118.65 Y113.856 E0.24569
G1 X119.266 Y113.676 E0.27643
G1 X119.572 Y113.627 E0.29127
G1 X119.887 Y113.637 E0.30637
G1 X120.186 Y113.708 E0.32108
G1 X120.589 Y113.858 E0.34168
G1 X120.957 Y114.058 E0.36174
G1 X121.172 Y114.231 E0.37496
G1 X121.342 Y114.431 E0.38753
G1 X121.4 Y114.516 E0.39246
G1 X121.524 Y114.735 E0.40451
G1 X121.662 Y114.979 E0.41794
G1 X121.803 Y115.315 E0.43539
G1 X121.872 Y115.573 E0.44818
G1 X121.915 Y115.915 E0.46469
G1 X121.906 Y116.239 E0.48021
G1 X121.837 Y116.583 E0.49702
G1 X121.762 Y116.808 E0.50838
G1 X121.593 Y117.457 E0.5405
G1 X121.506 Y118.129 E0.57295
G1 X121.494 Y118.505 E0.59097
G1 X121.536 Y119.174 E0.62307
G1 X121.667 Y119.845 E0.65582
G1 X121.722 Y120.104 E0.6685
G1 X121.751 Y120.355 E0.6806
G1 X121.745 Y120.668 E0.69559
G1 X121.7 Y120.968 E0.71012
G1 X121.624 Y121.226 E0.723
G1 X121.516 Y121.482 E0.73631
G1 X121.34 Y121.774 E0.75264
G1 X121.169 Y121.987 E0.76572
G1 X120.964 Y122.187 E0.77944
G1 X120.703 Y122.383 E0.79507
G1 X120.473 Y122.51 E0.80766
G1 X120.197 Y122.621 E0.8219
G1 X119.933 Y122.69 E0.83497
G1 X119.844 Y122.706 E0.8393
G1 X119.566 Y122.733 E0.85268
G1 X119.193 Y122.711 E0.87058
G1 X118.87 Y122.649 E0.88633
G1 X118.323 Y122.529 E0.91315
G1 X117.642 Y122.468 E0.9459
G1 X116.955 Y122.493 E0.97882
G1 X116.593 Y122.565 E0.9965
G1 X116.59 Y122.55 E0.99723
G1 X115.923 Y122.693 E1.0299
G1 X115.614 Y122.731 E1.04481
G1 X115.362 Y122.728 E1.05688
G1 X115.108 Y122.698 E1.06913
G1 X114.821 Y122.626 E1.08331
G1 X114.566 Y122.522 E1.0965
G1 X114.309 Y122.387 E1.1104
G1 X114.089 Y122.23 E1.12334
G1 X113.842 Y121.999 E1.13954
G1 X113.67 Y121.791 E1.15247
G1 X113.52 Y121.548 E1.16615
G1 X113.407 Y121.304 E1.17902
G1 X113.311 Y121.007 E1.19397
G1 X113.26 Y120.743 E1.20685
G1 X113.245 Y120.434 E1.22167
G1 X113.273 Y120.135 E1.23605
G1 X113.292 Y120.032 E1.24107
G1 X113.418 Y119.444 E1.26987
G1 X113.447 Y119.301 E1.27686
G1 X113.507 Y118.62 E1.3096
G1 X113.479 Y117.939 E1.34224
G1 X113.367 Y117.267 E1.37487
G1 X113.203 Y116.709 E1.40273
G1 X113.133 Y116.456 E1.4153
G1 X113.087 Y116.106 E1.43221
G1 X113.103 Y115.712 E1.4511
G1 X113.159 Y115.448 E1.46402
G1 X113.247 Y115.175 E1.47776
G1 X113.383 Y114.893 E1.49275
G1 X113.544 Y114.611 E1.50831
G1 X113.577 Y114.57 E1.51083
G1 X113.746 Y114.315 E1.52548
G0 F12000 X113.6 Y114.535
G1 F600 X113.6 Y121.677 E1.86754
G0 F12000 X115.2 Y122.708
G1 F600 X115.2 Y113.629 E2.30238
G0 F12000 X116.8 Y113.91
G1 F600 X116.8 Y122.524 E2.71494
G0 F12000 X118.4 Y122.545
G1 F600 X118.4 Y113.882 E3.12985
G0 F12000 X120 Y113.664
G1 F600 X120 Y122.673 E3.56133
G0 F12000 X121.6 Y121.283
G1 F600 X121.6 Y119.502 E3.64663
G0 F12000 X121.6 Y117.431
G1 F600 X121.6 Y114.87 E3.76929
G0 F300 X121.6 Y114.87 Z0.264
G0 F12000 X120.755 Y113.929
;TIME_ELAPSED:13.159424
;LAYER:-4
;TYPE:SUPPORT
G1 F600 X120.589 Y113.857 E3.77651
G1 X120.392 Y113.785 E3.78489
G1 X120.186 Y113.707 E3.79368
G1 X120.076 Y113.671 E3.7983
G1 X119.887 Y113.636 E3.80597
G1 X119.752 Y113.621 E3.81139
G1 X119.572 Y113.626 E3.81858
G1 X119.436 Y113.636 E3.82402
G1 X119.266 Y113.675 E3.83098
G1 X118.65 Y113.856 E3.85661
G1 X118.646 Y113.841 E3.85723
G1 X118.594 Y113.855 E3.85937
G1 X117.919 Y113.95 E3.88658
G1 X117.235 Y113.959 E3.91388
G1 X116.556 Y113.882 E3.94116
G1 X115.906 Y113.723 E3.96786
G1 X115.808 Y113.692 E3.97197
G1 X115.671 Y113.655 E3.97763
G1 X115.464 Y113.628 E3.98596
G1 X115.34 Y113.619 E3.99093
G1 X115.168 Y113.63 E3.9978
G1 X115.029 Y113.648 E4.0034
G1 X114.842 Y113.698 E4.01112
G1 X114.73 Y113.737 E4.01586
G1 X114.365 Y113.877 E4.03146
G1 X114.296 Y113.905 E4.03443
G1 X114.155 Y113.975 E4.04072
G1 X114.122 Y114 E4.04237
G1 X120.868 Y114 E4.31161
G1 X120.957 Y114.057 E4.31583
G1 X121.073 Y114.141 E4.32155
G1 X121.172 Y114.23 E4.32686
G1 X121.323 Y114.404 E4.33606
G1 X121.4 Y114.515 E4.34145
G1 X121.524 Y114.734 E4.35149
G1 X121.594 Y114.852 E4.35697
G1 X121.662 Y114.978 E4.36268
G1 X121.673 Y115 E4.36367
G1 X113.328 Y115 E4.69673
G1 X113.296 Y115.06 E4.69945
G1 X113.258 Y115.147 E4.70324
G1 X113.21 Y115.279 E4.70884
G1 X113.159 Y115.448 E4.71589
G1 X113.111 Y115.662 E4.72464
G1 X113.103 Y115.712 E4.72666
G1 X113.087 Y115.915 E4.73479
G1 X113.087 Y116 E4.73818
G1 X121.916 Y116 E5.09057
G1 X121.916 Y116.107 E5.09484
G1 X121.905 Y116.252 E5.10064
G1 X121.88 Y116.398 E5.10655
G1 X121.837 Y116.582 E5.1141
G1 X121.762 Y116.807 E5.12356
G1 X121.711 Y117 E5.13153
G1 X113.288 Y117 E5.46771
G1 X113.367 Y117.267 E5.47882
G1 X113.479 Y117.939 E5.50601
G1 X113.481 Y118 E5.50845
G1 X121.522 Y118 E5.82938
G1 X121.506 Y118.128 E5.83453
G1 X121.494 Y118.504 E5.84955
G1 X121.525 Y119 E5.86938
G1 X113.473 Y119 E6.19075
G1 X113.446 Y119.301 E6.20282
G1 X113.417 Y119.444 E6.20864
G1 X113.298 Y120 E6.23133
G1 X121.701 Y120 E6.56671
G1 X121.721 Y120.103 E6.5709
G1 X121.739 Y120.224 E6.57578
G1 X121.753 Y120.405 E6.58303
G1 X121.751 Y120.553 E6.58894
G1 X121.744 Y120.667 E6.5935
G1 X121.737 Y120.729 E6.59599
G1 X121.719 Y120.851 E6.60091
G1 X121.699 Y120.967 E6.60561
G1 X121.69 Y121 E6.60697
G1 X113.309 Y121 E6.94148
G1 X113.334 Y121.1 E6.94559
G1 X113.366 Y121.2 E6.94978
G1 X113.406 Y121.304 E6.95423
G1 X113.448 Y121.401 E6.95845
G1 X113.519 Y121.548 E6.96496
G1 X113.591 Y121.675 E6.97079
G1 X113.669 Y121.791 E6.97637
G1 X113.706 Y121.84 E6.97882
G1 X113.781 Y121.931 E6.98353
G1 X113.843 Y122 E6.98723
G1 X121.154 Y122 E7.27903
G1 X121.099 Y122.06 E7.28227
G1 X120.963 Y122.186 E7.28967
G1 X120.889 Y122.248 E7.29353
G1 X120.791 Y122.322 E7.29843
G1 X120.702 Y122.382 E7.30271
G1 X120.611 Y122.435 E7.30692
G1 X120.472 Y122.509 E7.3132
G1 X120.367 Y122.556 E7.31779
G1 X120.279 Y122.592 E7.32159
G1 X120.137 Y122.639 E7.32756
G1 X120.086 Y122.654 E7.32968
G1 X119.932 Y122.689 E7.33598
G1 X119.843 Y122.705 E7.33959
G1 X119.653 Y122.727 E7.34722
G1 X119.565 Y122.732 E7.35074
G1 X119.395 Y122.73 E7.35753
G1 X119.324 Y122.726 E7.36037
G1 X119.192 Y122.71 E7.36567
G1 X119.086 Y122.693 E7.36996
G1 X118.869 Y122.648 E7.3788
G1 X118.322 Y122.529 E7.40115
G1 X117.641 Y122.468 E7.42843
G1 X116.954 Y122.493 E7.45587
G1 X116.592 Y122.565 E7.4706
G1 X116.589 Y122.55 E7.47121
G1 X115.922 Y122.693 E7.49844
G1 X115.708 Y122.725 E7.50708
G1 X115.578 Y122.733 E7.51228
G1 X115.486 Y122.734 E7.51595
G1 X115.329 Y122.726 E7.52222
G1 X115.164 Y122.708 E7.52885
G1 X115.056 Y122.689 E7.53322
G1 X114.977 Y122.672 E7.53645
G1 X114.886 Y122.647 E7.54021
G1 X114.721 Y122.594 E7.54713
G1 X114.654 Y122.567 E7.55001
G1 X114.565 Y122.522 E7.554
G1 X114.467 Y122.479 E7.55827
G1 X114.398 Y122.441 E7.56141
G1 X114.308 Y122.387 E7.5656
G1 X114.204 Y122.32 E7.57054
G1 X114.088 Y122.23 E7.5764
G1 X113.948 Y122.11 E7.58376
G1 X113.911 Y122.074 E7.58582
G0 F300 X113.911 Y122.074 Z0.684
G0 F12000 X119.513 Y120.513
;TIME_ELAPSED:23.082100
;LAYER:0
M107
G1 F4500 E2.58582
G1 F300 Z0.984
;MESH:Bulbasaur.stl
G0 F12000 X119.513 Y120.513 Z0.984
;TYPE:WALL-INNER
G1 F300 Z0.684
G1 F4500 E7.58582
G1 F600 X119.512 Y120.478 E7.58652
G1 X119.508 Y120.397 E7.58813
G1 X119.54 Y120.476 E7.58825
G1 X119.513 Y120.513 E7.58842
G0 F12000 X119.368 Y120.917
;TYPE:WALL-OUTER
G1 F600 X119.196 Y120.793 E7.59265
G1 X119.104 Y120.569 E7.59748
G1 X119.111 Y120.271 E7.60343
G1 X119.173 Y120.13 E7.60651
G1 X119.369 Y120.003 E7.61117
G1 X119.504 Y119.976 E7.61392
G1 X119.775 Y120.061 E7.61958
G1 X119.92 Y120.29 E7.62499
G1 X119.951 Y120.541 E7.63004
G1 X119.839 Y120.777 E7.63525
G1 X119.626 Y120.917 E7.64034
G1 X119.368 Y120.917 E7.64549
G0 F12000 X115.486 Y120.513
;TYPE:WALL-INNER
G1 F600 X115.458 Y120.47 E7.64651
G1 X115.493 Y120.395 E7.64816
G1 X115.489 Y120.471 E7.64819
G1 X115.486 Y120.513
G0 F12000 X115.705 Y120.883
;TYPE:WALL-OUTER
G1 F600 X115.476 Y120.935 E7.65288
G1 X115.277 Y120.875 E7.65703
G1 X115.096 Y120.682 E7.66231
G1 X115.045 Y120.459 E7.66687
G1 X115.117 Y120.209 E7.67206
G1 X115.223 Y120.063 E7.67567
G1 X115.488 Y119.975 E7.68124
G1 X115.711 Y120.036 E7.68585
G1 X115.867 Y120.193 E7.69027
G1 X115.906 Y120.451 E7.69548
G1 X115.856 Y120.709 E7.70072
G1 X115.705 Y120.883 E7.70532
G0 F12000 X115.48 Y120.506
G0 X115.134 Y115.743
G1 F600 X115.116 Y115.643 E7.70735
G1 X115.31 Y115.605 E7.71129
G1 X115.598 Y115.69 E7.71728
G1 X115.734 Y115.911 E7.72246
G1 X115.73 Y116.137 E7.72697
G1 X115.564 Y116.334 E7.73211
G1 X115.311 Y116.392 E7.73729
G1 X115.074 Y116.319 E7.74224
G1 X114.915 Y116.154 E7.74681
G1 X114.881 Y116 E7.74996
G1 X114.957 Y115.765 E7.75489
G1 X115.134 Y115.743 E7.75845
G0 F12000 X119.914 Y115.723
G1 F600 X120.047 Y115.772 E7.76128
G1 X120.119 Y116.016 E7.76636
G1 X120.042 Y116.22 E7.77071
G1 X119.877 Y116.345 E7.77484
G1 X119.694 Y116.391 E7.7786
G1 X119.431 Y116.331 E7.78399
G1 X119.267 Y116.13 E7.78916
G1 X119.257 Y115.94 E7.79296
G1 X119.388 Y115.708 E7.79828
G1 X119.546 Y115.626 E7.80183
G1 X119.772 Y115.613 E7.80635
G1 X119.91 Y115.651 E7.8092
G1 X119.914 Y115.723 E7.81064
;MESH:NONMESH
G0 F300 X119.914 Y115.723 Z0.614
G0 F12000 X115.525 Y120.592
;TIME_ELAPSED:25.589700
;LAYER:1
M106 S68
;TYPE:WALL-INNER
;MESH:Bulbasaur.stl
G1 F1028.6 X115.42 Y120.515 E7.81237
G1 X115.437 Y120.373 E7.81428
G1 X115.488 Y120.365 E7.81435
G1 X115.506 Y120.362 E7.8146
G1 X115.525 Y120.358 E7.81485
G1 X115.536 Y120.506 E7.81554
G1 X115.54 Y120.56
G1 X115.525 Y120.592
G0 F12000 X115.672 Y120.98
;TYPE:WALL-OUTER
G1 F600 X115.463 Y120.999 E7.81833
G1 X115.206 Y120.892 E7.82204
G1 X115.045 Y120.682 E7.82556
G1 X115 Y120.452 E7.82867
G1 X115.076 Y120.18 E7.83243
G1 X115.213 Y120.02 E7.83523
G1 X115.434 Y119.927 E7.83842
G1 X115.721 Y119.991 E7.84234
G1 X115.88 Y120.146 E7.84529
G1 X115.949 Y120.386 E7.84861
G1 X115.937 Y120.647 E7.85209
G1 X115.853 Y120.848 E7.85499
G1 X115.672 Y120.98 E7.85797
G0 F12000 X115.518 Y120.569
G0 X119.474 Y120.587
;TYPE:WALL-INNER
G1 F1028.6 X119.474 Y120.538 E7.85862
G1 X119.475 Y120.402 E7.86043
G1 X119.476 Y120.365 E7.86092
G1 X119.512 Y120.345 E7.86147
G1 X119.575 Y120.402 E7.86164
G1 X119.566 Y120.538 E7.86212
G1 X119.474 Y120.587 E7.86249
G0 F12000 X119.223 Y120.924
;TYPE:WALL-OUTER
G1 F600 X119.093 Y120.75 E7.86538
G1 X119.048 Y120.428 E7.86971
G1 X119.114 Y120.162 E7.87335
G1 X119.283 Y119.989 E7.87657
G1 X119.549 Y119.925 E7.88021
G1 X119.802 Y120.036 E7.88389
G1 X119.955 Y120.244 E7.88732
G1 X119.998 Y120.52 E7.89104
G1 X119.905 Y120.773 E7.89462
G1 X119.709 Y120.945 E7.89809
G1 X119.46 Y121.003 E7.90149
G1 X119.223 Y120.924 E7.90482
G0 F12000 X119.48 Y120.568
G0 X119.63 Y116.047
;TYPE:WALL-INNER
G1 F1028.6 X119.625 Y116.004 E7.90539
G1 X119.694 Y115.986 E7.90634
G1 X119.757 Y116.015 E7.90677
G1 X119.787 Y116.029 E7.90693
G1 X119.744 Y116.058 E7.90701
G1 X119.734 Y116.065
G1 X119.682 Y116.056 E7.90703
G1 X119.63 Y116.047 E7.90703
G0 F12000 X119.506 Y116.444
;TYPE:WALL-OUTER
G1 F600 X119.335 Y116.333 E7.90974
G1 X119.203 Y116.114 E7.91314
G1 X119.209 Y115.924 E7.91567
G1 X119.31 Y115.741 E7.91845
G1 X119.448 Y115.637 E7.92075
G1 X119.688 Y115.574 E7.92405
G1 X119.956 Y115.636 E7.92771
G1 X120.126 Y115.784 E7.93071
G1 X120.205 Y116.015 E7.93396
G1 X120.145 Y116.238 E7.93703
G1 X119.975 Y116.406 E7.94021
G1 X119.778 Y116.472 E7.94297
G1 X119.506 Y116.444 E7.94661
G0 F12000 X119.652 Y116.03
G0 X115.376 Y116.037
;TYPE:WALL-INNER
G1 F1028.6 X115.317 Y116.052 E7.94742
G1 X115.276 Y116.063 E7.94799
G1 X115.261 Y116.054 E7.94822
G1 X115.217 Y116.027 E7.94891
G1 X115.252 Y116.011 E7.94891
G1 X115.3 Y115.989 E7.94901
G1 X115.316 Y115.999
G1 X115.376 Y116.037 E7.9492
G0 F12000 X115.507 Y116.441
;TYPE:WALL-OUTER
G1 F600 X115.22 Y116.472 E7.95304
G1 X114.97 Y116.37 E7.95664
G1 X114.809 Y116.144 E7.96033
G1 X114.807 Y115.941 E7.96303
G1 X114.936 Y115.709 E7.96656
G1 X115.123 Y115.606 E7.9694
G1 X115.333 Y115.583 E7.97221
G1 X115.586 Y115.653 E7.9757
G1 X115.759 Y115.845 E7.97914
G1 X115.807 Y116.057 E7.98203
G1 X115.698 Y116.293 E7.98549
G1 X115.507 Y116.441 E7.98871
G0 F12000 X115.343 Y116.033
;MESH:NONMESH
G0 F300 X115.343 Y116.033 Z0.694
G0 F12000 X119.439 Y120.625
;TIME_ELAPSED:28.139698
;LAYER:2
M106 S136
;TYPE:WALL-INNER
;MESH:Bulbasaur.stl
G1 F2100 X119.441 Y120.488 E7.99053
G1 X119.443 Y120.373 E7.99206
G1 X119.481 Y120.339 E7.99274
G1 X119.512 Y120.31 E7.9933
G1 X119.531 Y120.315
G1 X119.569 Y120.327 E7.99383
G1 X119.62 Y120.49 E7.99496
G1 X119.522 Y120.63 E7.99591
G1 X119.493 Y120.629 E7.9962
G1 X119.439 Y120.625 E7.99672
G0 F12000 X119.398 Y121.043
;TYPE:WALL-OUTER
G1 F600 X119.2 Y120.972 E7.99951
G1 X119.058 Y120.785 E8.00264
G1 X119.014 Y120.469 E8.00688
G1 X119.069 Y120.203 E8.0105
G1 X119.223 Y120 E8.01389
G1 X119.442 Y119.903 E8.01707
G1 X119.674 Y119.921 E8.02017
G1 X119.861 Y120.038 E8.0231
G1 X119.998 Y120.261 E8.02658
G1 X120.028 Y120.535 E8.03025
G1 X119.945 Y120.774 E8.03362
G1 X119.755 Y120.965 E8.0372
G1 X119.621 Y121.024 E8.03915
G1 X119.398 Y121.043 E8.04213
G0 F12000 X119.454 Y120.607
G0 X115.524 Y120.634
;TYPE:WALL-INNER
G1 F2100 X115.398 Y120.544 E8.04419
G1 X115.401 Y120.363 E8.0466
G1 X115.467 Y120.31 E8.04772
G1 X115.531 Y120.328 E8.04815
G1 X115.533 Y120.339
G1 X115.564 Y120.514 E8.04917
G1 X115.575 Y120.574
G1 X115.524 Y120.634 E8.04945
G0 F12000 X115.88 Y120.897
;TYPE:WALL-OUTER
G1 F600 X115.731 Y121.008 E8.05192
G1 X115.488 Y121.044 E8.05519
G1 X115.228 Y120.955 E8.05884
G1 X115.031 Y120.734 E8.06278
G1 X114.968 Y120.451 E8.06664
G1 X115.031 Y120.191 E8.0702
G1 X115.154 Y120.023 E8.07297
G1 X115.38 Y119.904 E8.07637
G1 X115.461 Y119.894 E8.07745
G1 X115.73 Y119.969 E8.08117
G1 X115.871 Y120.095 E8.08368
G1 X115.978 Y120.386 E8.08781
G1 X115.974 Y120.65 E8.09132
G1 X115.88 Y120.897 E8.09484
G0 F12000 X115.53 Y120.632
G0 X115.191 Y116.102
;TYPE:WALL-INNER
G1 F2100 X115.158 Y116.058 E8.09557
G1 X115.163 Y116.047 E8.09573
G1 X115.191 Y115.996 E8.0965
G1 X115.284 Y115.976 E8.09716
G1 X115.361 Y116.011 E8.09777
G1 X115.417 Y116.038 E8.09859
G1 X115.366 Y116.078 E8.09879
G1 X115.309 Y116.124 E8.0991
G1 X115.259 Y116.115 E8.09915
G1 X115.191 Y116.102 E8.09933
G0 F12000 X115.142 Y116.525
;TYPE:WALL-OUTER
G1 F600 X114.928 Y116.418 E8.10251
G1 X114.773 Y116.212 E8.10594
G1 X114.745 Y116.017 E8.10856
G1 X114.843 Y115.764 E8.11217
G1 X115.014 Y115.625 E8.11511
G1 X115.283 Y115.568 E8.11876
G1 X115.539 Y115.62 E8.12224
G1 X115.716 Y115.743 E8.12511
G1 X115.828 Y115.964 E8.1284
G1 X115.801 Y116.194 E8.13148
