;FLAVOR:Marlin
;TIME:699
;Filament used: 0.393804m
;Layer height: 0.3
;MINX:106.299
;MINY:106.298
;MINZ:0.24
;MAXX:129.1
;MAXY:129.1
;MAXZ:20.54
;Generated with Cura_SteamEngine 4.11.0
M140 S60
M105
M190 S60
M104 S210
M105
M109 S210
M82 ;absolute extrusion mode
; Ender 3 Custom Start G-code
G92 E0 ; Reset Extruder
G28 ; Home all axes
G1 Z2.0 F3000 ; Move Z Axis up little to prevent scratching of Heat Bed
G1 X0.1 Y20 Z0.3 F5000.0 ; Move to start position
G1 X0.1 Y200.0 Z0.3 F1500.0 E15 ; Draw the first line
G1 X0.4 Y200.0 Z0.3 F5000.0 ; Move to side a little
G1 X0.4 Y20 Z0.3 F1500.0 E30 ; Draw the second line
G92 E0 ; Reset Extruder
G1 Z2.0 F3000 ; Move Z Axis up little to prevent scratching of Heat Bed
G1 X5 Y20 Z0.3 F5000.0 ; Move over to prevent blob squish
G92 E0
G92 E0
G1 F4500 E-5
;LAYER_COUNT:67
;LAYER:-3
M107
G0 F12000 X106.711 Y106.844 Z0.24
;TYPE:SUPPORT-INTERFACE
G1 F4500 E0
G1 F1125 X106.947 Y106.627 E0.02559
G1 X107.204 Y106.47 E0.04963
G1 X107.419 Y106.383 E0.06815
G1 X107.832 Y106.309 E0.10164
G1 X108.034 Y106.3 E0.11778
G1 X127.371 Y106.299 E1.66134
G1 X127.688 Y106.32 E1.6867
G1 X127.995 Y106.388 E1.7118
G1 X128.286 Y106.516 E1.73718
G1 X128.556 Y106.71 E1.76372
G1 X128.773 Y106.946 E1.78931
G1 X128.93 Y107.203 E1.81335
G1 X129.016 Y107.418 E1.83183
G1 X129.091 Y107.831 E1.86534
G1 X129.1 Y108.033 E1.88148
G1 X129.1 Y127.37 E3.42504
G1 X129.079 Y127.69 E3.45064
G1 X129.017 Y127.978 E3.47416
G1 X128.88 Y128.291 E3.50143
G1 X128.691 Y128.554 E3.52728
G1 X128.454 Y128.772 E3.55299
G1 X128.196 Y128.93 E3.57714
G1 X127.981 Y129.017 E3.59565
G1 X127.567 Y129.091 E3.62922
G1 X127.367 Y129.1 E3.6452
G1 X108.03 Y129.1 E5.18877
G1 X107.71 Y129.079 E5.21437
G1 X107.418 Y129.016 E5.23821
G1 X107.106 Y128.878 E5.26544
G1 X106.854 Y128.698 E5.29016
G1 X106.636 Y128.465 E5.31563
G1 X106.47 Y128.196 E5.34087
G1 X106.382 Y127.974 E5.35993
G1 X106.309 Y127.568 E5.39286
G1 X106.3 Y127.359 E5.40956
G1 X106.3 Y108.023 E6.95304
G1 X106.321 Y107.71 E6.97808
G1 X106.387 Y107.409 E7.00268
G1 X106.522 Y107.106 E7.02916
G1 X106.711 Y106.844 E7.05495
G0 F12000 X107.2 Y106.472
G1 F1125 X107.2 Y128.919 E8.84676
G0 F12000 X108.8 Y129.1
G1 F1125 X108.8 Y106.299 E10.66684
G0 F12000 X110.4 Y106.299
G1 F1125 X110.4 Y129.1 E12.48691
G0 F12000 X112 Y129.1
G1 F1125 X112 Y106.299 E14.30699
G0 F12000 X113.6 Y106.299
G1 F1125 X113.6 Y129.1 E16.12706
G0 F12000 X115.2 Y129.1
G1 F1125 X115.2 Y106.299 E17.94713
G0 F12000 X116.8 Y106.299
G1 F1125 X116.8 Y129.1 E19.76721
G0 F12000 X118.4 Y129.1
G1 F1125 X118.4 Y106.299 E21.58728
G0 F12000 X120 Y106.299
G1 F1125 X120 Y129.1 E23.40736
G0 F12000 X121.6 Y129.1
G1 F1125 X121.6 Y106.299 E25.22743
G0 F12000 X123.2 Y106.299
G1 F1125 X123.2 Y129.1 E27.04751
G0 F12000 X124.8 Y129.1
G1 F1125 X124.8 Y106.299 E28.86758
G0 F12000 X126.4 Y106.299
G1 F1125 X126.4 Y129.1 E30.68766
G0 F12000 X128 Y129.01
G1 F1125 X128 Y106.391 E32.4932
G0 F300 X128 Y106.391 Z0.69
G0 F12000 X127.371 Y106.298
;TIME_ELAPSED:27.896218
;LAYER:-2
;TYPE:SUPPORT
G1 F1125 X108.034 Y106.3 E35.38738
G1 X107.832 Y106.309 E35.41765
G1 X107.419 Y106.383 E35.48044
G1 X107.387 Y106.392 E35.48542
G1 X107.204 Y106.47 E35.51519
G1 X107.093 Y106.527 E35.53387
G1 X106.947 Y106.627 E35.56036
G1 X106.838 Y106.714 E35.58123
G1 X106.711 Y106.844 E35.60843
G1 X106.619 Y106.953 E35.62978
G1 X106.59 Y107 E35.63804
G1 X128.811 Y107 E38.96387
G0 F12000 X128.773 Y106.945
G1 F1125 X128.686 Y106.836 E38.98475
G1 X128.556 Y106.709 E39.01195
G1 X128.447 Y106.617 E39.0333
G1 X128.286 Y106.515 E39.06182
G1 X128.178 Y106.456 E39.08024
G1 X127.995 Y106.387 E39.10951
G1 X127.876 Y106.35 E39.12817
G1 X127.688 Y106.319 E39.15668
G1 X127.588 Y106.309 E39.17173
G1 X127.371 Y106.298 E39.20425
G1 F4500 E34.20425
G1 F300 Z0.99
G0 F12000 X106.59 Y107 Z0.99
G1 F300 Z0.69
G1 F4500 E39.20425
G1 F1125 X106.522 Y107.106 E39.2231
G1 X106.461 Y107.217 E39.24205
G1 X106.387 Y107.409 E39.27285
G1 X106.352 Y107.524 E39.29084
G1 X106.321 Y107.71 E39.31906
G1 X106.311 Y107.813 E39.33455
G1 X106.302 Y108 E39.36257
G1 X129.099 Y108 E42.77461
G1 X129.1 Y108.032 E42.77941
G1 X129.1 Y109 E42.92429
G1 X106.3 Y109 E46.33678
G1 X106.3 Y110 E46.48645
G1 X129.1 Y110 E49.89894
G1 X129.1 Y111 E50.04861
G1 X106.3 Y111 E53.4611
G1 X106.3 Y112 E53.61077
G1 X129.1 Y112 E57.02326
G1 X129.1 Y113 E57.17293
G1 X106.3 Y113 E60.58542
G1 X106.3 Y114 E60.73509
G1 X129.1 Y114 E64.14758
G1 X129.1 Y115 E64.29725
G1 X106.3 Y115 E67.70974
G1 X106.3 Y116 E67.85941
G1 X129.1 Y116 E71.2719
G1 X129.1 Y117 E71.42157
G1 X106.3 Y117 E74.83406
G1 X106.3 Y118 E74.98373
G1 X129.1 Y118 E78.39622
G1 X129.099 Y119 E78.54589
G1 X106.299 Y119 E81.95838
G1 X106.299 Y120 E82.10805
G1 X129.099 Y120 E85.52054
G1 X129.099 Y121 E85.67021
G1 X106.299 Y121 E89.0827
G1 X106.299 Y122 E89.23237
G1 X129.099 Y122 E92.64486
G1 X129.099 Y123 E92.79453
G1 X106.299 Y123 E96.20702
G1 X106.299 Y124 E96.35669
G1 X129.099 Y124 E99.76918
G1 X129.099 Y125 E99.91885
G1 X106.299 Y125 E103.33134
G1 X106.299 Y126 E103.48101
G1 X129.099 Y126 E106.8935
G1 X129.099 Y127 E107.04318
G1 X106.299 Y127 E110.45567
G1 X106.299 Y127.359 E110.5094
G1 X106.308 Y127.568 E110.54071
G1 X106.381 Y127.974 E110.60245
G1 X106.387 Y128 E110.60644
G1 X129.007 Y128 E113.99199
G1 X128.938 Y128.181 E114.02098
G1 X128.879 Y128.29 E114.03953
G1 X128.78 Y128.445 E114.06706
G1 X128.69 Y128.553 E114.0881
G1 X128.573 Y128.674 E114.11329
G1 X128.453 Y128.771 E114.13639
G1 X128.304 Y128.873 E114.16341
G1 X128.195 Y128.929 E114.18176
G1 X128.029 Y129 E114.20878
G1 X107.375 Y129 E117.30007
G0 F12000 X107.417 Y129.016
G1 F1125 X107.527 Y129.049 E117.31726
G1 X107.709 Y129.079 E117.34487
G1 X107.811 Y129.089 E117.36021
G1 X108.029 Y129.1 E117.39288
G1 X127.366 Y129.099 E120.28706
G1 X127.566 Y129.09 E120.31703
G1 X127.98 Y129.016 E120.37997
G1 X128.015 Y129.006 E120.38542
G1 X128.029 Y129 E120.3877
G1 F4500 E115.3877
G1 F300 Z0.99
G0 F12000 X108.5 Y126.9 Z0.99
;TIME_ELAPSED:61.195987
;LAYER:0
G1 F300 Z1.49
;MESH:four_square_cons.stl
G0 F12000 X108.5 Y126.9 Z1.49
;TYPE:WALL-INNER
G1 F300 Z1.19
G1 F4500 E120.3877
G1 F1500 X108.5 Y108.5 E120.99968
G1 X126.701 Y108.499 E121.60505
G1 X126.9 Y108.499 E121.61167
G1 X126.9 Y108.698 E121.61595
G1 X126.9 Y126.9 E122.22135
G1 X108.5 Y126.9 E122.83334
G0 F12000 X108.1 Y127.3
;TYPE:WALL-OUTER
G1 F1500 X108.1 Y108.1 E123.47194
G1 X127.3 Y108.099 E124.11053
G1 X127.3 Y127.3 E124.74916
G1 X108.1 Y127.3 E125.38775
G1 F4500 E120.38775
G1 F300 Z1.49
G0 F12000 X118.1 Y118.1 Z1.49
;TYPE:SKIN
G1 F300 Z1.19
G1 F4500 E125.38775
G1 F1500 X117.3 Y118.1 E125.41436
G1 X117.3 Y117.3 E125.44097
G1 X118.1 Y117.299 E125.46758
G1 X118.1 Y118.1 E125.49422
G0 F12000 X118.5 Y118.5
G1 F1500 X116.9 Y118.5 E125.54743
G1 X116.9 Y116.9 E125.60065
G1 X118.5 Y116.899 E125.65387
G1 X118.5 Y118.5 E125.70712
G0 F12000 X118.9 Y118.9
G1 F1500 X116.5 Y118.9 E125.78694
G1 X116.5 Y116.5 E125.86677
G1 X118.9 Y116.499 E125.94659
G1 X118.9 Y118.9 E126.02645
G0 F12000 X119.3 Y119.3
G1 F1500 X116.1 Y119.3 E126.13288
G1 X116.1 Y116.1 E126.23931
G1 X119.3 Y116.099 E126.34574
G1 X119.3 Y119.3 E126.45221
G0 F12000 X119.7 Y119.7
G1 F1500 X115.7 Y119.7 E126.58525
G1 X115.7 Y115.7 E126.71829
G1 X119.7 Y115.699 E126.85133
G1 X119.7 Y119.7 E126.98441
G0 F12000 X120.1 Y120.1
G1 F1500 X115.3 Y120.1 E127.14405
G1 X115.3 Y115.3 E127.3037
G1 X120.1 Y115.299 E127.46335
G1 X120.1 Y120.1 E127.62303
G0 F12000 X120.5 Y120.5
G1 F1500 X114.9 Y120.5 E127.80929
G1 X114.9 Y114.9 E127.99555
G1 X120.5 Y114.899 E128.1818
G1 X120.5 Y120.5 E128.36809
G0 F12000 X120.9 Y120.9
G1 F1500 X114.5 Y120.9 E128.58096
G1 X114.5 Y114.5 E128.79382
G1 X120.9 Y114.499 E129.00669
G1 X120.9 Y120.9 E129.21959
G0 F12000 X121.3 Y121.3
G1 F1500 X114.1 Y121.3 E129.45906
G1 X114.1 Y114.1 E129.69853
G1 X121.3 Y114.099 E129.93801
G1 X121.3 Y121.3 E130.17751
G0 F12000 X121.7 Y121.7
G1 F1500 X113.7 Y121.7 E130.44359
G1 X113.7 Y113.7 E130.70967
G1 X121.7 Y113.699 E130.97575
G1 X121.7 Y121.7 E131.24187
G0 F12000 X122.1 Y122.1
G1 F1500 X113.3 Y122.1 E131.53456
G1 X113.3 Y113.3 E131.82725
G1 X122.1 Y113.299 E132.11994
G1 X122.1 Y122.1 E132.41266
G0 F12000 X122.5 Y122.5
G1 F1500 X112.9 Y122.5 E132.73196
G1 X112.9 Y112.9 E133.05125
G1 X122.5 Y112.899 E133.37055
G1 X122.5 Y122.5 E133.68988
G0 F12000 X122.9 Y122.9
G1 F1500 X112.5 Y122.9 E134.03579
G1 X112.5 Y112.5 E134.38169
G1 X122.9 Y112.499 E134.7276
G1 X122.9 Y122.9 E135.07354
G0 F12000 X123.3 Y123.3
G1 F1500 X112.1 Y123.3 E135.44605
G1 X112.1 Y112.1 E135.81856
G1 X123.3 Y112.099 E136.19108
G1 X123.3 Y123.3 E136.56362
G0 F12000 X123.7 Y123.7
G1 F1500 X111.7 Y123.7 E136.96275
G1 X111.7 Y111.7 E137.36187
G1 X123.7 Y111.699 E137.76099
G1 X123.7 Y123.7 E138.16014
G0 F12000 X124.1 Y124.1
G1 F1500 X111.3 Y124.1 E138.58587
G1 X111.3 Y111.3 E139.0116
G1 X124.1 Y111.299 E139.43733
G1 X124.1 Y124.1 E139.8631
G0 F12000 X124.5 Y124.5
G1 F1500 X110.9 Y124.5 E140.31543
G1 X110.9 Y110.9 E140.76777
G1 X124.5 Y110.899 E141.22011
G1 X124.5 Y124.5 E141.67248
G0 F12000 X124.9 Y124.9
G1 F1500 X110.5 Y124.9 E142.15143
G1 X110.5 Y110.5 E142.63037
G1 X124.9 Y110.499 E143.10932
G1 X124.9 Y124.9 E143.5883
G0 F12000 X125.3 Y125.3
G1 F1500 X110.1 Y125.3 E144.09385
G1 X110.1 Y110.1 E144.59941
G1 X125.3 Y110.099 E145.10496
G1 X125.3 Y125.3 E145.61055
G0 F12000 X125.7 Y125.7
G1 F1500 X109.7 Y125.7 E146.14271
G1 X109.7 Y109.7 E146.67487
G1 X125.7 Y109.699 E147.20703
G1 X125.7 Y125.7 E147.73923
G0 F12000 X126.1 Y126.1
G1 F1500 X109.3 Y126.1 E148.298
G1 X109.3 Y109.3 E148.85677
G1 X126.1 Y109.299 E149.41554
G1 X126.1 Y126.1 E149.97434
G0 F12000 X126.5 Y126.5
G1 F1500 X108.9 Y126.5 E150.55972
G1 X108.9 Y108.9 E151.1451
G1 X126.5 Y108.899 E151.73048
G1 X126.5 Y126.5 E152.31589
G1 F4500 E147.31589
G1 F300 Z1.49
;MESH:NONMESH
G0 F12000 X108.25 Y126.9 Z1.49
;TIME_ELAPSED:104.677052
;LAYER:1
M106 S68
;MESH:four_square_cons.stl
G0 X108.25 Y126.9 Z1.64
;TYPE:WALL-INNER
G1 F300 Z1.34
G1 F4500 E152.31589
G1 F1800 X108.25 Y108.25 E153.24634
G1 X126.701 Y108.249 E154.16687
G1 X126.9 Y108.249 E154.17679
G1 X126.9 Y108.448 E154.18322
G1 X126.9 Y126.9 E155.10379
G1 X108.25 Y126.9 E156.03424
G0 F12000 X107.85 Y127.3
;TYPE:WALL-OUTER
G1 F1050 X107.85 Y107.85 E157.00461
G1 X127.3 Y107.849 E157.97497
G1 X127.3 Y127.3 E158.94539
G1 X107.85 Y127.3 E159.91575
G1 F4500 E154.91575
G1 F300 Z1.64
G0 F12000 X117.7 Y117.7 Z1.64
;TYPE:SKIN
G1 F300 Z1.34
G1 F4500 E159.91575
G1 F1050 X117.45 Y117.7 E159.92822
G1 X117.45 Y117.45 E159.9407
G1 X117.7 Y117.449 E159.95317
G1 X117.7 Y117.7 E159.96569
G0 F12000 X118.1 Y118.1
G1 F1050 X117.05 Y118.1 E160.01808
G1 X117.05 Y117.05 E160.07046
G1 X118.1 Y117.049 E160.12285
G1 X118.1 Y118.1 E160.17528
G0 F12000 X118.5 Y118.5
G1 F1050 X116.65 Y118.5 E160.26758
G1 X116.65 Y116.65 E160.35987
G1 X118.5 Y116.649 E160.45217
G1 X118.5 Y118.5 E160.54452
G0 F12000 X118.9 Y118.9
G1 F1050 X116.25 Y118.9 E160.67673
G1 X116.25 Y116.25 E160.80894
G1 X118.9 Y116.249 E160.94115
G1 X118.9 Y118.9 E161.0734
G0 F12000 X119.3 Y119.3
G1 F1050 X115.85 Y119.3 E161.24553
G1 X115.85 Y115.85 E161.41765
G1 X119.3 Y115.849 E161.58977
G1 X119.3 Y119.3 E161.76194
G0 F12000 X119.7 Y119.7
G1 F1050 X115.45 Y119.7 E161.97397
G1 X115.45 Y115.45 E162.18601
G1 X119.7 Y115.449 E162.39804
G1 X119.7 Y119.7 E162.61012
G0 F12000 X120.1 Y120.1
G1 F1050 X115.05 Y120.1 E162.86207
G1 X115.05 Y115.05 E163.11401
G1 X120.1 Y115.049 E163.36596
G1 X120.1 Y120.1 E163.61795
G0 F12000 X120.5 Y120.5
G1 F1050 X114.65 Y120.5 E163.90981
G1 X114.65 Y114.65 E164.20167
G1 X120.5 Y114.649 E164.49353
G1 X120.5 Y120.5 E164.78544
G0 F12000 X120.9 Y120.9
G1 F1050 X114.25 Y120.9 E165.1172
G1 X114.25 Y114.25 E165.44897
G1 X120.9 Y114.249 E165.78074
G1 X120.9 Y120.9 E166.11256
G0 F12000 X121.3 Y121.3
G1 F1050 X113.85 Y121.3 E166.48425
G1 X113.85 Y113.85 E166.85593
G1 X121.3 Y113.849 E167.22761
G1 X121.3 Y121.3 E167.59934
G0 F12000 X121.7 Y121.7
G1 F1050 X113.45 Y121.7 E168.01094
G1 X113.45 Y113.45 E168.42253
G1 X121.7 Y113.449 E168.83412
G1 X121.7 Y121.7 E169.24577
G0 F12000 X122.1 Y122.1
G1 F1050 X113.05 Y122.1 E169.69728
G1 X113.05 Y113.05 E170.14878
G1 X122.1 Y113.049 E170.60029
G1 X122.1 Y122.1 E171.05184
G0 F12000 X122.5 Y122.5
G1 F1050 X112.65 Y122.5 E171.54326
G1 X112.65 Y112.65 E172.03468
G1 X122.5 Y112.649 E172.5261
G1 X122.5 Y122.5 E173.01757
G0 F12000 X122.9 Y122.9
G1 F1050 X112.25 Y122.9 E173.5489
G1 X112.25 Y112.25 E174.08023
G1 X122.9 Y112.249 E174.61156
G1 X122.9 Y122.9 E175.14294
G0 F12000 X123.3 Y123.3
G1 F1050 X111.85 Y123.3 E175.71418
G1 X111.85 Y111.85 E176.28543
G1 X123.3 Y111.849 E176.85667
G1 X123.3 Y123.3 E177.42796
G0 F12000 X123.7 Y123.7
G1 F1050 X111.45 Y123.7 E178.03912
G1 X111.45 Y111.45 E178.65027
G1 X123.7 Y111.449 E179.26143
G1 X123.7 Y123.7 E179.87263
G0 F12000 X124.1 Y124.1
G1 F1050 X111.05 Y124.1 E180.5237
G1 X111.05 Y111.05 E181.17477
G1 X124.1 Y111.049 E181.82583
G1 X124.1 Y124.1 E182.47695
G0 F12000 X124.5 Y124.5
G1 F1050 X110.65 Y124.5 E183.16793
G1 X110.65 Y110.65 E183.85891
G1 X124.5 Y110.649 E184.54989
G1 X124.5 Y124.5 E185.24092
G0 F12000 X124.9 Y124.9
G1 F1050 X110.25 Y124.9 E185.97181
G1 X110.25 Y110.25 E186.7027
G1 X124.9 Y110.249 E187.43359
G1 X124.9 Y124.9 E188.16453
G0 F12000 X125.3 Y125.3
G1 F1050 X109.85 Y125.3 E188.93534
G1 X109.85 Y109.85 E189.70614
G1 X125.3 Y109.849 E190.47694
G1 X125.3 Y125.3 E191.2478
G0 F12000 X125.7 Y125.7
G1 F1050 X109.45 Y125.7 E192.05851
G1 X109.45 Y109.45 E192.86923
G1 X125.7 Y109.449 E193.67994
G1 X125.7 Y125.7 E194.49071
G0 F12000 X126.1 Y126.1
G1 F1050 X109.05 Y126.1 E195.34134
G1 X109.05 Y109.05 E196.19197
G1 X126.1 Y109.049 E197.04259
G1 X126.1 Y126.1 E197.89327
G0 F12000 X126.5 Y126.5
G1 F1050 X108.65 Y126.5 E198.78381
G1 X108.65 Y108.65 E199.67435
G1 X126.5 Y108.649 E200.56489
G1 X126.5 Y126.5 E201.45548
;MESH:NONMESH
G0 F300 X126.5 Y126.5 Z1.64
G0 F12000 X126.9 Y126.9
;TIME_ELAPSED:162.778658
;LAYER:2
M106 S136
;TYPE:WALL-INNER
;MESH:four_square_cons.stl
G1 F2100 X108.1 Y126.9 E202.39342
G1 X108.1 Y108.1 E203.33135
G1 X126.9 Y108.1 E204.26929
G1 X126.9 Y126.9 E205.20723
G0 F12000 X127.3 Y127.3
;TYPE:WALL-OUTER
G1 F600 X107.7 Y127.3 E206.18507
G1 X107.7 Y107.7 E207.16292
G1 X127.3 Y107.7 E208.14077
G1 X127.3 Y127.3 E209.11862
G1 F4500 E204.11862
G1 F300 Z1.94
G0 F12000 X125.619 Y109.6 Z1.94
;TYPE:FILL
G1 F300 Z1.64
G1 F4500 E209.11862
G1 F1200 X125.682 Y109.6 E209.12097
G1 X124.318 Y109.6 E209.17201
G1 X124.381 Y109.6 E209.17437
G1 F4500 E204.17437
G1 F300 Z1.94
G0 F12000 X110.619 Y109.6 Z1.94
G1 F300 Z1.64
G1 F4500 E209.17437
G1 F1200 X110.682 Y109.6 E209.17673
G1 X109.318 Y109.6 E209.22776
G1 X109.381 Y109.6 E209.23012
G1 F4500 E204.23012
G1 F300 Z1.94
G0 F12000 X117.718 Y117.282 Z1.94
;TYPE:SKIN
G1 F300 Z1.64
G1 F4500 E209.23012
G1 F600 X120.1 Y117.283 E209.34896
G1 X120.1 Y117.718 E209.37066
G1 X117.718 Y117.718 E209.4895
G1 X117.718 Y120.1 E209.60834
G1 X117.283 Y120.1 E209.63004
G1 X117.282 Y117.718 E209.74888
G1 X114.9 Y117.718 E209.86772
G1 X114.9 Y117.282 E209.88947
G1 X117.283 Y117.283 E210.00836
G1 X117.282 Y114.9 E210.12725
G1 X117.718 Y114.9 E210.149
G1 X117.718 Y117.282 E210.26784
G0 F12000 X118.118 Y116.882
G1 F600 X120.5 Y116.883 E210.38668
G1 X120.5 Y118.118 E210.44829
G1 X118.118 Y118.118 E210.56713
G1 X118.118 Y120.5 E210.68597
G1 X116.883 Y120.5 E210.74758
G1 X116.882 Y118.118 E210.86642
G1 X114.5 Y118.118 E210.98526
G1 X114.5 Y116.882 E211.04692
G1 X116.883 Y116.883 E211.16581
G1 X116.882 Y114.5 E211.2847
G1 X118.118 Y114.5 E211.34636
G1 X118.118 Y116.882 E211.4652
G0 F12000 X118.518 Y116.482
