;FLAVOR:Marlin
;TIME:8544
;Filament used: 9.81104m
;Layer height: 0.32
;MINX:79.184
;MINY:76.484
;MINZ:0.2
;MAXX:179.99
;MAXY:159.482
;MAXZ:17.16
;Generated with Cura_SteamEngine 4.11.0
M140 S60
M105
M190 S60
M104 S215
M105
M109 S215
M82 ;absolute extrusion mode
; Ender 3 Custom Start G-code
G92 E0 ; Reset Extruder
G28 ; Home all axes
G1 Z2.0 F3000 ; Move Z Axis up little to prevent scratching of Heat Bed
G1 X0.1 Y20 Z0.3 F5000.0 ; Move to start position
G1 X0.1 Y200.0 Z0.3 F1500.0 E15 ; Draw the first line
G1 X0.4 Y200.0 Z0.3 F5000.0 ; Move to side a little
G1 X0.4 Y20 Z0.3 F1500.0 E30 ; Draw the second line
G92 E0 ; Reset Extruder
G1 Z2.0 F3000 ; Move Z Axis up little to prevent scratching of Heat Bed
G1 X5 Y20 Z0.3 F5000.0 ; Move over to prevent blob squish
G92 E0
G92 E0
;LAYER_COUNT:54
;LAYER:0
M107
G0 F12000 X80.914 Y77.279 Z0.2
;TYPE:SKIRT
G1 F2700 X81.015 Y77.179 E0.00397
G1 X81.353 Y76.9 E0.01622
G1 X81.736 Y76.688 E0.02845
G1 X82.151 Y76.549 E0.04067
G1 X82.704 Y76.484 E0.05623
G1 X92.104 Y76.484 E0.31885
G1 X92.54 Y76.524 E0.33108
G1 X92.961 Y76.642 E0.3433
G1 X93.03 Y76.676 E0.34545
G1 X93.253 Y76.586 E0.35217
G1 X93.682 Y76.498 E0.3644
G1 X93.945 Y76.484 E0.37176
G1 X103.344 Y76.484 E0.63435
G1 X103.78 Y76.524 E0.64659
G1 X104.201 Y76.642 E0.6588
G1 X104.594 Y76.835 E0.67103
G1 X105.041 Y77.187 E0.68693
G1 X105.254 Y77.423 E0.69581
G1 X105.469 Y77.179 E0.7049
G1 X105.807 Y76.9 E0.71714
G1 X106.19 Y76.688 E0.72937
G1 X106.605 Y76.549 E0.7416
G1 X107.158 Y76.484 E0.75716
G1 X116.557 Y76.484 E1.01975
G1 X116.993 Y76.524 E1.03198
G1 X117.414 Y76.642 E1.0442
G1 X117.484 Y76.676 E1.04637
G1 X117.707 Y76.586 E1.05309
G1 X118.136 Y76.498 E1.06533
G1 X118.399 Y76.484 E1.07269
G1 X127.798 Y76.484 E1.33528
G1 X128.234 Y76.524 E1.34751
G1 X128.655 Y76.642 E1.35973
G1 X129.048 Y76.835 E1.37196
G1 X129.495 Y77.187 E1.38786
G1 X129.68 Y77.388 E1.39549
G1 X129.841 Y77.212 E1.40215
G1 X130.179 Y76.933 E1.4144
G1 X130.562 Y76.721 E1.42663
G1 X130.977 Y76.582 E1.43885
G1 X131.53 Y76.517 E1.45441
G1 X140.929 Y76.517 E1.71701
G1 X141.365 Y76.557 E1.72924
G1 X141.786 Y76.675 E1.74145
G1 X141.856 Y76.709 E1.74363
G1 X142.079 Y76.619 E1.75035
G1 X142.508 Y76.531 E1.76258
G1 X142.771 Y76.517 E1.76994
G1 X152.17 Y76.517 E2.03253
G1 X152.606 Y76.557 E2.04477
G1 X153.027 Y76.675 E2.05698
G1 X153.42 Y76.868 E2.06921
G1 X153.867 Y77.22 E2.08511
G1 X154.001 Y77.361 E2.09054
G1 X154.141 Y77.212 E2.09626
G1 X154.479 Y76.933 E2.1085
G1 X154.862 Y76.721 E2.12073
G1 X155.277 Y76.582 E2.13296
G1 X155.83 Y76.517 E2.14851
G1 X165.229 Y76.517 E2.41111
G1 X165.665 Y76.557 E2.42334
G1 X166.086 Y76.675 E2.43556
G1 X166.156 Y76.709 E2.43773
G1 X166.379 Y76.619 E2.44445
G1 X166.808 Y76.531 E2.45668
G1 X167.071 Y76.517 E2.46404
G1 X176.47 Y76.517 E2.72664
G1 X176.906 Y76.557 E2.73887
G1 X177.327 Y76.675 E2.75108
G1 X177.72 Y76.868 E2.76332
G1 X178.167 Y77.22 E2.77921
G1 X178.267 Y77.32 E2.78316
G1 X178.547 Y77.656 E2.79538
G1 X178.761 Y78.038 E2.80762
G1 X178.903 Y78.452 E2.81984
G1 X178.97 Y79.017 E2.83574
G1 X178.971 Y95.478 E3.29564
G1 X178.931 Y95.914 E3.30787
G1 X178.813 Y96.335 E3.32008
G1 X178.728 Y96.507 E3.32544
G1 X178.869 Y96.855 E3.33593
G1 X178.957 Y97.284 E3.34817
G1 X178.971 Y97.546 E3.3555
G1 X178.971 Y128.228 E4.21271
G1 X178.931 Y128.664 E4.22494
G1 X178.813 Y129.085 E4.23716
G1 X178.728 Y129.257 E4.24252
G1 X178.869 Y129.605 E4.25301
G1 X178.957 Y130.034 E4.26524
G1 X178.971 Y130.296 E4.27257
G1 X178.971 Y142.565 E4.61535
G1 X179.191 Y142.729 E4.62302
G1 X179.489 Y143.05 E4.63525
G1 X179.724 Y143.419 E4.64748
G1 X179.888 Y143.825 E4.65971
G1 X179.976 Y144.254 E4.67195
G1 X179.99 Y144.517 E4.6793
G1 X179.989 Y151.574 E4.87647
G1 X179.968 Y151.89 E4.88531
G1 X179.779 Y153.311 E4.92536
G1 X179.617 Y153.913 E4.94278
G1 X179.065 Y155.246 E4.98309
G1 X178.752 Y155.789 E5.0006
G1 X177.87 Y156.939 E5.04109
G1 X177.427 Y157.382 E5.0586
G1 X176.277 Y158.264 E5.09909
G1 X175.735 Y158.577 E5.11657
G1 X174.401 Y159.13 E5.15692
G1 X173.797 Y159.292 E5.17439
G1 X172.36 Y159.482 E5.21489
G1 X171.73 Y159.482 E5.23249
G1 X170.293 Y159.292 E5.27298
G1 X169.69 Y159.13 E5.29043
G1 X168.355 Y158.577 E5.3308
G1 X167.812 Y158.264 E5.34831
G1 X166.663 Y157.382 E5.38878
G1 X166.22 Y156.939 E5.40628
G1 X166.15 Y156.848 E5.40949
G1 X166.08 Y156.939 E5.4127
G1 X165.637 Y157.382 E5.4302
G1 X164.487 Y158.264 E5.47069
G1 X163.945 Y158.577 E5.48818
G1 X162.611 Y159.13 E5.52852
G1 X162.007 Y159.292 E5.546
G1 X160.57 Y159.482 E5.58649
G1 X159.94 Y159.482 E5.60409
G1 X158.503 Y159.292 E5.64459
G1 X157.9 Y159.13 E5.66203
G1 X156.565 Y158.577 E5.70241
G1 X156.022 Y158.264 E5.71992
G1 X154.873 Y157.382 E5.76039
G1 X154.43 Y156.939 E5.77789
G1 X154 Y156.378 E5.79764
G1 X153.57 Y156.939 E5.81738
G1 X153.127 Y157.382 E5.83489
G1 X151.978 Y158.264 E5.87536
G1 X151.435 Y158.577 E5.89287
G1 X150.1 Y159.13 E5.93324
G1 X149.497 Y159.292 E5.95068
G1 X148.06 Y159.482 E5.99118
G1 X147.43 Y159.482 E6.00878
G1 X145.993 Y159.292 E6.04928
G1 X145.389 Y159.13 E6.06675
G1 X144.055 Y158.577 E6.10709
G1 X143.513 Y158.264 E6.12458
G1 X142.363 Y157.382 E6.16507
G1 X141.92 Y156.939 E6.18258
G1 X141.85 Y156.848 E6.18578
G1 X141.78 Y156.939 E6.18899
G1 X141.337 Y157.382 E6.20649
G1 X140.188 Y158.264 E6.24696
G1 X139.645 Y158.577 E6.26447
G1 X138.31 Y159.13 E6.30484
G1 X137.707 Y159.292 E6.32229
G1 X136.27 Y159.482 E6.36279
G1 X135.64 Y159.482 E6.38039
G1 X134.203 Y159.292 E6.42088
G1 X133.599 Y159.13 E6.43836
G1 X132.265 Y158.577 E6.4787
G1 X131.723 Y158.264 E6.49619
G1 X130.573 Y157.382 E6.53668
G1 X130.13 Y156.939 E6.55418
G1 X129.651 Y156.315 E6.57616
G1 X129.199 Y156.905 E6.59692
G1 X128.754 Y157.35 E6.61451
G1 X127.605 Y158.231 E6.65496
G1 X127.063 Y158.543 E6.67243
G1 X125.728 Y159.096 E6.7128
G1 X125.125 Y159.258 E6.73025
G1 X123.688 Y159.448 E6.77074
G1 X123.058 Y159.448 E6.78834
G1 X121.621 Y159.258 E6.82884
G1 X121.017 Y159.096 E6.84631
G1 X119.683 Y158.543 E6.88666
G1 X119.142 Y158.231 E6.90411
G1 X117.992 Y157.35 E6.94458
G1 X117.547 Y156.905 E6.96216
G1 X117.478 Y156.815 E6.96533
G1 X117.409 Y156.905 E6.9685
G1 X116.964 Y157.35 E6.98608
G1 X115.815 Y158.231 E7.02653
G1 X115.273 Y158.543 E7.04401
G1 X113.938 Y159.096 E7.08438
G1 X113.335 Y159.258 E7.10182
G1 X111.898 Y159.448 E7.14232
G1 X111.268 Y159.448 E7.15992
G1 X109.831 Y159.258 E7.20042
G1 X109.227 Y159.096 E7.21789
G1 X107.893 Y158.543 E7.25823
G1 X107.352 Y158.231 E7.27568
G1 X106.202 Y157.35 E7.31616
G1 X105.757 Y156.905 E7.33374
G1 X105.251 Y156.245 E7.35697
G1 X104.745 Y156.905 E7.38021
G1 X104.3 Y157.35 E7.39779
G1 X103.151 Y158.231 E7.43824
G1 X102.609 Y158.543 E7.45571
G1 X101.274 Y159.096 E7.49609
G1 X100.671 Y159.258 E7.51353
G1 X99.234 Y159.448 E7.55403
G1 X98.604 Y159.448 E7.57163
G1 X97.167 Y159.258 E7.61213
G1 X96.563 Y159.096 E7.6296
G1 X95.229 Y158.543 E7.66994
G1 X94.688 Y158.231 E7.68739
G1 X93.538 Y157.35 E7.72786
G1 X93.093 Y156.905 E7.74545
G1 X93.024 Y156.815 E7.74861
G1 X92.955 Y156.905 E7.75178
G1 X92.51 Y157.35 E7.76937
G1 X91.361 Y158.231 E7.80982
G1 X90.819 Y158.543 E7.82729
G1 X89.484 Y159.096 E7.86766
G1 X88.881 Y159.258 E7.88511
G1 X87.444 Y159.448 E7.9256
G1 X86.814 Y159.448 E7.9432
G1 X85.377 Y159.258 E7.9837
G1 X84.773 Y159.096 E8.00117
G1 X83.439 Y158.543 E8.04152
G1 X82.898 Y158.231 E8.05897
G1 X81.748 Y157.35 E8.09944
G1 X81.303 Y156.905 E8.11702
G1 X80.421 Y155.754 E8.15753
G1 X80.109 Y155.212 E8.17501
G1 X79.557 Y153.879 E8.21532
G1 X79.395 Y153.275 E8.23279
G1 X79.207 Y151.849 E8.27297
G1 X79.186 Y151.536 E8.28174
G1 X79.184 Y144.485 E8.47873
G1 X79.224 Y144.049 E8.49096
G1 X79.342 Y143.627 E8.50321
G1 X79.535 Y143.234 E8.51544
G1 X79.796 Y142.883 E8.52766
G1 X80.117 Y142.585 E8.5399
G1 X80.203 Y142.53 E8.54275
G1 X80.203 Y130.263 E8.88547
G1 X80.243 Y129.827 E8.8977
G1 X80.361 Y129.406 E8.90992
G1 X80.446 Y129.234 E8.91528
G1 X80.306 Y128.888 E8.92571
G1 X80.218 Y128.459 E8.93794
G1 X80.204 Y128.196 E8.9453
G1 X80.203 Y97.513 E9.80254
G1 X80.243 Y97.077 E9.81477
G1 X80.361 Y96.656 E9.82698
G1 X80.446 Y96.484 E9.83234
G1 X80.306 Y96.138 E9.84277
G1 X80.218 Y95.709 E9.85501
G1 X80.204 Y95.446 E9.86237
G1 X80.203 Y78.984 E10.32229
G1 X80.243 Y78.548 E10.33452
G1 X80.361 Y78.127 E10.34674
G1 X80.554 Y77.734 E10.35897
G1 X80.914 Y77.279 E10.37518
G0 F12000 X81.14 Y77.506
G1 F2700 X81.241 Y77.406 E10.37915
G1 X81.557 Y77.149 E10.39053
G1 X81.917 Y76.959 E10.4019
G1 X82.307 Y76.842 E10.41328
G1 X82.704 Y76.804 E10.42442
G1 X92.104 Y76.804 E10.68704
G1 X92.509 Y76.844 E10.69841
G1 X92.899 Y76.962 E10.7098
G1 X93.024 Y77.029 E10.71376
G1 X93.147 Y76.963 E10.71766
G1 X93.537 Y76.844 E10.72905
G1 X93.945 Y76.804 E10.7405
G1 X103.344 Y76.804 E11.0031
G1 X103.749 Y76.844 E11.01447
G1 X104.139 Y76.962 E11.02585
G1 X104.499 Y77.154 E11.03725
G1 X104.815 Y77.413 E11.04867
G1 X104.915 Y77.513 E11.05262
G1 X105.173 Y77.828 E11.06399
G1 X105.25 Y77.973 E11.06858
G1 X105.327 Y77.829 E11.07314
G1 X105.594 Y77.506 E11.08485
G1 X105.695 Y77.406 E11.08882
G1 X106.011 Y77.149 E11.1002
G1 X106.371 Y76.959 E11.11157
G1 X106.761 Y76.842 E11.12295
G1 X107.158 Y76.804 E11.13409
G1 X116.557 Y76.804 E11.39669
G1 X116.962 Y76.844 E11.40806
G1 X117.352 Y76.962 E11.41944
G1 X117.478 Y77.029 E11.42343
G1 X117.601 Y76.963 E11.42733
G1 X117.991 Y76.844 E11.43872
G1 X118.399 Y76.804 E11.45017
G1 X127.798 Y76.804 E11.71277
G1 X128.203 Y76.844 E11.72414
G1 X128.593 Y76.962 E11.73552
G1 X128.953 Y77.154 E11.74692
G1 X129.269 Y77.413 E11.75833
G1 X129.369 Y77.513 E11.76229
G1 X129.627 Y77.828 E11.77366
G1 X129.672 Y77.912 E11.77632
G1 X129.699 Y77.862 E11.77791
G1 X129.966 Y77.539 E11.78962
G1 X130.067 Y77.439 E11.79359
G1 X130.383 Y77.182 E11.80497
G1 X130.743 Y76.992 E11.81634
G1 X131.133 Y76.875 E11.82772
G1 X131.53 Y76.837 E11.83886
G1 X140.929 Y76.837 E12.10146
G1 X141.334 Y76.877 E12.11283
G1 X141.724 Y76.995 E12.12421
G1 X141.85 Y77.062 E12.1282
G1 X141.973 Y76.996 E12.1321
G1 X142.363 Y76.877 E12.14349
G1 X142.771 Y76.837 E12.15494
G1 X152.17 Y76.837 E12.41754
G1 X152.575 Y76.877 E12.42891
G1 X152.965 Y76.995 E12.44029
G1 X153.325 Y77.187 E12.45169
G1 X153.641 Y77.446 E12.4631
G1 X153.741 Y77.546 E12.46705
G1 X153.999 Y77.862 E12.47845
G1 X154.266 Y77.539 E12.49016
G1 X154.367 Y77.439 E12.49413
G1 X154.683 Y77.182 E12.50551
G1 X155.043 Y76.992 E12.51688
G1 X155.433 Y76.875 E12.52826
G1 X155.83 Y76.837 E12.5394
G1 X165.229 Y76.837 E12.802
G1 X165.634 Y76.877 E12.81337
G1 X166.024 Y76.995 E12.82475
G1 X166.15 Y77.062 E12.82874
G1 X166.273 Y76.996 E12.83264
G1 X166.663 Y76.877 E12.84403
G1 X167.071 Y76.837 E12.85548
G1 X176.47 Y76.837 E13.11808
G1 X176.875 Y76.877 E13.12945
G1 X177.265 Y76.995 E13.14083
G1 X177.625 Y77.187 E13.15223
G1 X177.941 Y77.446 E13.16364
G1 X178.041 Y77.546 E13.1676
G1 X178.299 Y77.861 E13.17897
G1 X178.491 Y78.22 E13.19035
G1 X178.61 Y78.61 E13.20174
G1 X178.65 Y79.017 E13.21316
G1 X178.651 Y95.478 E13.67306
G1 X178.611 Y95.883 E13.68443
G1 X178.493 Y96.273 E13.69581
G1 X178.366 Y96.512 E13.70337
G1 X178.492 Y96.748 E13.71085
G1 X178.611 Y97.138 E13.72224
G1 X178.651 Y97.546 E13.73369
G1 X178.651 Y128.228 E14.5909
G1 X178.611 Y128.633 E14.60227
G1 X178.493 Y129.023 E14.61366
G1 X178.366 Y129.262 E14.62122
G1 X178.492 Y129.498 E14.62869
G1 X178.611 Y129.888 E14.64009
G1 X178.651 Y130.296 E14.65154
G1 X178.651 Y142.737 E14.99912
G1 X178.745 Y142.787 E15.0021
G1 X179.06 Y143.045 E15.01347
G1 X179.319 Y143.36 E15.02487
G1 X179.511 Y143.719 E15.03624
G1 X179.63 Y144.109 E15.04763
G1 X179.67 Y144.517 E15.05909
G1 X179.669 Y151.574 E15.25625
G1 X179.651 Y151.848 E15.26392
G1 X179.462 Y153.269 E15.30397
G1 X179.322 Y153.791 E15.31907
G1 X178.77 Y155.124 E15.35938
G1 X178.498 Y155.594 E15.37455
G1 X177.616 Y156.744 E15.41504
G1 X177.232 Y157.128 E15.43021
G1 X176.082 Y158.01 E15.4707
G1 X175.613 Y158.281 E15.48584
G1 X174.279 Y158.834 E15.52618
G1 X173.755 Y158.975 E15.54134
G1 X172.318 Y159.165 E15.58184
G1 X171.772 Y159.165 E15.59709
G1 X170.335 Y158.975 E15.63759
G1 X169.812 Y158.835 E15.65272
G1 X168.477 Y158.282 E15.69309
G1 X168.006 Y158.01 E15.70828
G1 X166.857 Y157.128 E15.74875
G1 X166.474 Y156.744 E15.76391
G1 X166.15 Y156.322 E15.77877
G1 X165.826 Y156.744 E15.79363
G1 X165.442 Y157.128 E15.80881
G1 X164.292 Y158.01 E15.8493
G1 X163.823 Y158.281 E15.86443
G1 X162.489 Y158.834 E15.90478
G1 X161.965 Y158.975 E15.91994
G1 X160.528 Y159.165 E15.96043
G1 X159.982 Y159.165 E15.97569
G1 X158.545 Y158.975 E16.01619
G1 X158.022 Y158.835 E16.03131
G1 X156.687 Y158.282 E16.07168
G1 X156.216 Y158.01 E16.08688
G1 X155.067 Y157.128 E16.12735
G1 X154.684 Y156.744 E16.1425
G1 X154 Y155.852 E16.1739
G1 X153.316 Y156.744 E16.20531
G1 X152.933 Y157.128 E16.22046
G1 X151.784 Y158.01 E16.26093
G1 X151.313 Y158.282 E16.27613
G1 X149.978 Y158.835 E16.3165
G1 X149.455 Y158.975 E16.33162
G1 X148.018 Y159.165 E16.37212
G1 X147.472 Y159.165 E16.38738
G1 X146.035 Y158.975 E16.42787
G1 X145.511 Y158.834 E16.44303
G1 X144.177 Y158.281 E16.48338
G1 X143.708 Y158.01 E16.49851
G1 X142.558 Y157.128 E16.539
G1 X142.174 Y156.744 E16.55417
G1 X141.85 Y156.322 E16.56904
G1 X141.526 Y156.744 E16.5839
G1 X141.143 Y157.128 E16.59906
G1 X139.994 Y158.01 E16.63952
G1 X139.523 Y158.282 E16.65472
G1 X138.188 Y158.835 E16.69509
G1 X137.665 Y158.975 E16.71022
G1 X136.228 Y159.165 E16.75071
G1 X135.682 Y159.165 E16.76597
G1 X134.245 Y158.975 E16.80647
G1 X133.721 Y158.834 E16.82163
G1 X132.387 Y158.281 E16.86197
G1 X131.918 Y158.01 E16.87711
G1 X130.768 Y157.128 E16.9176
G1 X130.384 Y156.744 E16.93277
G1 X129.651 Y155.788 E16.96642
G1 X128.945 Y156.71 E16.99887
G1 X128.56 Y157.096 E17.0141
G1 X127.411 Y157.977 E17.05455
G1 X126.941 Y158.248 E17.06971
G1 X125.606 Y158.801 E17.11008
G1 X125.083 Y158.941 E17.12521
G1 X123.646 Y159.131 E17.1657
G1 X123.1 Y159.131 E17.18096
G1 X121.663 Y158.941 E17.22146
G1 X121.139 Y158.8 E17.23662
G1 X119.805 Y158.247 E17.27696
G1 X119.337 Y157.977 E17.29206
G1 X118.187 Y157.096 E17.33253
G1 X117.801 Y156.71 E17.34778
G1 X117.478 Y156.288 E17.36263
G1 X117.155 Y156.71 E17.37748
G1 X116.77 Y157.096 E17.39271
G1 X115.621 Y157.977 E17.43316
G1 X115.151 Y158.248 E17.44832
G1 X113.816 Y158.801 E17.48869
G1 X113.293 Y158.941 E17.50381
G1 X111.856 Y159.131 E17.54431
G1 X111.31 Y159.131 E17.55957
G1 X109.873 Y158.941 E17.60006
G1 X109.349 Y158.8 E17.61522
G1 X108.015 Y158.247 E17.65557
G1 X107.547 Y157.977 E17.67066
G1 X106.397 Y157.096 E17.71114
G1 X106.011 Y156.71 E17.72639
G1 X105.251 Y155.718 E17.7613
G1 X104.491 Y156.71 E17.79622
G1 X104.106 Y157.096 E17.81145
G1 X102.957 Y157.977 E17.8519
G1 X102.487 Y158.248 E17.86706
G1 X101.152 Y158.801 E17.90743
G1 X100.629 Y158.941 E17.92256
G1 X99.192 Y159.131 E17.96305
G1 X98.646 Y159.131 E17.97831
G1 X97.209 Y158.941 E18.0188
G1 X96.685 Y158.8 E18.03396
G1 X95.351 Y158.247 E18.07431
G1 X94.883 Y157.977 E18.0894
G1 X93.733 Y157.096 E18.12988
G1 X93.347 Y156.71 E18.14513
G1 X93.024 Y156.288 E18.15998
G1 X92.701 Y156.71 E18.17482
G1 X92.316 Y157.096 E18.19006
G1 X91.167 Y157.977 E18.23051
G1 X90.697 Y158.248 E18.24567
G1 X89.362 Y158.801 E18.28604
G1 X88.839 Y158.941 E18.30116
G1 X87.402 Y159.131 E18.34166
G1 X86.856 Y159.131 E18.35691
G1 X85.419 Y158.941 E18.39741
G1 X84.895 Y158.8 E18.41257
G1 X83.561 Y158.247 E18.45292
G1 X83.093 Y157.977 E18.46801
G1 X81.943 Y157.096 E18.50849
G1 X81.557 Y156.71 E18.52374
G1 X80.675 Y155.559 E18.56425
G1 X80.404 Y155.09 E18.57938
G1 X79.852 Y153.757 E18.61969
G1 X79.712 Y153.233 E18.63485
G1 X79.524 Y151.807 E18.67503
G1 X79.506 Y151.536 E18.68262
G1 X79.504 Y144.485 E18.87961
