;FLAVOR:Marlin
;TIME:1234
;Filament used: 1.33055m
;Layer height: 0.32
;MINX:98.82
;MINY:101.297
;MINZ:0.2
;MAXX:129.013
;MAXY:131.497
;MAXZ:20.34
;Generated with Cura_SteamEngine 4.11.0
M140 S60
M105
M190 S60
M104 S215
M105
M109 S215
M82 ;absolute extrusion mode
; Ender 3 Custom Start G-code
G92 E0 ; Reset Extruder
G28 ; Home all axes
G1 Z2.0 F3000 ; Move Z Axis up little to prevent scratching of Heat Bed
G1 X0.1 Y20 Z0.3 F5000.0 ; Move to start position
G1 X0.1 Y200.0 Z0.3 F1500.0 E15 ; Draw the first line
G1 X0.4 Y200.0 Z0.3 F5000.0 ; Move to side a little
G1 X0.4 Y20 Z0.3 F1500.0 E30 ; Draw the second line
G92 E0 ; Reset Extruder
G1 Z2.0 F3000 ; Move Z Axis up little to prevent scratching of Heat Bed
G1 X5 Y20 Z0.3 F5000.0 ; Move over to prevent blob squish
G92 E0
G92 E0
G1 F4500 E-5
;LAYER_COUNT:63
;LAYER:0
M107
G1 F300 Z0.5
;MESH:track_wheel_V1.STL
G0 F12000 X112.789 Y122.905 Z0.5
;TYPE:WALL-OUTER
G1 F300 Z0.2
G1 F4500 E0
G1 F2100 X113.916 Y122.997 E0.04137
G1 X115.008 Y122.906 E0.08146
G1 X115.945 Y122.668 E0.11683
G1 X116.058 Y122.642 E0.12107
G1 X117.057 Y122.203 E0.161
G1 X117.971 Y121.605 E0.20096
G1 X118.774 Y120.868 E0.24083
G1 X119.384 Y120.082 E0.27723
G1 X119.443 Y120.009 E0.28067
G1 X119.961 Y119.05 E0.32055
G1 X120.316 Y118.018 E0.36047
G1 X120.495 Y116.943 E0.40035
G1 X120.495 Y115.851 E0.4403
G1 X120.316 Y114.776 E0.48017
G1 X119.962 Y113.745 E0.52005
G1 X119.466 Y112.833 E0.55803
G1 X119.447 Y112.791 E0.55972
G1 X118.8 Y111.963 E0.59816
G1 X118.779 Y111.931 E0.59956
G1 X117.971 Y111.189 E0.6397
G1 X117.058 Y110.591 E0.67963
G1 X116.101 Y110.173 E0.71784
G1 X116.077 Y110.157 E0.71889
G1 X115.062 Y109.903 E0.75717
G1 X115.044 Y109.889 E0.75801
G1 X113.918 Y109.797 E0.79934
G1 X112.825 Y109.888 E0.83947
G1 X111.888 Y110.126 E0.87484
G1 X111.775 Y110.152 E0.87908
G1 X110.776 Y110.591 E0.919
G1 X109.862 Y111.189 E0.95896
G1 X109.059 Y111.926 E0.99884
G1 X108.449 Y112.712 E1.03524
G1 X108.39 Y112.785 E1.03868
G1 X107.872 Y113.744 E1.07855
G1 X107.517 Y114.776 E1.11848
G1 X107.338 Y115.851 E1.15835
G1 X107.338 Y116.943 E1.1983
G1 X107.517 Y118.018 E1.23818
G1 X107.871 Y119.049 E1.27806
G1 X108.362 Y119.951 E1.31563
G1 X108.386 Y120.003 E1.31773
G1 X109.033 Y120.831 E1.35617
G1 X109.054 Y120.863 E1.35757
G1 X109.862 Y121.605 E1.39771
G1 X110.775 Y122.203 E1.43764
G1 X111.732 Y122.621 E1.47584
G1 X111.756 Y122.637 E1.4769
G1 X112.771 Y122.891 E1.51518
G1 X112.789 Y122.905 E1.51601
G0 F12000 X112.628 Y123.314
G0 X113.9 Y131.495
G1 F2100 X112.277 Y131.407 E1.57548
G1 X110.676 Y131.145 E1.63483
G1 X109.098 Y130.708 E1.69474
G1 X107.571 Y130.099 E1.75489
G1 X106.131 Y129.334 E1.81454
G1 X104.777 Y128.416 E1.87439
G1 X103.535 Y127.36 E1.93404
G1 X102.406 Y126.17 E1.99405
G1 X101.413 Y124.862 E2.05413
G1 X100.579 Y123.475 E2.11335
G1 X99.884 Y121.968 E2.17406
G1 X99.363 Y120.423 E2.23372
G1 X99.015 Y118.839 E2.29305
G1 X98.839 Y117.194 E2.35358
G1 X98.841 Y115.563 E2.41325
G1 X99.017 Y113.944 E2.47283
G1 X99.369 Y112.348 E2.53263
G1 X99.892 Y110.804 E2.59227
G1 X99.899 Y110.785 E2.59301
G1 X100.58 Y109.316 E2.65225
G1 X101.418 Y107.925 E2.71166
G1 X102.413 Y106.616 E2.77182
G1 X103.548 Y105.42 E2.83214
G1 X104.78 Y104.374 E2.89127
G1 X106.142 Y103.453 E2.95143
G1 X107.573 Y102.694 E3.01069
G1 X109.108 Y102.084 E3.07112
G1 X110.676 Y101.649 E3.13065
G1 X112.291 Y101.386 E3.19052
G1 X113.934 Y101.299 E3.25071
G1 X115.556 Y101.387 E3.31014
G1 X117.158 Y101.649 E3.36953
G1 X118.735 Y102.086 E3.4294
G1 X120.262 Y102.695 E3.48955
G1 X121.699 Y103.458 E3.54908
G1 X123.054 Y104.376 E3.60896
G1 X124.298 Y105.434 E3.6687
G1 X125.428 Y106.624 E3.72874
G1 X126.416 Y107.927 E3.78857
G1 X127.253 Y109.316 E3.8479
G1 X127.949 Y110.826 E3.90873
G1 X128.47 Y112.371 E3.96839
G1 X128.818 Y113.955 E4.02772
G1 X128.994 Y115.6 E4.08825
G1 X128.992 Y117.231 E4.14792
G1 X128.816 Y118.85 E4.2075
G1 X128.464 Y120.446 E4.2673
G1 X127.941 Y121.99 E4.32694
G1 X127.934 Y122.009 E4.32768
G1 X127.254 Y123.477 E4.38687
G1 X126.415 Y124.869 E4.44633
G1 X125.421 Y126.178 E4.50647
G1 X124.287 Y127.372 E4.56671
G1 X123.053 Y128.42 E4.62595
G1 X121.693 Y129.34 E4.68602
G1 X120.253 Y130.103 E4.74564
G1 X118.725 Y130.71 E4.80579
G1 X117.158 Y131.145 E4.86529
G1 X115.542 Y131.408 E4.92519
G1 X113.9 Y131.495 E4.98535
G0 F12000 X113.9 Y131.055
G1 F4500 E-0.01465
G1 F300 Z0.5
G0 F12000 X112.165 Y105.928 Z0.5
;TYPE:SKIN
G1 F300 Z0.2
G1 F4500 E4.98535
G1 F2100 X110.931 Y106.24 E5.03192
G1 X110.502 Y106.341 E5.04804
G1 X108.865 Y107.062 E5.11349
G1 X107.402 Y108.02 E5.17747
G1 X106.108 Y109.206 E5.24169
G1 X105.032 Y110.582 E5.30559
G1 X104.192 Y112.133 E5.37013
G1 X103.626 Y113.796 E5.4344
G1 X103.338 Y115.52 E5.49835
G1 X103.338 Y117.274 E5.56252
G1 X103.626 Y119.002 E5.62661
G1 X104.2 Y120.669 E5.69111
G1 X104.773 Y121.72 E5.73491
G1 X104.946 Y122.098 E5.75012
G1 X105.769 Y123.151 E5.79901
G1 X105.965 Y123.455 E5.81225
G1 X107.393 Y124.774 E5.88337
G1 X108.865 Y125.734 E5.94767
G1 X109.783 Y126.135 E5.98432
G1 X110.09 Y126.348 E5.99799
G1 X110.962 Y126.562 E6.03084
G1 X111.251 Y126.794 E6.0444
G1 X113.916 Y127.008 E6.14221
G1 X115.668 Y126.866 E6.20652
G1 X116.902 Y126.554 E6.25309
G1 X117.331 Y126.453 E6.26921
G1 X118.968 Y125.732 E6.33466
G1 X120.431 Y124.774 E6.39864
G1 X121.725 Y123.588 E6.46286
G1 X122.801 Y122.212 E6.52676
G1 X123.641 Y120.661 E6.5913
G1 X124.207 Y118.998 E6.65557
G1 X124.495 Y117.274 E6.71951
G1 X124.495 Y115.52 E6.78369
G1 X124.207 Y113.792 E6.84778
G1 X123.633 Y112.125 E6.91228
G1 X123.063 Y111.08 E6.95583
G1 X122.881 Y110.691 E6.97155
G1 X122.072 Y109.657 E7.01958
G1 X121.875 Y109.344 E7.03311
G1 X120.437 Y108.02 E7.10462
G1 X118.968 Y107.06 E7.16883
G1 X118.05 Y106.659 E7.20548
G1 X117.743 Y106.446 E7.21915
G1 X116.871 Y106.232 E7.252
G1 X116.582 Y106 E7.26556
G1 X113.918 Y105.786 E7.36334
G1 X112.165 Y105.928 E7.42768
G0 F12000 X112.231 Y106.324
G1 F2100 X111.029 Y106.628 E7.47304
G1 X110.63 Y106.722 E7.48804
G1 X109.056 Y107.415 E7.55096
G1 X107.648 Y108.337 E7.61254
G1 X106.403 Y109.478 E7.67432
G1 X105.368 Y110.802 E7.73581
G1 X104.56 Y112.294 E7.79788
G1 X104.015 Y113.894 E7.85972
G1 X103.738 Y115.553 E7.92126
G1 X103.738 Y117.241 E7.98302
G1 X104.015 Y118.903 E8.04466
G1 X104.567 Y120.507 E8.10673
G1 X105.131 Y121.541 E8.14982
G1 X105.29 Y121.889 E8.16382
G1 X106.096 Y122.919 E8.21167
G1 X106.274 Y123.196 E8.22371
G1 X107.64 Y124.457 E8.29173
G1 X109.056 Y125.381 E8.35359
G1 X109.979 Y125.784 E8.39044
G1 X110.257 Y125.977 E8.40282
G1 X111.144 Y126.194 E8.43623
G1 X111.406 Y126.405 E8.44853
G1 X113.916 Y126.607 E8.54066
G1 X115.602 Y126.47 E8.60255
G1 X116.804 Y126.166 E8.64791
G1 X117.203 Y126.072 E8.66291
G1 X118.777 Y125.379 E8.72583
G1 X120.185 Y124.457 E8.7874
G1 X121.43 Y123.316 E8.84919
G1 X122.465 Y121.992 E8.91067
G1 X123.273 Y120.5 E8.97275
G1 X123.818 Y118.9 E9.03459
G1 X124.095 Y117.241 E9.09613
G1 X124.095 Y115.553 E9.15789
G1 X123.818 Y113.891 E9.21953
G1 X123.266 Y112.287 E9.28159
G1 X122.704 Y111.256 E9.32455
G1 X122.538 Y110.902 E9.33886
G1 X121.741 Y109.882 E9.38622
G1 X121.565 Y109.602 E9.39832
G1 X120.19 Y108.337 E9.46667
G1 X118.777 Y107.413 E9.52844
G1 X117.854 Y107.01 E9.56529
G1 X117.576 Y106.817 E9.57767
G1 X116.689 Y106.6 E9.61108
G1 X116.427 Y106.389 E9.62339
G1 X113.918 Y106.187 E9.71548
G1 X112.231 Y106.324 E9.7774
G0 F12000 X112.297 Y106.72
G1 F2100 X111.127 Y107.016 E9.82156
G1 X110.758 Y107.103 E9.83543
G1 X109.247 Y107.768 E9.89583
G1 X107.894 Y108.654 E9.955
G1 X106.698 Y109.75 E10.01435
G1 X105.704 Y111.022 E10.07341
G1 X104.928 Y112.455 E10.13303
G1 X104.404 Y113.992 E10.19244
G1 X104.138 Y115.586 E10.25157
G1 X104.138 Y117.208 E10.31091
G1 X104.404 Y118.804 E10.37011
G1 X104.934 Y120.345 E10.42973
G1 X105.485 Y121.355 E10.47182
G1 X105.634 Y121.679 E10.48487
G1 X106.421 Y122.685 E10.5316
G1 X106.583 Y122.937 E10.54256
G1 X107.887 Y124.14 E10.60747
G1 X109.247 Y125.028 E10.66689
G1 X110.174 Y125.433 E10.7039
G1 X110.424 Y125.606 E10.71503
G1 X111.327 Y125.828 E10.74905
G1 X111.561 Y126.016 E10.76003
G1 X113.916 Y126.206 E10.84647
G1 X115.536 Y126.074 E10.90594
G1 X116.706 Y125.778 E10.95009
G1 X117.075 Y125.691 E10.96396
G1 X118.586 Y125.026 E11.02436
G1 X119.939 Y124.14 E11.08353
G1 X121.135 Y123.044 E11.14288
G1 X122.129 Y121.772 E11.20194
G1 X122.905 Y120.339 E11.26156
G1 X123.429 Y118.802 E11.32097
G1 X123.695 Y117.208 E11.3801
G1 X123.695 Y115.586 E11.43944
G1 X123.429 Y113.99 E11.49864
G1 X122.899 Y112.449 E11.55826
G1 X122.341 Y111.425 E11.60093
G1 X122.195 Y111.112 E11.61356
G1 X121.412 Y110.111 E11.66006
G1 X121.255 Y109.86 E11.67089
G1 X119.943 Y108.654 E11.73609
G1 X118.586 Y107.766 E11.79542
G1 X117.659 Y107.361 E11.83243
G1 X117.409 Y107.188 E11.84355
G1 X116.506 Y106.966 E11.87758
G1 X116.272 Y106.778 E11.88856
G1 X113.918 Y106.588 E11.97496
G1 X112.297 Y106.72 E12.03446
G0 F12000 X112.363 Y107.116
G1 F2100 X111.225 Y107.404 E12.07741
G1 X110.886 Y107.484 E12.09016
G1 X109.438 Y108.121 E12.14803
G1 X108.14 Y108.971 E12.2048
G1 X106.993 Y110.022 E12.26171
G1 X106.04 Y111.242 E12.31835
G1 X105.296 Y112.616 E12.37552
G1 X104.793 Y114.09 E12.4325
G1 X104.538 Y115.619 E12.48921
G1 X104.538 Y117.175 E12.54614
G1 X104.793 Y118.705 E12.60289
G1 X105.301 Y120.183 E12.66007
G1 X105.849 Y121.188 E12.70195
G1 X105.978 Y121.469 E12.71326
G1 X106.748 Y122.453 E12.75897
G1 X106.892 Y122.678 E12.76875
G1 X108.134 Y123.823 E12.83055
G1 X109.438 Y124.675 E12.88754
G1 X110.371 Y125.083 E12.9248
G1 X110.591 Y125.235 E12.93458
G1 X111.509 Y125.461 E12.96917
G1 X111.716 Y125.627 E12.97888
G1 X113.916 Y125.805 E13.05963
G1 X115.47 Y125.678 E13.11667
G1 X116.608 Y125.39 E13.15962
G1 X116.947 Y125.31 E13.17236
G1 X118.395 Y124.673 E13.23024
G1 X119.693 Y123.823 E13.28701
G1 X120.84 Y122.772 E13.34392
G1 X121.793 Y121.552 E13.40056
G1 X122.537 Y120.178 E13.45773
G1 X123.04 Y118.704 E13.51471
G1 X123.295 Y117.175 E13.57142
G1 X123.295 Y115.619 E13.62835
G1 X123.04 Y114.089 E13.6851
G1 X122.532 Y112.611 E13.74228
G1 X121.981 Y111.6 E13.7844
G1 X121.852 Y111.322 E13.79562
G1 X121.087 Y110.345 E13.84101
G1 X120.945 Y110.118 E13.85081
G1 X119.697 Y108.971 E13.91283
G1 X118.395 Y108.119 E13.96975
G1 X117.462 Y107.711 E14.00701
G1 X117.242 Y107.559 E14.01679
G1 X116.324 Y107.333 E14.05138
G1 X116.117 Y107.167 E14.06109
G1 X113.918 Y106.989 E14.14181
G1 X112.363 Y107.116 E14.19889
G0 F12000 X112.429 Y107.512
G1 F2100 X111.323 Y107.792 E14.24063
G1 X111.014 Y107.865 E14.25224
G1 X109.629 Y108.474 E14.3076
G1 X108.386 Y109.288 E14.36196
G1 X107.288 Y110.294 E14.41644
G1 X106.376 Y111.462 E14.47066
G1 X105.664 Y112.777 E14.52537
G1 X105.182 Y114.188 E14.57992
G1 X104.938 Y115.652 E14.63422
G1 X104.938 Y117.142 E14.68873
G1 X105.182 Y118.606 E14.74303
G1 X105.668 Y120.021 E14.79777
G1 X106.21 Y121.015 E14.83919
G1 X106.322 Y121.26 E14.84905
G1 X107.073 Y122.22 E14.89364
G1 X107.201 Y122.419 E14.9023
G1 X108.381 Y123.506 E14.961
G1 X109.629 Y124.322 E15.01555
G1 X110.568 Y124.733 E15.05305
G1 X110.758 Y124.864 E15.06149
G1 X111.69 Y125.094 E15.09662
G1 X111.87 Y125.238 E15.10505
G1 X113.916 Y125.404 E15.18015
G1 X115.404 Y125.282 E15.23477
G1 X116.51 Y125.002 E15.27651
G1 X116.819 Y124.929 E15.28813
G1 X118.204 Y124.32 E15.34349
G1 X119.447 Y123.506 E15.39785
G1 X120.545 Y122.5 E15.45233
G1 X121.457 Y121.332 E15.50654
G1 X122.169 Y120.017 E15.56126
G1 X122.651 Y118.606 E15.61581
G1 X122.895 Y117.142 E15.67011
G1 X122.895 Y115.652 E15.72462
G1 X122.651 Y114.188 E15.77892
G1 X122.165 Y112.773 E15.83366
G1 X121.625 Y111.781 E15.87498
G1 X121.509 Y111.533 E15.885
G1 X120.762 Y110.579 E15.92933
G1 X120.635 Y110.376 E15.93809
G1 X119.451 Y109.288 E15.99692
G1 X118.204 Y108.472 E16.05144
G1 X117.265 Y108.061 E16.08894
G1 X117.075 Y107.93 E16.09739
G1 X116.143 Y107.7 E16.13251
G1 X115.963 Y107.556 E16.14094
G1 X113.918 Y107.39 E16.21601
G1 X112.429 Y107.512 E16.27067
G0 F12000 X112.495 Y107.908
G1 F2100 X111.421 Y108.18 E16.3112
G1 X111.142 Y108.246 E16.32169
G1 X109.82 Y108.827 E16.37452
G1 X108.632 Y109.605 E16.42648
G1 X107.583 Y110.566 E16.47853
G1 X106.712 Y111.682 E16.53032
G1 X106.032 Y112.938 E16.58257
G1 X105.571 Y114.286 E16.6347
G1 X105.338 Y115.685 E16.68659
G1 X105.338 Y117.109 E16.73868
G1 X105.571 Y118.508 E16.79057
G1 X106.035 Y119.859 E16.84283
G1 X106.571 Y120.842 E16.8838
G1 X106.666 Y121.051 E16.8922
G1 X107.403 Y121.993 E16.93596
G1 X107.51 Y122.16 E16.94321
G1 X108.628 Y123.189 E16.9988
G1 X109.82 Y123.969 E17.05092
G1 X110.761 Y124.38 E17.08849
G1 X110.925 Y124.493 E17.09578
G1 X111.871 Y124.727 E17.13143
G1 X112.024 Y124.849 E17.13859
G1 X113.916 Y125.003 E17.20804
G1 X115.338 Y124.886 E17.26024
G1 X116.412 Y124.614 E17.30077
G1 X116.691 Y124.548 E17.31126
G1 X118.013 Y123.967 E17.3641
G1 X119.201 Y123.189 E17.41605
G1 X120.25 Y122.228 E17.4681
G1 X121.121 Y121.112 E17.51989
G1 X121.801 Y119.856 E17.57215
G1 X122.262 Y118.508 E17.62427
G1 X122.495 Y117.109 E17.67616
G1 X122.495 Y115.685 E17.72826
G1 X122.262 Y114.286 E17.78015
G1 X121.798 Y112.935 E17.83241
G1 X121.266 Y111.957 E17.87314
G1 X121.166 Y111.744 E17.88175
G1 X120.436 Y110.81 E17.92512
G1 X120.325 Y110.634 E17.93273
G1 X119.205 Y109.605 E17.98838
G1 X118.013 Y108.825 E18.0405
G1 X117.072 Y108.414 E18.07807
G1 X116.908 Y108.301 E18.08535
G1 X115.962 Y108.067 E18.12101
G1 X115.809 Y107.945 E18.12816
G1 X113.918 Y107.791 E18.19758
G1 X112.495 Y107.908 E18.24982
G0 F12000 X112.561 Y108.304
G1 F2100 X111.519 Y108.568 E18.28914
G1 X111.269 Y108.627 E18.29854
G1 X110.011 Y109.18 E18.34882
G1 X108.878 Y109.922 E18.39837
G1 X107.878 Y110.838 E18.44798
G1 X107.048 Y111.902 E18.49735
G1 X106.4 Y113.099 E18.54715
G1 X105.96 Y114.384 E18.59685
G1 X105.738 Y115.718 E18.64632
G1 X105.738 Y117.076 E18.69601
G1 X105.96 Y118.41 E18.74548
G1 X106.402 Y119.697 E18.79527
G1 X106.928 Y120.663 E18.83551
G1 X107.01 Y120.841 E18.84268
G1 X107.727 Y121.757 E18.88524
G1 X107.819 Y121.901 E18.89149
G1 X108.875 Y122.872 E18.94398
G1 X110.011 Y123.616 E18.99366
G1 X110.954 Y124.027 E19.03129
G1 X111.092 Y124.122 E19.03742
G1 X112.052 Y124.36 E19.07361
G1 X112.178 Y124.46 E19.0795
G1 X113.916 Y124.602 E19.14329
G1 X115.272 Y124.49 E19.19307
G1 X116.314 Y124.226 E19.2324
G1 X116.564 Y124.167 E19.2418
G1 X117.822 Y123.614 E19.29207
G1 X118.955 Y122.872 E19.34163
G1 X119.955 Y121.956 E19.39124
G1 X120.785 Y120.892 E19.44061
G1 X121.433 Y119.695 E19.49041
G1 X121.873 Y118.41 E19.5401
G1 X122.095 Y117.076 E19.58958
G1 X122.095 Y115.718 E19.63926
G1 X121.873 Y114.384 E19.68874
G1 X121.431 Y113.097 E19.73853
G1 X120.903 Y112.126 E19.77896
G1 X120.823 Y111.954 E19.78591
G1 X120.106 Y111.037 E19.82849
G1 X120.015 Y110.893 E19.83472
G1 X118.958 Y109.922 E19.88724
G1 X117.822 Y109.178 E19.93692
G1 X116.879 Y108.767 E19.97455
G1 X116.741 Y108.672 E19.98068
G1 X115.781 Y108.434 E20.01687
G1 X115.655 Y108.334 E20.02276
G1 X113.918 Y108.192 E20.08652
G1 X112.561 Y108.304 E20.13633
G0 F12000 X112.627 Y108.7
G1 F2100 X111.61 Y108.958 E20.17472
G1 X111.396 Y109.008 E20.18276
G1 X110.202 Y109.533 E20.23048
G1 X109.124 Y110.239 E20.27763
G1 X108.173 Y111.11 E20.32481
G1 X107.384 Y112.122 E20.37176
G1 X106.768 Y113.26 E20.4191
G1 X106.349 Y114.482 E20.46636
G1 X106.138 Y115.751 E20.51343
G1 X106.138 Y117.043 E20.5607
G1 X106.349 Y118.312 E20.60776
G1 X106.769 Y119.535 E20.65507
G1 X107.289 Y120.49 E20.69486
G1 X107.354 Y120.632 E20.70057
G1 X108.057 Y121.531 E20.74232
G1 X108.128 Y121.642 E20.74714
G1 X109.122 Y122.555 E20.79652
G1 X110.202 Y123.263 E20.84377
G1 X111.15 Y123.676 E20.8816
G1 X111.259 Y123.751 E20.88644
