;FLAVOR:Marlin
;TIME:5606
;Filament used: 4.58851m
;Layer height: 0.32
;MINX:78.728
;MINY:72.436
;MINZ:0.2
;MAXX:156.328
;MAXY:162.572
;MAXZ:7.22
;Generated with Cura_SteamEngine 4.11.0
M140 S60
M105
M190 S60
M104 S215
M105
M109 S215
M82 ;absolute extrusion mode
; Ender 3 Custom Start G-code
G92 E0 ; Reset Extruder
G28 ; Home all axes
G1 Z2.0 F3000 ; Move Z Axis up little to prevent scratching of Heat Bed
G1 X0.1 Y20 Z0.3 F5000.0 ; Move to start position
G1 X0.1 Y200.0 Z0.3 F1500.0 E15 ; Draw the first line
G1 X0.4 Y200.0 Z0.3 F5000.0 ; Move to side a little
G1 X0.4 Y20 Z0.3 F1500.0 E30 ; Draw the second line
G92 E0 ; Reset Extruder
G1 Z2.0 F3000 ; Move Z Axis up little to prevent scratching of Heat Bed
G1 X5 Y20 Z0.3 F5000.0 ; Move over to prevent blob squish
G92 E0
G92 E0
G1 F4500 E-5
;LAYER_COUNT:22
;LAYER:0
M107
G1 F300 Z0.5
;MESH:track_x11_V1.STL(2)
G0 F12000 X85.203 Y160.179 Z0.5
;TYPE:WALL-OUTER
G1 F300 Z0.2
G1 F4500 E0
G1 F2100 X85.203 Y158.529 E0.06037
G1 X81.553 Y158.529 E0.19391
G1 X81.553 Y160.179 E0.25427
G1 X85.203 Y160.179 E0.38781
G1 F4500 E-4.61219
G1 F300 Z0.5
G0 F12000 X95.103 Y155.679 Z0.5
G1 F300 Z0.2
G1 F4500 E0.38781
G1 F2100 X95.103 Y153.779 E0.45733
G1 X86.953 Y153.779 E0.7555
G1 X86.953 Y155.679 E0.82502
G1 X95.103 Y155.679 E1.12319
G0 F12000 X102.853 Y158.054
G1 F2100 X102.853 Y156.154 E1.19271
G1 X79.203 Y156.154 E2.05797
G1 X79.203 Y158.054 E2.12748
G1 X102.853 Y158.054 E2.99275
G0 F12000 X100.503 Y159.929
G1 F2100 X100.503 Y158.529 E3.04397
G1 X96.853 Y158.529 E3.17751
G1 X96.853 Y159.929 E3.22873
G1 X100.503 Y159.929 E3.36227
G0 F12000 X100.978 Y161.246
G1 F2100 X96.378 Y161.247 E3.53056
G1 X96.378 Y158.529 E3.63
G1 X85.678 Y158.529 E4.02148
G1 X85.678 Y161.246 E4.12088
G1 X81.078 Y161.247 E4.28918
G1 X81.078 Y159.029 E4.37033
G1 X78.728 Y159.029 E4.4563
G1 X78.728 Y155.679 E4.57887
G1 X86.478 Y155.679 E4.86241
G1 X86.478 Y152.711 E4.971
G1 X95.578 Y152.71 E5.30393
G1 X95.578 Y155.679 E5.41255
G1 X103.328 Y155.679 E5.6961
G1 X103.328 Y159.029 E5.81866
G1 X100.978 Y159.029 E5.90464
G1 X100.978 Y161.246 E5.98575
G0 F12000 X95.178 Y153.379
;TYPE:SKIN
G1 F2100 X86.878 Y153.379 E6.28942
G1 X86.878 Y153.111 E6.29922
G1 X95.178 Y153.11 E6.60289
G1 X95.178 Y153.379 E6.61273
G0 F12000 X96.778 Y160.329
G1 F2100 X100.578 Y160.329 E6.75175
G1 X100.578 Y160.846 E6.77067
G1 X96.778 Y160.847 E6.9097
G1 X96.778 Y160.329 E6.92865
G0 F12000 X100.903 Y158.454
G1 F2100 X102.928 Y158.454 E7.00274
G1 X102.928 Y158.629 E7.00914
G1 X100.903 Y158.629 E7.08322
G1 X100.903 Y158.454 E7.08963
G1 F4500 E2.08963
G1 F300 Z0.5
G0 F12000 X85.278 Y160.579 Z0.5
G1 F300 Z0.2
G1 F4500 E7.08963
G1 F2100 X85.278 Y160.846 E7.0994
G1 X81.478 Y160.847 E7.23842
G1 X81.478 Y160.579 E7.24823
G1 X85.278 Y160.579 E7.38726
G0 F12000 X81.153 Y158.454
G1 F2100 X81.153 Y158.629 E7.39366
G1 X79.128 Y158.629 E7.46775
G1 X79.128 Y158.454 E7.47415
G1 X81.153 Y158.454 E7.54823
G0 F12000 X85.203 Y152.279
;TYPE:WALL-OUTER
G1 F2100 X85.203 Y150.629 E7.6086
G1 X81.553 Y150.629 E7.74214
G1 X81.553 Y152.279 E7.80251
G1 X85.203 Y152.279 E7.93605
G1 F4500 E2.93605
G1 F300 Z0.5
G0 F12000 X95.103 Y147.779 Z0.5
G1 F300 Z0.2
G1 F4500 E7.93605
G1 F2100 X95.103 Y145.879 E8.00556
G1 X86.953 Y145.879 E8.30374
G1 X86.953 Y147.779 E8.37325
G1 X95.103 Y147.779 E8.67143
G0 F12000 X102.853 Y150.154
G1 F2100 X102.853 Y148.254 E8.74094
G1 X79.203 Y148.254 E9.60621
G1 X79.203 Y150.154 E9.67572
G1 X102.853 Y150.154 E10.54098
G0 F12000 X100.503 Y152.029
G1 F2100 X100.503 Y150.629 E10.5922
G1 X96.853 Y150.629 E10.72574
G1 X96.853 Y152.029 E10.77696
G1 X100.503 Y152.029 E10.9105
G0 F12000 X100.978 Y151.129
G1 F2100 X100.978 Y153.346 E10.99161
G1 X96.378 Y153.347 E11.15991
G1 X96.378 Y150.629 E11.25935
G1 X85.678 Y150.629 E11.65082
G1 X85.678 Y153.346 E11.75023
G1 X81.078 Y153.347 E11.91852
G1 X81.078 Y151.129 E11.99967
G1 X78.728 Y151.129 E12.08565
G1 X78.728 Y147.779 E12.20821
G1 X86.478 Y147.779 E12.49176
G1 X86.478 Y144.811 E12.60034
G1 X95.578 Y144.81 E12.93328
G1 X95.578 Y147.779 E13.0419
G1 X103.328 Y147.779 E13.32544
G1 X103.328 Y151.129 E13.44801
G1 X100.978 Y151.129 E13.53398
G0 F12000 X95.178 Y145.479
;TYPE:SKIN
G1 F2100 X86.878 Y145.479 E13.83765
G1 X86.878 Y145.211 E13.84745
G1 X95.178 Y145.21 E14.15112
G1 X95.178 Y145.479 E14.16096
G0 F12000 X96.778 Y152.429
G1 F2100 X100.578 Y152.429 E14.29999
G1 X100.578 Y152.946 E14.3189
G1 X96.778 Y152.947 E14.45793
G1 X96.778 Y152.429 E14.47688
G0 F12000 X100.903 Y150.554
G1 F2100 X102.928 Y150.554 E14.55097
G1 X102.928 Y150.729 E14.55737
G1 X100.903 Y150.729 E14.63146
G1 X100.903 Y150.554 E14.63786
G1 F4500 E9.63786
G1 F300 Z0.5
G0 F12000 X85.278 Y152.679 Z0.5
G1 F300 Z0.2
G1 F4500 E14.63786
G1 F2100 X85.278 Y152.946 E14.64763
G1 X81.478 Y152.947 E14.78666
G1 X81.478 Y152.679 E14.79646
G1 X85.278 Y152.679 E14.93549
G0 F12000 X81.153 Y150.554
G1 F2100 X81.153 Y150.729 E14.94189
G1 X79.128 Y150.729 E15.01598
G1 X79.128 Y150.554 E15.02238
G1 X81.153 Y150.554 E15.09647
G0 F12000 X85.203 Y144.379
;TYPE:WALL-OUTER
G1 F2100 X85.203 Y142.729 E15.15684
G1 X81.553 Y142.729 E15.29038
G1 X81.553 Y144.379 E15.35074
G1 X85.203 Y144.379 E15.48428
G1 F4500 E10.48428
G1 F300 Z0.5
G0 F12000 X95.103 Y139.879 Z0.5
G1 F300 Z0.2
G1 F4500 E15.48428
G1 F2100 X95.103 Y137.979 E15.5538
G1 X86.953 Y137.979 E15.85197
G1 X86.953 Y139.879 E15.92149
G1 X95.103 Y139.879 E16.21966
G0 F12000 X102.853 Y142.254
G1 F2100 X102.853 Y140.354 E16.28918
G1 X79.203 Y140.354 E17.15444
G1 X79.203 Y142.254 E17.22395
G1 X102.853 Y142.254 E18.08922
G0 F12000 X100.503 Y144.129
G1 F2100 X100.503 Y142.729 E18.14044
G1 X96.853 Y142.729 E18.27398
G1 X96.853 Y144.129 E18.3252
G1 X100.503 Y144.129 E18.45874
G0 F12000 X100.978 Y143.229
G1 F2100 X100.978 Y145.446 E18.53985
G1 X96.378 Y145.447 E18.70814
G1 X96.378 Y142.729 E18.80759
G1 X85.678 Y142.729 E19.19906
G1 X85.678 Y145.446 E19.29846
G1 X81.078 Y145.447 E19.46676
G1 X81.078 Y143.229 E19.54791
G1 X78.728 Y143.229 E19.63388
G1 X78.728 Y139.879 E19.75645
G1 X86.478 Y139.879 E20.03999
G1 X86.478 Y136.911 E20.14858
G1 X95.578 Y136.91 E20.48151
G1 X95.578 Y139.879 E20.59014
G1 X103.328 Y139.879 E20.87368
G1 X103.328 Y143.229 E20.99624
G1 X100.978 Y143.229 E21.08222
G0 F12000 X95.178 Y137.579
;TYPE:SKIN
G1 F2100 X86.878 Y137.579 E21.38588
G1 X86.878 Y137.311 E21.39569
G1 X95.178 Y137.31 E21.69935
G1 X95.178 Y137.579 E21.7092
G0 F12000 X96.778 Y144.529
G1 F2100 X100.578 Y144.529 E21.84822
G1 X100.578 Y145.046 E21.86714
G1 X96.778 Y145.047 E22.00617
G1 X96.778 Y144.529 E22.02512
G0 F12000 X100.903 Y142.654
G1 F2100 X102.928 Y142.654 E22.0992
G1 X102.928 Y142.829 E22.10561
G1 X100.903 Y142.829 E22.17969
G1 X100.903 Y142.654 E22.1861
G1 F4500 E17.1861
G1 F300 Z0.5
G0 F12000 X85.278 Y144.779 Z0.5
G1 F300 Z0.2
G1 F4500 E22.1861
G1 F2100 X85.278 Y145.046 E22.19587
G1 X81.478 Y145.047 E22.33489
G1 X81.478 Y144.779 E22.3447
G1 X85.278 Y144.779 E22.48372
G0 F12000 X81.153 Y142.654
G1 F2100 X81.153 Y142.829 E22.49013
G1 X79.128 Y142.829 E22.56421
G1 X79.128 Y142.654 E22.57062
G1 X81.153 Y142.654 E22.6447
G0 F12000 X85.203 Y136.479
;TYPE:WALL-OUTER
G1 F2100 X85.203 Y134.829 E22.70507
G1 X81.553 Y134.829 E22.83861
G1 X81.553 Y136.479 E22.89898
G1 X85.203 Y136.479 E23.03252
G1 F4500 E18.03252
G1 F300 Z0.5
G0 F12000 X95.103 Y131.979 Z0.5
G1 F300 Z0.2
G1 F4500 E23.03252
G1 F2100 X95.103 Y130.079 E23.10203
G1 X86.953 Y130.079 E23.40021
G1 X86.953 Y131.979 E23.46972
G1 X95.103 Y131.979 E23.7679
G0 F12000 X102.853 Y134.354
G1 F2100 X102.853 Y132.454 E23.83741
G1 X79.203 Y132.454 E24.70267
G1 X79.203 Y134.354 E24.77219
G1 X102.853 Y134.354 E25.63745
G0 F12000 X100.503 Y136.229
G1 F2100 X100.503 Y134.829 E25.68867
G1 X96.853 Y134.829 E25.82221
G1 X96.853 Y136.229 E25.87343
G1 X100.503 Y136.229 E26.00697
G0 F12000 X100.978 Y135.329
G1 F2100 X100.978 Y137.546 E26.08808
G1 X96.378 Y137.547 E26.25638
G1 X96.378 Y134.829 E26.35582
G1 X85.678 Y134.829 E26.74729
G1 X85.678 Y137.546 E26.8467
G1 X81.078 Y137.547 E27.01499
G1 X81.078 Y135.329 E27.09614
G1 X78.728 Y135.329 E27.18212
G1 X78.728 Y131.979 E27.30468
G1 X86.478 Y131.979 E27.58822
G1 X86.478 Y129.011 E27.69681
G1 X95.578 Y129.01 E28.02975
G1 X95.578 Y131.979 E28.13837
G1 X103.328 Y131.979 E28.42191
G1 X103.328 Y135.329 E28.54448
G1 X100.978 Y135.329 E28.63045
G0 F12000 X95.178 Y129.679
;TYPE:SKIN
G1 F2100 X86.878 Y129.679 E28.93412
G1 X86.878 Y129.411 E28.94392
G1 X95.178 Y129.41 E29.24759
G1 X95.178 Y129.679 E29.25743
G0 F12000 X96.778 Y136.629
G1 F2100 X100.578 Y136.629 E29.39646
G1 X100.578 Y137.146 E29.41537
G1 X96.778 Y137.147 E29.5544
G1 X96.778 Y136.629 E29.57335
G0 F12000 X100.903 Y134.754
G1 F2100 X102.928 Y134.754 E29.64744
G1 X102.928 Y134.929 E29.65384
G1 X100.903 Y134.929 E29.72793
G1 X100.903 Y134.754 E29.73433
G1 F4500 E24.73433
G1 F300 Z0.5
G0 F12000 X85.278 Y136.879 Z0.5
G1 F300 Z0.2
G1 F4500 E29.73433
G1 F2100 X85.278 Y137.146 E29.7441
G1 X81.478 Y137.147 E29.88313
G1 X81.478 Y136.879 E29.89293
G1 X85.278 Y136.879 E30.03196
G0 F12000 X81.153 Y134.754
G1 F2100 X81.153 Y134.929 E30.03836
G1 X79.128 Y134.929 E30.11245
G1 X79.128 Y134.754 E30.11885
G1 X81.153 Y134.754 E30.19294
G0 F12000 X85.203 Y128.579
;TYPE:WALL-OUTER
G1 F2100 X85.203 Y126.929 E30.25331
G1 X81.553 Y126.929 E30.38685
G1 X81.553 Y128.579 E30.44721
G1 X85.203 Y128.579 E30.58075
G1 F4500 E25.58075
G1 F300 Z0.5
G0 F12000 X95.103 Y124.079 Z0.5
G1 F300 Z0.2
G1 F4500 E30.58075
G1 F2100 X95.103 Y122.179 E30.65027
G1 X86.953 Y122.179 E30.94844
G1 X86.953 Y124.079 E31.01796
G1 X95.103 Y124.079 E31.31613
G0 F12000 X102.853 Y126.454
G1 F2100 X102.853 Y124.554 E31.38565
G1 X79.203 Y124.554 E32.25091
G1 X79.203 Y126.454 E32.32042
G1 X102.853 Y126.454 E33.18569
G0 F12000 X100.503 Y128.329
G1 F2100 X100.503 Y126.929 E33.23691
G1 X96.853 Y126.929 E33.37045
G1 X96.853 Y128.329 E33.42167
G1 X100.503 Y128.329 E33.55521
G0 F12000 X100.978 Y127.429
G1 F2100 X100.978 Y129.646 E33.63632
G1 X96.378 Y129.647 E33.80461
G1 X96.378 Y126.929 E33.90405
G1 X85.678 Y126.929 E34.29553
G1 X85.678 Y129.646 E34.39493
G1 X81.078 Y129.647 E34.56323
G1 X81.078 Y127.429 E34.64438
G1 X78.728 Y127.429 E34.73035
G1 X78.728 Y124.079 E34.85292
G1 X86.478 Y124.079 E35.13646
G1 X86.478 Y121.111 E35.24505
G1 X95.578 Y121.11 E35.57798
G1 X95.578 Y124.079 E35.68661
G1 X103.328 Y124.079 E35.97015
G1 X103.328 Y127.429 E36.09271
G1 X100.978 Y127.429 E36.17869
G0 F12000 X95.178 Y121.779
;TYPE:SKIN
G1 F2100 X86.878 Y121.779 E36.48235
G1 X86.878 Y121.511 E36.49216
G1 X95.178 Y121.51 E36.79582
G1 X95.178 Y121.779 E36.80567
G0 F12000 X96.778 Y128.729
G1 F2100 X100.578 Y128.729 E36.94469
G1 X100.578 Y129.246 E36.96361
G1 X96.778 Y129.247 E37.10264
G1 X96.778 Y128.729 E37.12159
G0 F12000 X100.903 Y126.854
G1 F2100 X102.928 Y126.854 E37.19567
G1 X102.928 Y127.029 E37.20208
G1 X100.903 Y127.029 E37.27616
G1 X100.903 Y126.854 E37.28257
G1 F4500 E32.28257
G1 F300 Z0.5
G0 F12000 X85.278 Y128.979 Z0.5
G1 F300 Z0.2
G1 F4500 E37.28257
G1 F2100 X85.278 Y129.246 E37.29233
G1 X81.478 Y129.247 E37.43136
G1 X81.478 Y128.979 E37.44117
G1 X85.278 Y128.979 E37.58019
G0 F12000 X81.153 Y126.854
G1 F2100 X81.153 Y127.029 E37.5866
G1 X79.128 Y127.029 E37.66068
G1 X79.128 Y126.854 E37.66709
G1 X81.153 Y126.854 E37.74117
G0 F12000 X85.203 Y120.679
;TYPE:WALL-OUTER
G1 F2100 X85.203 Y119.029 E37.80154
G1 X81.553 Y119.029 E37.93508
G1 X81.553 Y120.679 E37.99545
G1 X85.203 Y120.679 E38.12899
G1 F4500 E33.12899
G1 F300 Z0.5
G0 F12000 X95.103 Y116.179 Z0.5
G1 F300 Z0.2
G1 F4500 E38.12899
G1 F2100 X95.103 Y114.279 E38.1985
G1 X86.953 Y114.279 E38.49668
G1 X86.953 Y116.179 E38.56619
G1 X95.103 Y116.179 E38.86437
G0 F12000 X102.853 Y118.554
G1 F2100 X102.853 Y116.654 E38.93388
G1 X79.203 Y116.654 E39.79914
G1 X79.203 Y118.554 E39.86866
G1 X102.853 Y118.554 E40.73392
G0 F12000 X100.503 Y120.429
G1 F2100 X100.503 Y119.029 E40.78514
G1 X96.853 Y119.029 E40.91868
G1 X96.853 Y120.429 E40.9699
G1 X100.503 Y120.429 E41.10344
G0 F12000 X100.978 Y119.529
G1 F2100 X100.978 Y121.746 E41.18455
G1 X96.378 Y121.747 E41.35285
G1 X96.378 Y119.029 E41.45229
G1 X85.678 Y119.029 E41.84376
G1 X85.678 Y121.746 E41.94317
G1 X81.078 Y121.747 E42.11146
G1 X81.078 Y119.529 E42.19261
G1 X78.728 Y119.529 E42.27859
G1 X78.728 Y116.179 E42.40115
G1 X86.478 Y116.179 E42.68469
G1 X86.478 Y113.211 E42.79328
G1 X95.578 Y113.21 E43.12622
G1 X95.578 Y116.179 E43.23484
G1 X103.328 Y116.179 E43.51838
G1 X103.328 Y119.529 E43.64095
G1 X100.978 Y119.529 E43.72692
G0 F12000 X95.178 Y113.879
;TYPE:SKIN
G1 F2100 X86.878 Y113.879 E44.03059
G1 X86.878 Y113.611 E44.04039
G1 X95.178 Y113.61 E44.34406
G1 X95.178 Y113.879 E44.3539
G0 F12000 X96.778 Y120.829
G1 F2100 X100.578 Y120.829 E44.49293
G1 X100.578 Y121.346 E44.51184
G1 X96.778 Y121.347 E44.65087
G1 X96.778 Y120.829 E44.66982
G0 F12000 X100.903 Y118.954
G1 F2100 X102.928 Y118.954 E44.74391
G1 X102.928 Y119.129 E44.75031
G1 X100.903 Y119.129 E44.8244
G1 X100.903 Y118.954 E44.8308
G1 F4500 E39.8308
G1 F300 Z0.5
G0 F12000 X85.278 Y121.079 Z0.5
G1 F300 Z0.2
G1 F4500 E44.8308
G1 F2100 X85.278 Y121.346 E44.84057
G1 X81.478 Y121.347 E44.9796
G1 X81.478 Y121.079 E44.9894
G1 X85.278 Y121.079 E45.12843
G0 F12000 X81.153 Y118.954
G1 F2100 X81.153 Y119.129 E45.13483
G1 X79.128 Y119.129 E45.20892
G1 X79.128 Y118.954 E45.21532
G1 X81.153 Y118.954 E45.28941
G0 F12000 X85.203 Y112.779
;TYPE:WALL-OUTER
G1 F2100 X85.203 Y111.129 E45.34978
G1 X81.553 Y111.129 E45.48331
G1 X81.553 Y112.779 E45.54368
G1 X85.203 Y112.779 E45.67722
G1 F4500 E40.67722
G1 F300 Z0.5
G0 F12000 X95.103 Y108.279 Z0.5
G1 F300 Z0.2
G1 F4500 E45.67722
G1 F2100 X95.103 Y106.379 E45.74673
G1 X86.953 Y106.379 E46.04491
G1 X86.953 Y108.279 E46.11443
G1 X95.103 Y108.279 E46.4126
G0 F12000 X102.853 Y110.654
G1 F2100 X102.853 Y108.754 E46.48212
G1 X79.203 Y108.754 E47.34738
G1 X79.203 Y110.654 E47.41689
G1 X102.853 Y110.654 E48.28215
G0 F12000 X100.503 Y112.529
G1 F2100 X100.503 Y111.129 E48.33338
G1 X96.853 Y111.129 E48.46692
G1 X96.853 Y112.529 E48.51814
G1 X100.503 Y112.529 E48.65168
G0 F12000 X100.978 Y111.629
G1 F2100 X100.978 Y113.846 E48.73279
G1 X96.378 Y113.847 E48.90108
G1 X96.378 Y111.129 E49.00052
G1 X85.678 Y111.129 E49.392
G1 X85.678 Y113.846 E49.4914
G1 X81.078 Y113.847 E49.6597
G1 X81.078 Y111.629 E49.74084
G1 X78.728 Y111.629 E49.82682
G1 X78.728 Y108.279 E49.94939
G1 X86.478 Y108.279 E50.23293
G1 X86.478 Y105.311 E50.34152
G1 X95.578 Y105.31 E50.67445
G1 X95.578 Y108.279 E50.78307
G1 X103.328 Y108.279 E51.06662
G1 X103.328 Y111.629 E51.18918
G1 X100.978 Y111.629 E51.27516
G0 F12000 X95.178 Y105.979
;TYPE:SKIN
G1 F2100 X86.878 Y105.979 E51.57882
G1 X86.878 Y105.711 E51.58863
G1 X95.178 Y105.71 E51.89229
G1 X95.178 Y105.979 E51.90213
G0 F12000 X96.778 Y112.929
G1 F2100 X100.578 Y112.929 E52.04116
G1 X100.578 Y113.446 E52.06008
G1 X96.778 Y113.447 E52.1991
G1 X96.778 Y112.929 E52.21806
G0 F12000 X100.903 Y111.054
G1 F2100 X102.928 Y111.054 E52.29214
G1 X102.928 Y111.229 E52.29855
G1 X100.903 Y111.229 E52.37263
G1 X100.903 Y111.054 E52.37904
G1 F4500 E47.37904
G1 F300 Z0.5
G0 F12000 X85.278 Y113.179 Z0.5
G1 F300 Z0.2
G1 F4500 E52.37904
G1 F2100 X85.278 Y113.446 E52.3888
G1 X81.478 Y113.447 E52.52783
G1 X81.478 Y113.179 E52.53764
G1 X85.278 Y113.179 E52.67666
G0 F12000 X81.153 Y111.054
G1 F2100 X81.153 Y111.229 E52.68307
G1 X79.128 Y111.229 E52.75715
G1 X79.128 Y111.054 E52.76356
G1 X81.153 Y111.054 E52.83764
G0 F12000 X85.203 Y104.879
;TYPE:WALL-OUTER
G1 F2100 X85.203 Y103.229 E52.89801
G1 X81.553 Y103.229 E53.03155
G1 X81.553 Y104.879 E53.09192
