;FLAVOR:Marlin
;TIME:2410
;Filament used: 1.49327m
;Layer height: 0.24
;MINX:92.198
;MINY:91.317
;MINZ:0.24
;MAXX:142.804
;MAXY:143.682
;MAXZ:10.43
;Generated with Cura_SteamEngine 4.11.0
M140 S60
M105
M190 S60
M104 S210
M105
M109 S210
M82 ;absolute extrusion mode
; Ender 3 Custom Start G-code
G92 E0 ; Reset Extruder
G28 ; Home all axes
G1 Z2.0 F3000 ; Move Z Axis up little to prevent scratching of Heat Bed
G1 X0.1 Y20 Z0.3 F5000.0 ; Move to start position
G1 X0.1 Y200.0 Z0.3 F1500.0 E15 ; Draw the first line
G1 X0.4 Y200.0 Z0.3 F5000.0 ; Move to side a little
G1 X0.4 Y20 Z0.3 F1500.0 E30 ; Draw the second line
G92 E0 ; Reset Extruder
G1 Z2.0 F3000 ; Move Z Axis up little to prevent scratching of Heat Bed
G1 X5 Y20 Z0.3 F5000.0 ; Move over to prevent blob squish
G92 E0
G92 E0
G1 F4500 E-5
;LAYER_COUNT:41
;LAYER:-3
M107
G0 F12000 X102.498 Y96.087 Z0.24
;TYPE:SUPPORT-INTERFACE
G1 F4500 E0
G1 F1125 X102.768 Y95.839 E0.02926
G1 X103.122 Y95.609 E0.06296
G1 X103.395 Y95.476 E0.0872
G1 X103.704 Y95.396 E0.11268
G1 X104.007 Y95.38 E0.1369
G1 X104.371 Y95.43 E0.16623
G1 X104.624 Y95.503 E0.18725
G1 X104.916 Y95.637 E0.2129
G1 X105.183 Y95.834 E0.23938
G1 X105.421 Y96.104 E0.26811
G1 X105.534 Y96.269 E0.28408
G1 X105.685 Y96.515 E0.30712
G1 X105.911 Y96.9 E0.34275
G1 X106.001 Y97.049 E0.35665
G1 X106.578 Y97.963 E0.44293
G1 X106.73 Y98.159 E0.46273
G1 X107.184 Y98.67 E0.51729
G1 X107.697 Y99.12 E0.57177
G1 X108.264 Y99.501 E0.6263
G1 X108.874 Y99.808 E0.68081
G1 X109.518 Y100.035 E0.73531
G1 X110.185 Y100.178 E0.78977
G1 X110.866 Y100.238 E0.84434
G1 X111.548 Y100.21 E0.89882
G1 X112.221 Y100.096 E0.95331
G1 X112.875 Y99.899 E1.00783
G1 X113.498 Y99.621 E1.06229
G1 X114.082 Y99.265 E1.11689
G1 X114.615 Y98.84 E1.1713
G1 X115.091 Y98.351 E1.22578
G1 X115.502 Y97.805 E1.28033
G1 X115.84 Y97.212 E1.33481
G1 X116.101 Y96.58 E1.3894
G1 X116.279 Y95.922 E1.44381
G1 X116.37 Y95.295 E1.49438
G1 X116.406 Y94.862 E1.52907
G1 X116.467 Y94.253 E1.57792
G1 X116.481 Y94.093 E1.59074
G1 X116.542 Y93.215 E1.661
G1 X116.597 Y92.759 E1.69766
G1 X116.66 Y92.497 E1.71917
G1 X116.797 Y92.205 E1.74492
G1 X116.833 Y92.152 E1.75003
G1 X117.083 Y91.848 E1.78145
G1 X117.291 Y91.67 E1.8033
G1 X117.543 Y91.504 E1.82739
G1 X117.848 Y91.38 E1.85367
G1 X117.896 Y91.37 E1.85759
G1 X118.303 Y91.317 E1.89035
G1 X118.745 Y91.34 E1.92568
G1 X119.036 Y91.393 E1.94929
G1 X119.333 Y91.512 E1.97483
G1 X119.597 Y91.684 E1.99998
G1 X119.86 Y91.941 E2.02934
G1 X120.02 Y92.152 E2.05047
G1 X120.175 Y92.434 E2.07616
G1 X120.266 Y92.721 E2.10019
G1 X120.301 Y93.072 E2.12835
G1 X120.293 Y93.318 E2.148
G1 X120.172 Y94.774 E2.26462
G1 X120.156 Y95.048 E2.28653
G1 X120.16 Y95.717 E2.33993
G1 X120.249 Y96.393 E2.39436
G1 X120.424 Y97.055 E2.44902
G1 X120.68 Y97.688 E2.50353
G1 X121.013 Y98.283 E2.55795
G1 X121.42 Y98.832 E2.61251
G1 X121.893 Y99.324 E2.66699
G1 X122.423 Y99.754 E2.72147
G1 X123.004 Y100.114 E2.77602
G1 X123.625 Y100.396 E2.83047
G1 X124.278 Y100.599 E2.88505
G1 X124.95 Y100.716 E2.9395
G1 X125.632 Y100.749 E2.99401
G1 X126.313 Y100.696 E3.04853
G1 X126.981 Y100.556 E3.10301
G1 X127.626 Y100.334 E3.15746
G1 X128.239 Y100.031 E3.21205
G1 X128.808 Y99.654 E3.26653
G1 X129.321 Y99.212 E3.32058
G1 X129.611 Y98.906 E3.35424
G1 X130.359 Y98.049 E3.44504
G1 X131.127 Y97.159 E3.53888
G1 X131.312 Y96.966 E3.56022
G1 X131.51 Y96.795 E3.5811
G1 X131.79 Y96.636 E3.6068
G1 X131.844 Y96.616 E3.6114
G1 X132.235 Y96.509 E3.64376
G1 X132.542 Y96.486 E3.66833
G1 X132.816 Y96.498 E3.69023
G1 X133.134 Y96.577 E3.71638
G1 X133.177 Y96.595 E3.7201
G1 X133.539 Y96.791 E3.75296
G1 X133.706 Y96.914 E3.76952
G1 X133.897 Y97.08 E3.78972
G1 X134.08 Y97.274 E3.81101
G1 X134.251 Y97.54 E3.83625
G1 X134.363 Y97.829 E3.86099
G1 X134.429 Y98.206 E3.89154
G1 X134.436 Y98.477 E3.91318
G1 X134.393 Y98.8 E3.93919
G1 X134.294 Y99.087 E3.96343
G1 X134.123 Y99.379 E3.99044
G1 X133.953 Y99.596 E4.01244
G1 X133.411 Y100.223 E4.0786
G1 X132.976 Y100.749 E4.13309
G1 X132.684 Y101.094 E4.16917
G1 X132.699 Y101.109 E4.17086
G1 X132.526 Y101.339 E4.19383
G1 X132.188 Y101.932 E4.24832
G1 X131.927 Y102.562 E4.30275
G1 X131.747 Y103.221 E4.35728
G1 X131.652 Y103.898 E4.41185
G1 X131.644 Y104.58 E4.4663
G1 X131.721 Y105.259 E4.52085
G1 X131.883 Y105.922 E4.57533
G1 X132.129 Y106.559 E4.62984
G1 X132.452 Y107.161 E4.68437
G1 X132.849 Y107.717 E4.7389
G1 X133.313 Y108.218 E4.79341
G1 X133.835 Y108.657 E4.84786
G1 X134.41 Y109.026 E4.9024
G1 X135.026 Y109.32 E4.95688
G1 X135.675 Y109.534 E5.01143
G1 X136.345 Y109.664 E5.06591
G1 X137.026 Y109.709 E5.12039
G1 X137.704 Y109.667 E5.17461
G1 X138.118 Y109.596 E5.20814
G1 X138.408 Y109.534 E5.23182
G1 X138.708 Y109.464 E5.25641
G1 X139.462 Y109.298 E5.31804
G1 X139.641 Y109.255 E5.33273
G1 X140.434 Y109.052 E5.39807
G1 X140.736 Y108.996 E5.42259
G1 X140.997 Y108.974 E5.4435
G1 X141.324 Y109.01 E5.46976
G1 X141.381 Y109.027 E5.47451
G1 X141.746 Y109.165 E5.50565
G1 X142.019 Y109.331 E5.53116
G1 X142.238 Y109.51 E5.55374
G1 X142.44 Y109.749 E5.57872
G1 X142.475 Y109.807 E5.58412
G1 X142.642 Y110.157 E5.61508
G1 X142.707 Y110.36 E5.63209
G1 X142.766 Y110.608 E5.65244
G1 X142.804 Y110.885 E5.67476
G1 X142.784 Y111.207 E5.70052
G1 X142.708 Y111.498 E5.72452
G1 X142.549 Y111.829 E5.75384
G1 X142.398 Y112.05 E5.7752
G1 X142.187 Y112.282 E5.80023
G1 X141.91 Y112.48 E5.82741
G1 X141.591 Y112.618 E5.85516
G1 X141.351 Y112.688 E5.87511
G1 X139.768 Y113.063 E6.00497
G1 X139.128 Y113.26 E6.05843
G1 X138.505 Y113.543 E6.11305
G1 X137.925 Y113.902 E6.1675
G1 X137.394 Y114.331 E6.22199
G1 X136.921 Y114.824 E6.27653
G1 X136.515 Y115.372 E6.33097
G1 X136.18 Y115.968 E6.38554
G1 X135.924 Y116.6 E6.43997
G1 X135.749 Y117.261 E6.49455
G1 X135.659 Y117.937 E6.54899
G1 X135.655 Y118.62 E6.60351
G1 X135.738 Y119.298 E6.65804
G1 X135.904 Y119.96 E6.71252
G1 X136.154 Y120.596 E6.76707
G1 X136.482 Y121.195 E6.82158
G1 X136.883 Y121.748 E6.87611
G1 X137.35 Y122.246 E6.9306
G1 X137.876 Y122.681 E6.98509
G1 X138.45 Y123.044 E7.0393
G1 X138.886 Y123.257 E7.07804
G1 X139.526 Y123.536 E7.13377
G1 X139.858 Y123.678 E7.16259
G1 X140.176 Y123.803 E7.18987
G1 X140.793 Y124.052 E7.24298
G1 X141.081 Y124.173 E7.26791
G1 X141.366 Y124.316 E7.29337
G1 X141.614 Y124.492 E7.31764
G1 X141.789 Y124.667 E7.3374
G1 X142.022 Y125.023 E7.37136
G1 X142.133 Y125.291 E7.39452
G1 X142.21 Y125.57 E7.41762
G1 X142.232 Y125.895 E7.44362
G1 X142.227 Y125.954 E7.44835
G1 X142.154 Y126.348 E7.48033
G1 X141.998 Y126.758 E7.51535
G1 X141.861 Y127.016 E7.53867
G1 X141.659 Y127.263 E7.56414
G1 X141.419 Y127.459 E7.58887
G1 X141.084 Y127.637 E7.61916
G1 X140.82 Y127.731 E7.64153
G1 X140.514 Y127.787 E7.66636
G1 X140.202 Y127.784 E7.69126
G1 X139.854 Y127.706 E7.71973
G1 X139.651 Y127.633 E7.73695
G1 X138.133 Y127.006 E7.86806
G1 X137.499 Y126.789 E7.92155
G1 X136.831 Y126.652 E7.97598
G1 X136.15 Y126.599 E8.0305
G1 X135.468 Y126.634 E8.08502
G1 X134.796 Y126.754 E8.13951
G1 X134.144 Y126.958 E8.19404
G1 X133.523 Y127.243 E8.24858
G1 X132.943 Y127.604 E8.30312
G1 X132.414 Y128.034 E8.35753
G1 X131.943 Y128.528 E8.41202
G1 X131.538 Y129.078 E8.46654
G1 X131.205 Y129.675 E8.52111
G1 X130.951 Y130.309 E8.57563
G1 X130.779 Y130.968 E8.62999
G1 X130.691 Y131.646 E8.68457
G1 X130.689 Y132.328 E8.73901
G1 X130.774 Y133.007 E8.79363
G1 X130.943 Y133.668 E8.84809
G1 X131.194 Y134.301 E8.90245
G1 X131.449 Y134.778 E8.94562
G1 X131.967 Y135.64 E9.0259
G1 X132.111 Y135.887 E9.04872
G1 X132.212 Y136.054 E9.0643
G1 X132.531 Y136.559 E9.11198
G1 X132.659 Y136.78 E9.13237
G1 X132.803 Y137.072 E9.15836
G1 X132.901 Y137.381 E9.18423
G1 X132.933 Y137.632 E9.20443
G1 X132.907 Y138.016 E9.23516
G1 X132.835 Y138.305 E9.25893
G1 X132.731 Y138.574 E9.28195
G1 X132.555 Y138.85 E9.30808
G1 X132.529 Y138.88 E9.31125
G1 X132.22 Y139.167 E9.34491
G1 X131.865 Y139.397 E9.37868
G1 X131.596 Y139.526 E9.40249
G1 X131.287 Y139.604 E9.42793
G1 X130.967 Y139.619 E9.4535
G1 X130.643 Y139.574 E9.47962
G1 X130.375 Y139.497 E9.50187
G1 X130.078 Y139.36 E9.52798
G1 X129.83 Y139.178 E9.55254
G1 X129.581 Y138.897 E9.58251
G1 X129.455 Y138.714 E9.60024
G1 X129.234 Y138.353 E9.63403
G1 X129.061 Y138.056 E9.66147
G1 X128.961 Y137.891 E9.67687
G1 X128.678 Y137.441 E9.7193
G1 X128.647 Y137.387 E9.72427
G1 X128.266 Y136.833 E9.77794
G1 X127.811 Y136.325 E9.83238
G1 X127.296 Y135.876 E9.88692
G1 X126.728 Y135.497 E9.94143
G1 X126.117 Y135.193 E9.99591
G1 X125.473 Y134.967 E10.05039
G1 X124.804 Y134.824 E10.10499
G1 X124.124 Y134.768 E10.15946
G1 X123.442 Y134.797 E10.21395
G1 X122.769 Y134.913 E10.26846
G1 X122.116 Y135.113 E10.32298
G1 X121.494 Y135.393 E10.37743
G1 X120.911 Y135.749 E10.43196
G1 X120.379 Y136.177 E10.48646
G1 X119.904 Y136.667 E10.54093
G1 X119.495 Y137.215 E10.59552
G1 X119.158 Y137.809 E10.65003
G1 X118.9 Y138.441 E10.70452
G1 X118.724 Y139.097 E10.75874
G1 X118.643 Y139.637 E10.80233
G1 X118.54 Y140.709 E10.88829
G1 X118.518 Y140.917 E10.90499
G1 X118.474 Y141.377 E10.94188
G1 X118.481 Y141.377 E10.94244
G1 X118.44 Y141.961 E10.98917
G1 X118.396 Y142.276 E11.01456
G1 X118.308 Y142.577 E11.03959
G1 X118.195 Y142.804 E11.05983
G1 X117.945 Y143.124 E11.09225
G1 X117.713 Y143.326 E11.1168
G1 X117.467 Y143.491 E11.14045
G1 X117.184 Y143.609 E11.16492
G1 X117.125 Y143.624 E11.16978
G1 X116.721 Y143.681 E11.20235
G1 X116.493 Y143.68 E11.22055
G1 X116.233 Y143.658 E11.24138
G1 X115.977 Y143.611 E11.26215
G1 X115.68 Y143.495 E11.28761
G1 X115.416 Y143.324 E11.31271
G1 X115.12 Y143.037 E11.34562
G1 X114.96 Y142.819 E11.36721
G1 X114.821 Y142.555 E11.39103
G1 X114.726 Y142.234 E11.41775
G1 X114.698 Y141.89 E11.4453
G1 X114.705 Y141.7 E11.46048
G1 X114.793 Y140.659 E11.54387
G1 X114.837 Y140.004 E11.59627
G1 X114.839 Y139.334 E11.64975
G1 X114.756 Y138.657 E11.7042
G1 X114.587 Y137.995 E11.75874
G1 X114.337 Y137.36 E11.81321
G1 X114.008 Y136.761 E11.86777
G1 X113.607 Y136.209 E11.92223
G1 X113.139 Y135.712 E11.97672
G1 X112.612 Y135.277 E12.03127
G1 X112.034 Y134.913 E12.0858
G1 X111.415 Y134.625 E12.14029
G1 X110.765 Y134.417 E12.19477
G1 X110.093 Y134.293 E12.24932
G1 X109.411 Y134.254 E12.30385
G1 X108.731 Y134.302 E12.35826
G1 X108.061 Y134.436 E12.4128
G1 X107.413 Y134.652 E12.46733
G1 X106.798 Y134.949 E12.52184
G1 X106.226 Y135.321 E12.57631
G1 X105.707 Y135.759 E12.63052
G1 X105.382 Y136.101 E12.66818
G1 X104.518 Y137.094 E12.77325
G1 X103.887 Y137.841 E12.85131
G1 X103.655 Y138.082 E12.87801
G1 X103.406 Y138.27 E12.90292
G1 X103.202 Y138.377 E12.9213
G1 X102.788 Y138.494 E12.95565
G1 X102.482 Y138.52 E12.98016
G1 X102.201 Y138.509 E13.00261
G1 X101.887 Y138.432 E13.02841
G1 X101.831 Y138.408 E13.03328
G1 X101.485 Y138.224 E13.06456
G1 X101.116 Y137.932 E13.10212
G1 X100.923 Y137.731 E13.12437
G1 X100.75 Y137.465 E13.14969
G1 X100.638 Y137.176 E13.17444
G1 X100.569 Y136.805 E13.20456
G1 X100.561 Y136.526 E13.22684
G1 X100.593 Y136.249 E13.2491
G1 X100.699 Y135.92 E13.27669
G1 X100.881 Y135.612 E13.30525
G1 X101.031 Y135.418 E13.32482
G1 X101.471 Y134.906 E13.37871
G1 X102.077 Y134.192 E13.45346
G1 X102.478 Y133.655 E13.50696
G1 X102.814 Y133.06 E13.56151
G1 X103.072 Y132.428 E13.616
G1 X103.248 Y131.768 E13.67052
G1 X103.34 Y131.092 E13.72498
G1 X103.345 Y130.409 E13.7795
G1 X103.265 Y129.731 E13.834
G1 X103.1 Y129.068 E13.88854
G1 X102.851 Y128.432 E13.94306
G1 X102.525 Y127.832 E13.99757
G1 X102.127 Y127.279 E14.05195
G1 X101.661 Y126.779 E14.10651
G1 X101.135 Y126.342 E14.1611
G1 X100.559 Y125.976 E14.21558
G1 X99.942 Y125.684 E14.27006
G1 X99.292 Y125.474 E14.32459
G1 X98.622 Y125.346 E14.37904
G1 X97.94 Y125.305 E14.43358
G1 X97.261 Y125.349 E14.48789
G1 X96.755 Y125.441 E14.52895
G1 X96.299 Y125.544 E14.56626
G1 X95.911 Y125.622 E14.59786
G1 X95.683 Y125.673 E14.6165
G1 X94.52 Y125.957 E14.71207
G1 X94.254 Y126.002 E14.7336
G1 X93.96 Y126.022 E14.75713
G1 X93.648 Y125.982 E14.78223
G1 X93.582 Y125.962 E14.78774
G1 X93.223 Y125.817 E14.81865
G1 X92.951 Y125.643 E14.84442
G1 X92.749 Y125.474 E14.86544
G1 X92.546 Y125.226 E14.89103
G1 X92.513 Y125.17 E14.89622
G1 X92.355 Y124.832 E14.926
G1 X92.24 Y124.416 E14.96045
G1 X92.198 Y124.132 E14.98337
G1 X92.214 Y123.805 E15.0095
G1 X92.293 Y123.497 E15.03488
G1 X92.445 Y123.178 E15.06309
G1 X92.596 Y122.953 E15.08472
G1 X92.824 Y122.707 E15.11149
G1 X93.05 Y122.542 E15.13383
G1 X93.393 Y122.388 E15.16384
G1 X93.853 Y122.261 E15.20194
G1 X94.818 Y122.031 E15.28112
G1 X95.245 Y121.933 E15.3161
G1 X95.884 Y121.732 E15.36957
G1 X96.504 Y121.447 E15.42404
G1 X97.084 Y121.086 E15.47857
G1 X97.614 Y120.654 E15.53315
G1 X98.083 Y120.159 E15.58758
G1 X98.488 Y119.61 E15.64204
G1 X98.82 Y119.012 E15.69664
G1 X99.073 Y118.378 E15.75113
G1 X99.244 Y117.717 E15.80563
G1 X99.332 Y117.04 E15.86013
G1 X99.332 Y116.357 E15.91465
G1 X99.247 Y115.68 E15.96911
G1 X99.077 Y115.019 E16.02359
G1 X98.824 Y114.384 E16.07816
G1 X98.494 Y113.786 E16.13268
G1 X98.091 Y113.235 E16.18717
G1 X97.621 Y112.74 E16.24166
G1 X97.093 Y112.307 E16.29616
G1 X96.519 Y111.947 E16.35025
G1 X96.12 Y111.752 E16.3857
G1 X95.271 Y111.381 E16.45966
G1 X94.272 Y110.975 E16.54574
G1 X93.931 Y110.831 E16.57528
G1 X93.63 Y110.68 E16.60216
G1 X93.385 Y110.506 E16.62615
G1 X93.208 Y110.327 E16.64625
G1 X92.988 Y109.995 E16.67804
G1 X92.872 Y109.723 E16.70164
G1 X92.793 Y109.447 E16.72456
G1 X92.767 Y109.142 E16.74899
G1 X92.771 Y109.072 E16.75459
G1 X92.841 Y108.668 E16.78732
G1 X93.004 Y108.23 E16.82462
G1 X93.136 Y107.984 E16.84691
G1 X93.335 Y107.74 E16.87204
G1 X93.572 Y107.544 E16.89659
G1 X93.888 Y107.372 E16.92531
G1 X94.15 Y107.275 E16.94761
G1 X94.463 Y107.211 E16.97312
G1 X94.776 Y107.212 E16.9981
G1 X95.129 Y107.287 E17.02691
G1 X95.37 Y107.373 E17.04733
G1 X96.379 Y107.793 E17.13458
G1 X96.885 Y108 E17.17822
G1 X97.52 Y108.214 E17.23171
G1 X98.19 Y108.349 E17.28626
G1 X98.87 Y108.399 E17.34069
G1 X99.553 Y108.362 E17.39529
G1 X100.224 Y108.239 E17.44974
G1 X100.875 Y108.033 E17.50425
G1 X101.495 Y107.746 E17.55879
G1 X102.073 Y107.383 E17.61327
G1 X102.601 Y106.95 E17.66778
G1 X103.071 Y106.455 E17.72226
G1 X103.474 Y105.904 E17.77675
G1 X103.804 Y105.306 E17.83128
G1 X104.056 Y104.671 E17.88581
G1 X104.226 Y104.01 E17.94029
G1 X104.311 Y103.333 E17.99476
G1 X104.311 Y102.65 E18.04928
G1 X104.223 Y101.973 E18.10377
G1 X104.052 Y101.312 E18.15827
G1 X103.799 Y100.68 E18.21261
G1 X103.536 Y100.194 E18.25672
G1 X103.172 Y99.596 E18.31261
G1 X102.986 Y99.276 E18.34215
G1 X102.346 Y98.244 E18.43909
G1 X102.206 Y97.969 E18.46372
G1 X102.112 Y97.721 E18.48489
G1 X102.059 Y97.408 E18.51023
G1 X102.058 Y97.337 E18.5159
G1 X102.089 Y96.96 E18.54609
G1 X102.16 Y96.689 E18.56846
G1 X102.273 Y96.408 E18.59263
G1 X102.442 Y96.148 E18.61739
G1 X102.498 Y96.087 E18.624
G0 F12000 X102.4 Y96.212
G1 F1125 X102.4 Y98.331 E18.79314
G0 F12000 X104 Y101.182
G1 F1125 X104 Y95.38 E19.25628
G0 F12000 X105.6 Y96.377
G1 F1125 X105.6 Y135.872 E22.40895
G0 F12000 X107.2 Y134.755
G1 F1125 X107.2 Y98.685 E25.28821
G0 F12000 X108.8 Y99.771
G1 F1125 X108.8 Y134.298 E28.0443
G0 F12000 X110.4 Y134.349
G1 F1125 X110.4 Y100.197 E30.77046
G0 F12000 X112 Y100.133
G1 F1125 X112 Y134.897 E33.54548
G0 F12000 X113.6 Y136.201
G1 F1125 X113.6 Y99.558 E36.47048
G0 F12000 X115.2 Y98.206
G1 F1125 X115.2 Y143.114 E40.05523
G0 F12000 X116.8 Y143.67
G1 F1125 X116.8 Y92.2 E44.16379
G0 F12000 X118.4 Y91.323
G1 F1125 X118.4 Y142.248 E48.22884
G0 F12000 X119.159 Y139.285
G0 X120 Y136.568
G1 F1125 X120 Y92.126 E51.7764
G0 F12000 X120.7 Y96.297
G0 X121.6 Y99.02
G1 F1125 X121.6 Y135.346 E54.67609
G0 F12000 X123.2 Y134.839
G1 F1125 X123.2 Y100.204 E57.44081
