;FLAVOR:Marlin
;TIME:2109
;Filament used: 0.930739m
;Layer height: 0.14
;MINX:88.218
;MINY:91.259
;MINZ:0.2
;MAXX:143.523
;MAXY:146.564
;MAXZ:7.38
;Generated with Cura_SteamEngine 4.11.0
M140 S60
M105
M190 S60
M104 S210
M105
M109 S210
M82 ;absolute extrusion mode
; Ender 3 Custom Start G-code
G92 E0 ; Reset Extruder
G28 ; Home all axes
G1 Z2.0 F3000 ; Move Z Axis up little to prevent scratching of Heat Bed
G1 X0.1 Y20 Z0.3 F5000.0 ; Move to start position
G1 X0.1 Y200.0 Z0.3 F1500.0 E15 ; Draw the first line
G1 X0.4 Y200.0 Z0.3 F5000.0 ; Move to side a little
G1 X0.4 Y20 Z0.3 F1500.0 E30 ; Draw the second line
G92 E0 ; Reset Extruder
G1 Z2.0 F3000 ; Move Z Axis up little to prevent scratching of Heat Bed
G1 X5 Y20 Z0.3 F5000.0 ; Move over to prevent blob squish
G92 E0
G92 E0
G1 F4500 E-5
;LAYER_COUNT:50
;LAYER:0
M107
G1 F300 Z0.52
;MESH:MiniWhoop_Frame_Compact_60mm_v1.stl
G0 F12000 X100.994 Y116.606 Z0.52
;TYPE:WALL-OUTER
G1 F300 Z0.2
G1 F4500 E0
G1 F1800 X100.994 Y106.543 E0.40498
G1 X100.586 Y106.391 E0.42251
G1 X100.281 Y106.212 E0.43674
G1 X100.022 Y105.997 E0.45028
G1 X99.795 Y105.733 E0.4643
G1 X99.617 Y105.443 E0.47799
G1 X99.487 Y105.117 E0.49212
G1 X99.417 Y104.799 E0.50522
G1 X99.397 Y104.453 E0.51917
G1 X99.435 Y104.112 E0.53298
G1 X99.525 Y103.793 E0.54632
G1 X99.678 Y103.471 E0.56066
G1 X99.703 Y103.43 E0.5626
G1 X99.912 Y103.132 E0.57724
G1 X100.01 Y102.899 E0.58742
G1 X100.017 Y102.6 E0.59945
G1 X99.938 Y102.444 E0.60649
G1 X93.549 Y96.052 E0.9702
G1 X93.374 Y95.951 E0.97833
G1 X93.207 Y95.935 E0.98509
G1 X92.892 Y96.033 E0.99836
G1 X92.698 Y96.187 E1.00833
G1 X92.21 Y96.735 E1.03786
G1 X92.134 Y96.825 E1.0426
G1 X91.611 Y97.508 E1.07722
G1 X91.122 Y98.253 E1.11309
G1 X90.671 Y99.068 E1.15057
G1 X90.314 Y99.843 E1.18491
G1 X90.001 Y100.676 E1.22073
G1 X89.739 Y101.571 E1.25826
G1 X89.56 Y102.408 E1.2927
G1 X89.438 Y103.286 E1.32838
G1 X89.381 Y104.182 E1.36451
G1 X89.387 Y105.068 E1.40017
G1 X89.462 Y105.964 E1.43635
G1 X89.601 Y106.841 E1.47209
G1 X89.806 Y107.715 E1.50822
G1 X90.071 Y108.56 E1.54386
G1 X90.402 Y109.39 E1.57982
G1 X90.793 Y110.198 E1.61594
G1 X91.239 Y110.966 E1.65169
G1 X91.743 Y111.702 E1.68758
G1 X92.303 Y112.405 E1.72376
G1 X92.906 Y113.054 E1.75941
G1 X93.407 Y113.52 E1.78694
G1 X93.394 Y113.533 E1.78768
G1 X94.255 Y114.222 E1.83206
G1 X94.994 Y114.729 E1.86813
G1 X95.76 Y115.177 E1.90384
G1 X96.567 Y115.572 E1.94
G1 X97.395 Y115.903 E1.97589
G1 X98.241 Y116.171 E2.0116
G1 X99.111 Y116.377 E2.04759
G1 X99.99 Y116.519 E2.08342
G1 X100.994 Y116.606 E2.12398
G0 F12000 X101.174 Y116.339
G1 F1800 X101.351 Y116.497 E2.13353
G1 X101.648 Y116.599 E2.14616
G1 X101.788 Y116.606 E2.1518
G1 X102.216 Y116.583 E2.16905
G1 X102.656 Y116.553 E2.1868
G1 X103.516 Y116.438 E2.22172
G1 X104.4 Y116.252 E2.25808
G1 X105.273 Y115.999 E2.29466
G1 X106.121 Y115.683 E2.33108
G1 X106.277 Y115.611 E2.33799
G1 X106.949 Y115.3 E2.36779
G1 X107.743 Y114.859 E2.40434
G1 X108.5 Y114.361 E2.44081
G1 X109.214 Y113.81 E2.47711
G1 X109.889 Y113.203 E2.51364
G1 X109.92 Y113.173 E2.51538
G1 X110.532 Y112.531 E2.55107
G1 X111.103 Y111.835 E2.5873
G1 X111.615 Y111.107 E2.62312
G1 X112.099 Y110.293 E2.66123
G1 X112.503 Y109.477 E2.69788
G1 X112.845 Y108.637 E2.73438
G1 X113.12 Y107.779 E2.77064
G1 X113.326 Y106.927 E2.80591
G1 X113.475 Y106.032 E2.84243
G1 X113.565 Y104.993 E2.8844
G1 X103.502 Y104.993 E3.28938
G1 X103.348 Y105.402 E3.30697
G1 X103.162 Y105.719 E3.32176
G1 X102.93 Y105.991 E3.33615
G1 X102.657 Y106.218 E3.35044
G1 X102.343 Y106.397 E3.36499
G1 X102.023 Y106.513 E3.37868
G1 X101.973 Y106.526 E3.38076
G1 X101.703 Y106.575 E3.39181
G1 X101.413 Y106.663 E3.404
G1 X101.231 Y106.79 E3.41293
G1 X101.112 Y106.984 E3.42209
G1 X101.094 Y107.06 E3.42524
G1 X101.092 Y116.103 E3.78917
G1 X101.174 Y116.339 E3.79923
G1 F4500 E-1.20077
G1 F300 Z0.52
G0 F12000 X101.834 Y106.335 Z0.52
G1 F300 Z0.2
G1 F4500 E3.79923
G1 F1800 X102.182 Y106.23 E3.81385
G1 X102.505 Y106.057 E3.8286
G1 X102.794 Y105.818 E3.84369
G1 X103.016 Y105.546 E3.85782
G1 X103.189 Y105.223 E3.87257
G1 X103.294 Y104.875 E3.8872
G1 X103.329 Y104.513 E3.90183
G1 X103.293 Y104.149 E3.91655
G1 X103.189 Y103.804 E3.93106
G1 X103.016 Y103.481 E3.9458
G1 X102.775 Y103.191 E3.96098
G1 X102.501 Y102.968 E3.97519
G1 X102.186 Y102.799 E3.98958
G1 X101.834 Y102.692 E4.00439
G1 X101.473 Y102.657 E4.01898
G1 X101.111 Y102.692 E4.03362
G1 X100.759 Y102.799 E4.04843
G1 X100.444 Y102.968 E4.06281
G1 X100.152 Y103.21 E4.07808
G1 X99.927 Y103.484 E4.09234
G1 X99.758 Y103.8 E4.10677
G1 X99.652 Y104.149 E4.12145
G1 X99.616 Y104.513 E4.13617
G1 X99.651 Y104.875 E4.1508
G1 X99.756 Y105.223 E4.16543
G1 X99.93 Y105.547 E4.18023
G1 X100.169 Y105.836 E4.19532
G1 X100.441 Y106.057 E4.20943
G1 X100.763 Y106.23 E4.22414
G1 X101.111 Y106.335 E4.23877
G1 X101.473 Y106.37 E4.2534
G1 X101.834 Y106.335 E4.268
G1 F4500 E-0.732
G1 F300 Z0.52
G0 F12000 X113.542 Y103.56 Z0.52
G1 F300 Z0.2
G1 F4500 E4.268
G1 F1800 X113.4 Y102.489 E4.31148
G1 X113.219 Y101.622 E4.34713
G1 X112.973 Y100.758 E4.38328
G1 X112.665 Y99.921 E4.41917
G1 X112.296 Y99.107 E4.45514
G1 X111.867 Y98.325 E4.49104
G1 X111.386 Y97.58 E4.52672
G1 X110.844 Y96.863 E4.5629
G1 X110.254 Y96.193 E4.59882
G1 X109.62 Y95.571 E4.63457
G1 X108.94 Y94.996 E4.67041
G1 X108.212 Y94.468 E4.7066
G1 X107.459 Y94.002 E4.74224
G1 X106.663 Y93.586 E4.77838
G1 X105.848 Y93.235 E4.8141
G1 X104.999 Y92.943 E4.85023
G1 X104.142 Y92.715 E4.88592
G1 X103.263 Y92.55 E4.92191
G1 X102.372 Y92.45 E4.95799
G1 X101.483 Y92.416 E4.9938
G1 X100.632 Y92.445 E5.02807
G1 X99.739 Y92.541 E5.06421
G1 X98.861 Y92.702 E5.10014
G1 X97.86 Y92.96 E5.14174
G1 X97.86 Y92.973 E5.14226
G1 X97.152 Y93.214 E5.17236
G1 X96.331 Y93.564 E5.20828
G1 X95.538 Y93.972 E5.24417
G1 X94.781 Y94.435 E5.27988
G1 X94.023 Y94.982 E5.3175
G1 X93.259 Y95.622 E5.35761
G1 X100.376 Y102.739 E5.76267
G1 X100.786 Y102.556 E5.78074
G1 X101.11 Y102.47 E5.79423
G1 X101.442 Y102.438 E5.80765
G1 X101.796 Y102.463 E5.82194
G1 X102.125 Y102.543 E5.83556
G1 X102.432 Y102.673 E5.84898
G1 X102.735 Y102.867 E5.86346
G1 X102.985 Y103.093 E5.87702
G1 X103.197 Y103.358 E5.89068
G1 X103.365 Y103.662 E5.90466
G1 X103.481 Y103.988 E5.91858
G1 X103.533 Y104.279 E5.93048
G1 X103.616 Y104.564 E5.94243
G1 X103.753 Y104.759 E5.95202
G1 X103.942 Y104.875 E5.96094
G1 X104.021 Y104.892 E5.96419
G1 X113.06 Y104.895 E6.32797
G1 X113.253 Y104.842 E6.33602
G1 X113.458 Y104.633 E6.3478
G1 X113.559 Y104.331 E6.36062
G1 X113.565 Y104.194 E6.36614
G1 X113.529 Y103.56 E6.39169
G1 X113.542 Y103.56 E6.39222
G1 F4500 E1.39222
G1 F300 Z0.52
G0 F12000 X131.366 Y102.738 Z0.52
G1 F300 Z0.2
G1 F4500 E6.39222
G1 F1800 X138.481 Y95.622 E6.79719
G1 X137.704 Y94.972 E6.83796
G1 X136.976 Y94.447 E6.87408
G1 X136.22 Y93.981 E6.90983
G1 X135.428 Y93.572 E6.9457
G1 X134.607 Y93.221 E6.98163
G1 X133.899 Y92.979 E7.01174
G1 X133.899 Y92.966 E7.01227
G1 X132.899 Y92.706 E7.05385
G1 X132.021 Y92.544 E7.08978
G1 X131.128 Y92.447 E7.12593
G1 X130.24 Y92.416 E7.16169
G1 X129.388 Y92.448 E7.196
G1 X128.724 Y92.521 E7.22289
G1 X128.293 Y92.572 E7.24035
G1 X128.293 Y92.583 E7.2408
G1 X127.582 Y92.718 E7.26992
G1 X126.724 Y92.947 E7.30566
G1 X125.916 Y93.226 E7.34006
G1 X125.09 Y93.58 E7.37623
G1 X124.302 Y93.99 E7.41198
G1 X124.265 Y94.011 E7.41369
G1 X123.545 Y94.457 E7.44777
G1 X122.786 Y95.007 E7.4855
G1 X122.106 Y95.584 E7.52139
G1 X121.496 Y96.183 E7.55579
G1 X120.907 Y96.851 E7.59163
G1 X120.881 Y96.883 E7.59329
G1 X120.346 Y97.594 E7.6291
G1 X119.884 Y98.308 E7.66333
G1 X119.452 Y99.095 E7.69946
G1 X119.083 Y99.908 E7.73539
G1 X118.775 Y100.741 E7.77113
G1 X118.762 Y100.781 E7.77283
G1 X118.527 Y101.603 E7.80723
G1 X118.344 Y102.476 E7.84313
G1 X118.224 Y103.391 E7.88027
G1 X118.175 Y104.204 E7.91305
G1 X118.237 Y104.544 E7.92696
G1 X118.362 Y104.744 E7.93645
G1 X118.563 Y104.874 E7.94608
G1 X118.69 Y104.894 E7.95126
G1 X127.678 Y104.893 E8.31298
G1 X127.92 Y104.818 E8.32317
G1 X128.05 Y104.682 E8.33074
G1 X128.186 Y104.389 E8.34374
G1 X128.254 Y104.01 E8.35924
G1 X128.26 Y103.986 E8.36024
G1 X128.376 Y103.662 E8.37409
G1 X128.543 Y103.359 E8.38801
G1 X128.752 Y103.098 E8.40147
G1 X129.025 Y102.852 E8.41626
G1 X129.31 Y102.672 E8.42982
G1 X129.613 Y102.544 E8.44306
G1 X129.961 Y102.461 E8.45746
G1 X130.297 Y102.438 E8.47101
G1 X130.636 Y102.471 E8.48472
G1 X130.973 Y102.561 E8.49876
G1 X131.366 Y102.738 E8.5161
G0 F12000 X129.906 Y106.335
G1 F1800 X130.268 Y106.37 E8.53074
G1 X130.63 Y106.335 E8.54538
G1 X130.978 Y106.23 E8.56
G1 X131.301 Y106.057 E8.57475
G1 X131.59 Y105.818 E8.58984
G1 X131.811 Y105.547 E8.60392
G1 X131.985 Y105.223 E8.61872
G1 X132.089 Y104.875 E8.63333
G1 X132.125 Y104.513 E8.64797
G1 X132.089 Y104.152 E8.66257
G1 X131.983 Y103.799 E8.67741
G1 X131.814 Y103.485 E8.69176
G1 X131.571 Y103.191 E8.70711
G1 X131.298 Y102.968 E8.7213
G1 X130.982 Y102.799 E8.73572
G1 X130.63 Y102.692 E8.75052
G1 X130.268 Y102.657 E8.76516
G1 X129.906 Y102.692 E8.7798
G1 X129.559 Y102.797 E8.79439
G1 X129.235 Y102.971 E8.80919
G1 X128.946 Y103.21 E8.82428
G1 X128.725 Y103.482 E8.83838
G1 X128.552 Y103.804 E8.8531
G1 X128.447 Y104.152 E8.86772
G1 X128.411 Y104.513 E8.88232
G1 X128.447 Y104.875 E8.89696
G1 X128.552 Y105.223 E8.91159
G1 X128.725 Y105.547 E8.92638
G1 X128.964 Y105.836 E8.94147
G1 X129.236 Y106.057 E8.95557
G1 X129.559 Y106.23 E8.97032
G1 X129.906 Y106.335 E8.98491
G1 F4500 E3.98491
G1 F300 Z0.52
G0 F12000 X130.503 Y116.416 Z0.52
G1 F300 Z0.2
G1 F4500 E8.98491
G1 F1800 X130.627 Y116.219 E8.99428
G1 X130.648 Y116.09 E8.99954
G1 X130.648 Y107.102 E9.36126
G1 X130.572 Y106.863 E9.37135
G1 X130.319 Y106.656 E9.38451
G1 X130.132 Y106.595 E9.39242
G1 X129.756 Y106.525 E9.40781
G1 X129.724 Y106.517 E9.40914
G1 X129.384 Y106.391 E9.42373
G1 X129.074 Y106.211 E9.43816
G1 X128.81 Y105.991 E9.45199
G1 X128.58 Y105.72 E9.4663
G1 X128.399 Y105.414 E9.4806
G1 X128.236 Y104.993 E9.49877
G1 X118.176 Y104.993 E9.90363
G1 X118.263 Y106.013 E9.94483
G1 X118.409 Y106.908 E9.98133
G1 X118.624 Y107.795 E10.01806
G1 X118.901 Y108.654 E10.05438
G1 X119.244 Y109.493 E10.09086
G1 X119.65 Y110.311 E10.12761
G1 X120.113 Y111.089 E10.16405
G1 X120.635 Y111.831 E10.20056
G1 X121.178 Y112.494 E10.23505
G1 X121.236 Y112.559 E10.23855
G1 X121.835 Y113.187 E10.27348
G1 X122.512 Y113.797 E10.31015
G1 X123.224 Y114.349 E10.34641
G1 X123.981 Y114.849 E10.38292
G1 X124.773 Y115.291 E10.41942
G1 X125.603 Y115.675 E10.45623
G1 X126.449 Y115.992 E10.49259
G1 X127.325 Y116.247 E10.52931
G1 X128.209 Y116.434 E10.56567
G1 X129.103 Y116.555 E10.60198
G1 X129.954 Y116.607 E10.63629
G1 X130.239 Y116.565 E10.64788
G1 X130.503 Y116.416 E10.66008
G0 F12000 X130.747 Y116.606
G1 F1800 X131.768 Y116.518 E10.70132
G1 X132.643 Y116.375 E10.73701
G1 X133.517 Y116.167 E10.77316
G1 X134.362 Y115.898 E10.80885
G1 X135.189 Y115.565 E10.84473
G1 X135.997 Y115.169 E10.88094
G1 X136.762 Y114.721 E10.91662
G1 X137.501 Y114.211 E10.95276
G1 X138.191 Y113.655 E10.98842
G1 X138.848 Y113.042 E11.02458
G1 X139.449 Y112.391 E11.06024
G1 X139.986 Y111.718 E11.09489
G1 X140.511 Y110.951 E11.13229
G1 X140.955 Y110.183 E11.168
G1 X141.346 Y109.373 E11.20419
G1 X141.675 Y108.545 E11.24005
G1 X141.929 Y107.733 E11.27429
G1 X142.135 Y106.86 E11.31039
G1 X142.28 Y105.944 E11.34771
G1 X142.353 Y105.051 E11.38377
G1 X142.362 Y104.197 E11.41814
G1 X142.306 Y103.306 E11.45407
G1 X142.184 Y102.422 E11.48998
G1 X141.997 Y101.55 E11.52588
G1 X141.747 Y100.692 E11.56184
G1 X141.436 Y99.862 E11.59751
G1 X141.06 Y99.047 E11.63363
G1 X140.627 Y98.266 E11.66957
G1 X140.141 Y97.524 E11.70527
G1 X139.597 Y96.811 E11.74136
G1 X139.043 Y96.186 E11.77497
G1 X138.842 Y96.027 E11.78529
G1 X138.596 Y95.941 E11.79578
G1 X138.286 Y95.986 E11.80838
G1 X138.226 Y96.022 E11.8112
G1 X137.772 Y96.471 E11.8369
G1 X131.829 Y102.416 E12.1752
G1 X131.714 Y102.638 E12.18526
G1 X131.738 Y102.923 E12.19677
G1 X131.892 Y103.222 E12.2103
G1 X132.038 Y103.432 E12.2206
G1 X132.063 Y103.472 E12.2225
G1 X132.213 Y103.79 E12.23665
G1 X132.305 Y104.113 E12.25016
G1 X132.343 Y104.453 E12.26393
G1 X132.324 Y104.799 E12.27788
G1 X132.249 Y105.133 E12.29165
G1 X132.12 Y105.451 E12.30546
G1 X131.947 Y105.732 E12.31874
G1 X131.719 Y105.998 E12.33284
G1 X131.451 Y106.219 E12.34682
G1 X131.162 Y106.387 E12.36028
G1 X130.747 Y106.546 E12.37816
G1 X130.747 Y116.606 E12.78302
G1 F4500 E7.78302
G1 F300 Z0.52
G0 F12000 X138.367 Y141.872 Z0.52
G1 F300 Z0.2
G1 F4500 E12.78302
G1 F1800 X138.661 Y141.87 E12.79486
G1 X138.944 Y141.725 E12.80765
G1 X139.043 Y141.636 E12.81301
G1 X139.596 Y141.013 E12.84654
G1 X140.14 Y140.3 E12.88263
G1 X140.629 Y139.553 E12.91856
G1 X141.059 Y138.777 E12.95426
G1 X141.435 Y137.962 E12.99039
G1 X141.748 Y137.126 E13.02631
G1 X141.997 Y136.269 E13.06223
G1 X142.184 Y135.396 E13.09816
G1 X142.305 Y134.518 E13.13383
G1 X142.361 Y133.621 E13.17
G1 X142.354 Y132.766 E13.20441
G1 X142.281 Y131.877 E13.24031
G1 X142.142 Y130.995 E13.27624
G1 X141.931 Y130.091 E13.3136
G1 X141.674 Y129.274 E13.34807
G1 X141.347 Y128.451 E13.38371
G1 X140.956 Y127.641 E13.4199
G1 X140.509 Y126.868 E13.45584
G1 X140.008 Y126.134 E13.49161
G1 X139.45 Y125.433 E13.52766
G1 X138.849 Y124.782 E13.56332
G1 X138.349 Y124.316 E13.59083
G1 X138.361 Y124.304 E13.59151
G1 X137.502 Y123.613 E13.63588
G1 X136.762 Y123.103 E13.67205
G1 X135.998 Y122.655 E13.70769
G1 X135.19 Y122.259 E13.7439
G1 X134.362 Y121.926 E13.77982
G1 X133.519 Y121.656 E13.81544
G1 X132.647 Y121.45 E13.8515
G1 X131.769 Y121.305 E13.88732
G1 X130.747 Y121.217 E13.9286
G1 X130.747 Y131.28 E14.33358
G1 X131.155 Y131.432 E14.3511
G1 X131.46 Y131.611 E14.36534
G1 X131.718 Y131.825 E14.37883
G1 X131.947 Y132.09 E14.39292
G1 X132.123 Y132.379 E14.40654
G1 X132.254 Y132.706 E14.42072
G1 X132.323 Y133.018 E14.43358
G1 X132.344 Y133.37 E14.44777
G1 X132.306 Y133.708 E14.46146
G1 X132.211 Y134.038 E14.47528
G1 X132.068 Y134.342 E14.4888
G1 X132.038 Y134.392 E14.49114
G1 X131.829 Y134.691 E14.50582
G1 X131.719 Y134.972 E14.51797
G1 X131.724 Y135.222 E14.52803
G1 X131.802 Y135.377 E14.53502
G1 X138.191 Y141.77 E14.89876
G1 X138.367 Y141.872 E14.90694
G0 F12000 X132.654 Y145.182
G1 F1800 X133.898 Y144.858 E14.95868
G1 X133.898 Y144.845 E14.9592
G1 X134.606 Y144.603 E14.98931
G1 X135.427 Y144.252 E15.02525
G1 X136.22 Y143.842 E15.06117
G1 X136.974 Y143.377 E15.09683
G1 X137.704 Y142.851 E15.13304
G1 X138.481 Y142.2 E15.17383
G1 X131.365 Y135.083 E15.57886
G1 X130.956 Y135.267 E15.59691
G1 X130.629 Y135.354 E15.61053
G1 X130.298 Y135.385 E15.62391
G1 X129.944 Y135.36 E15.63819
G1 X129.62 Y135.282 E15.65161
G1 X129.303 Y135.146 E15.66549
G1 X129.006 Y134.956 E15.67968
G1 X128.756 Y134.73 E15.69324
G1 X128.542 Y134.461 E15.70707
G1 X128.375 Y134.161 E15.72089
G1 X128.26 Y133.835 E15.7348
G1 X128.208 Y133.544 E15.7467
G1 X128.121 Y133.251 E15.759
G1 X127.988 Y133.064 E15.76824
G1 X127.802 Y132.948 E15.77706
G1 X127.719 Y132.931 E15.78047
G1 X118.68 Y132.928 E16.14424
G1 X118.485 Y132.984 E16.1524
G1 X118.287 Y133.181 E16.16365
G1 X118.182 Y133.489 E16.17674
G1 X118.176 Y133.628 E16.18234
G1 X118.198 Y134.045 E16.19915
G1 X118.227 Y134.467 E16.21617
G1 X118.343 Y135.346 E16.25185
G1 X118.526 Y136.219 E16.28775
G1 X118.761 Y137.042 E16.32219
G1 X119.068 Y137.88 E16.35811
G1 X119.454 Y138.732 E16.39575
G1 X119.88 Y139.509 E16.43142
G1 X120.366 Y140.258 E16.46735
G1 X120.881 Y140.94 E16.50174
G1 X121.496 Y141.64 E16.53924
G1 X122.105 Y142.238 E16.57359
G1 X122.785 Y142.815 E16.60948
G1 X123.54 Y143.362 E16.647
G1 X124.265 Y143.812 E16.68134
G1 X125.055 Y144.225 E16.71722
