;FLAVOR:Marlin
;TIME:2935
;Filament used: 1.76164m
;Layer height: 0.24
;MINX:105.499
;MINY:94.504
;MINZ:0.2
;MAXX:129.501
;MAXY:140.493
;MAXZ:16.04
;Generated with Cura_SteamEngine 4.11.0
M140 S60
M105
M190 S60
M104 S215
M105
M109 S215
M82 ;absolute extrusion mode
; Ender 3 Custom Start G-code
G92 E0 ; Reset Extruder
G28 ; Home all axes
G1 Z2.0 F3000 ; Move Z Axis up little to prevent scratching of Heat Bed
G1 X0.1 Y20 Z0.3 F5000.0 ; Move to start position
G1 X0.1 Y200.0 Z0.3 F1500.0 E15 ; Draw the first line
G1 X0.4 Y200.0 Z0.3 F5000.0 ; Move to side a little
G1 X0.4 Y20 Z0.3 F1500.0 E30 ; Draw the second line
G92 E0 ; Reset Extruder
G1 Z2.0 F3000 ; Move Z Axis up little to prevent scratching of Heat Bed
G1 X5 Y20 Z0.3 F5000.0 ; Move over to prevent blob squish
G92 E0
G92 E0
;LAYER_COUNT:67
;LAYER:0
M107
G0 F1800 X114.493 Y102.416 Z0.2
;TYPE:SKIRT
G1 F2400 X114.845 Y102.072 E0.0131
G1 X115.249 Y101.789 E0.02622
G1 X115.692 Y101.575 E0.03931
G1 X116.165 Y101.435 E0.05244
G1 X116.654 Y101.374 E0.06555
G1 X117.146 Y101.392 E0.07865
G1 X117.629 Y101.49 E0.09176
G1 X118.09 Y101.664 E0.10487
G1 X118.517 Y101.911 E0.118
G1 X118.898 Y102.223 E0.1311
G1 X119.164 Y102.516 E0.14163
G1 X119.328 Y102.725 E0.1487
G1 X119.675 Y103.189 E0.16412
G1 X119.787 Y103.337 E0.16906
G1 X120.113 Y103.794 E0.18399
G1 X120.215 Y103.933 E0.18858
G1 X120.454 Y104.28 E0.19979
G1 X120.584 Y104.476 E0.20605
G1 X120.823 Y104.907 E0.21916
G1 X120.988 Y105.371 E0.23227
G1 X121.076 Y105.856 E0.24538
G1 X121.085 Y106.349 E0.2585
G1 X121.014 Y106.836 E0.2716
G1 X120.865 Y107.306 E0.28472
G1 X120.642 Y107.746 E0.29784
G1 X120.351 Y108.143 E0.31094
G1 X120 Y108.489 E0.32405
G1 X119.598 Y108.773 E0.33715
G1 X119.155 Y108.989 E0.35026
G1 X118.682 Y109.13 E0.3634
G1 X118.045 Y109.196 E0.38044
G1 X117.545 Y109.195 E0.39374
G1 X117.246 Y109.177 E0.40171
G1 X117.219 Y109.178 E0.40243
G1 X116.727 Y109.148 E0.41555
G1 X116.246 Y109.038 E0.42867
G1 X115.79 Y108.852 E0.44178
G1 X115.37 Y108.595 E0.45488
G1 X114.997 Y108.273 E0.46799
G1 X114.766 Y108.009 E0.47732
G1 X114.519 Y107.693 E0.488
G1 X114.467 Y107.63 E0.49017
G1 X114.184 Y107.227 E0.50327
G1 X113.97 Y106.784 E0.51636
G1 X113.83 Y106.311 E0.52949
G1 X113.773 Y105.904 E0.54042
G1 X113.751 Y105.597 E0.54861
G1 X113.744 Y105.467 E0.55208
G1 X113.732 Y105.049 E0.56321
G1 X113.732 Y104.901 E0.56714
G1 X113.741 Y104.455 E0.57901
G1 X113.754 Y104.209 E0.58557
G1 X113.826 Y103.721 E0.59869
G1 X113.977 Y103.252 E0.6118
G1 X114.201 Y102.813 E0.62492
G1 X114.493 Y102.416 E0.63803
G0 F1800 X114.802 Y102.551
G1 F2400 X115.149 Y102.24 E0.65043
G1 X115.543 Y101.992 E0.66282
G1 X115.974 Y101.815 E0.67521
G1 X116.429 Y101.715 E0.68761
G1 X116.895 Y101.693 E0.70002
G1 X117.357 Y101.751 E0.71241
G1 X117.803 Y101.888 E0.72483
G1 X118.219 Y102.098 E0.73723
G1 X118.593 Y102.377 E0.74964
G1 X118.914 Y102.716 E0.76206
G1 X119.071 Y102.916 E0.76883
G1 X119.426 Y103.39 E0.78459
G1 X119.527 Y103.522 E0.78901
G1 X119.952 Y104.115 E0.80842
G1 X120.188 Y104.457 E0.81948
G1 X120.318 Y104.653 E0.82574
G1 X120.541 Y105.062 E0.83813
G1 X120.691 Y105.503 E0.85052
G1 X120.764 Y105.963 E0.86292
G1 X120.757 Y106.429 E0.87532
G1 X120.671 Y106.887 E0.88772
G1 X120.508 Y107.324 E0.90013
G1 X120.272 Y107.726 E0.91253
G1 X119.972 Y108.082 E0.92492
G1 X119.615 Y108.382 E0.93733
G1 X119.212 Y108.616 E0.94973
G1 X118.775 Y108.778 E0.96213
G1 X118.317 Y108.863 E0.97452
G1 X118.046 Y108.876 E0.98174
G1 X117.546 Y108.875 E0.99505
G1 X117.259 Y108.858 E1.0027
G1 X117.213 Y108.859 E1.00392
G1 X116.748 Y108.827 E1.01632
G1 X116.295 Y108.717 E1.02873
G1 X115.867 Y108.531 E1.04114
G1 X115.478 Y108.275 E1.05353
G1 X115.018 Y107.813 E1.07088
G1 X114.761 Y107.484 E1.08199
G1 X114.713 Y107.426 E1.08399
G1 X114.447 Y107.043 E1.0964
G1 X114.25 Y106.621 E1.10879
G1 X114.128 Y106.171 E1.1212
G1 X114.092 Y105.881 E1.12897
G1 X114.07 Y105.574 E1.13716
G1 X114.064 Y105.458 E1.14025
G1 X114.052 Y105.04 E1.15138
G1 X114.052 Y104.907 E1.15492
G1 X114.061 Y104.461 E1.16679
G1 X114.073 Y104.23 E1.17294
G1 X114.144 Y103.769 E1.18535
G1 X114.292 Y103.328 E1.19773
G1 X114.514 Y102.918 E1.21014
G1 X114.802 Y102.551 E1.22255
G0 F1800 X115.11 Y102.694
G1 F2400 X115.45 Y102.418 E1.2342
G1 X115.834 Y102.208 E1.24585
G1 X116.25 Y102.072 E1.25749
G1 X116.684 Y102.013 E1.26915
G1 X117.121 Y102.034 E1.28079
G1 X117.547 Y102.134 E1.29243
G1 X117.948 Y102.31 E1.30408
G1 X118.31 Y102.556 E1.31573
G1 X118.664 Y102.915 E1.32915
G1 X118.815 Y103.107 E1.33565
G1 X119.141 Y103.545 E1.35017
G1 X119.266 Y103.708 E1.35564
G1 X119.608 Y104.188 E1.37132
G1 X119.689 Y104.298 E1.37496
G1 X119.921 Y104.633 E1.3858
G1 X120.051 Y104.829 E1.39206
G1 X120.259 Y105.215 E1.40372
G1 X120.393 Y105.631 E1.41535
G1 X120.449 Y106.065 E1.427
G1 X120.426 Y106.503 E1.43867
G1 X120.323 Y106.928 E1.4503
G1 X120.145 Y107.328 E1.46195
G1 X119.898 Y107.689 E1.47359
G1 X119.589 Y107.999 E1.48524
G1 X119.228 Y108.247 E1.49689
G1 X118.829 Y108.426 E1.50853
G1 X118.404 Y108.53 E1.52017
G1 X118.046 Y108.556 E1.52972
G1 X117.546 Y108.555 E1.54302
G1 X117.267 Y108.538 E1.55046
G1 X117.207 Y108.539 E1.55206
G1 X116.77 Y108.507 E1.56372
G1 X116.347 Y108.396 E1.57535
G1 X115.95 Y108.211 E1.58701
G1 X115.594 Y107.956 E1.59866
G1 X115.27 Y107.616 E1.61116
G1 X115.003 Y107.274 E1.6227
G1 X114.959 Y107.221 E1.62453
G1 X114.711 Y106.861 E1.63616
G1 X114.533 Y106.461 E1.64781
G1 X114.411 Y105.859 E1.66416
G1 X114.389 Y105.552 E1.67235
G1 X114.384 Y105.449 E1.67509
G1 X114.372 Y105.031 E1.68622
G1 X114.371 Y104.914 E1.68933
G1 X114.38 Y104.468 E1.7012
G1 X114.392 Y104.251 E1.70698
G1 X114.461 Y103.819 E1.71862
G1 X114.607 Y103.406 E1.73028
G1 X114.826 Y103.027 E1.74193
G1 X115.11 Y102.694 E1.75357
G0 F1800 X115.138 Y103.144
G1 F2400 X115.416 Y102.846 E1.76442
G1 X115.748 Y102.609 E1.77527
G1 X116.119 Y102.441 E1.78611
G1 X116.516 Y102.349 E1.79695
G1 X116.923 Y102.335 E1.80779
G1 X117.325 Y102.402 E1.81863
G1 X117.706 Y102.545 E1.82946
G1 X118.052 Y102.76 E1.8403
G1 X118.414 Y103.115 E1.85379
G1 X118.558 Y103.298 E1.85998
G1 X118.894 Y103.75 E1.87497
G1 X119.005 Y103.894 E1.87981
G1 X119.49 Y104.573 E1.90201
G1 X119.631 Y104.776 E1.90859
G1 X119.784 Y105.006 E1.91594
G1 X119.975 Y105.366 E1.92678
G1 X120.092 Y105.757 E1.93764
G1 X120.131 Y106.162 E1.94847
G1 X120.09 Y106.567 E1.9593
G1 X119.971 Y106.957 E1.97015
G1 X119.778 Y107.316 E1.98099
G1 X119.518 Y107.63 E1.99184
G1 X119.203 Y107.888 E2.00267
G1 X118.843 Y108.079 E2.01352
G1 X118.453 Y108.197 E2.02436
G1 X118.047 Y108.236 E2.03521
G1 X117.547 Y108.235 E2.04852
G1 X117.282 Y108.217 E2.05558
G1 X117.201 Y108.219 E2.05774
G1 X116.795 Y108.186 E2.06858
G1 X116.403 Y108.075 E2.07942
G1 X116.04 Y107.89 E2.09026
G1 X115.72 Y107.638 E2.1011
G1 X115.522 Y107.419 E2.10895
G1 X115.243 Y107.061 E2.12103
G1 X115.206 Y107.017 E2.12256
G1 X114.977 Y106.679 E2.13342
G1 X114.819 Y106.304 E2.14425
G1 X114.73 Y105.836 E2.15693
G1 X114.708 Y105.529 E2.16512
G1 X114.692 Y105.022 E2.17861
G1 X114.691 Y104.92 E2.18133
G1 X114.7 Y104.474 E2.1932
G1 X114.712 Y104.273 E2.19855
G1 X114.778 Y103.871 E2.20939
G1 X114.922 Y103.49 E2.22023
G1 X115.138 Y103.144 E2.23108
G0 F1800 X115.448 Y103.268
G1 F2400 X115.72 Y103.011 E2.24104
G1 X116.041 Y102.817 E2.25102
G1 X116.395 Y102.695 E2.26098
G1 X116.767 Y102.651 E2.27095
G1 X117.14 Y102.687 E2.28092
G1 X117.497 Y102.801 E2.29089
G1 X117.822 Y102.988 E2.30087
G1 X118.163 Y103.314 E2.31342
G1 X118.301 Y103.489 E2.31935
G1 X118.638 Y103.942 E2.33438
G1 X118.745 Y104.079 E2.339
G1 X119.104 Y104.582 E2.35544
G1 X119.163 Y104.662 E2.35809
G1 X119.388 Y104.987 E2.36861
G1 X119.518 Y105.183 E2.37487
G1 X119.69 Y105.516 E2.38484
G1 X119.789 Y105.877 E2.3948
G1 X119.808 Y106.251 E2.40476
G1 X119.748 Y106.621 E2.41474
G1 X119.611 Y106.97 E2.42471
G1 X119.404 Y107.282 E2.43468
G1 X119.135 Y107.543 E2.44465
G1 X118.817 Y107.741 E2.45462
G1 X118.464 Y107.867 E2.46459
G1 X118.047 Y107.916 E2.47576
G1 X117.547 Y107.915 E2.48906
G1 X117.195 Y107.899 E2.49844
G1 X116.821 Y107.866 E2.50843
G1 X116.464 Y107.755 E2.51838
G1 X116.138 Y107.57 E2.52835
G1 X115.775 Y107.222 E2.54173
G1 X115.501 Y106.871 E2.55358
G1 X115.452 Y106.812 E2.55562
G1 X115.244 Y106.5 E2.5656
G1 X115.107 Y106.151 E2.57557
G1 X115.05 Y105.813 E2.58469
G1 X115.024 Y105.431 E2.59488
G1 X115.011 Y104.926 E2.60832
G1 X115.02 Y104.48 E2.62019
G1 X115.031 Y104.294 E2.62515
G1 X115.095 Y103.925 E2.63512
G1 X115.237 Y103.578 E2.64509
G1 X115.448 Y103.268 E2.65507
G0 F1800 X115.757 Y103.404
G1 F2400 X116.021 Y103.192 E2.66408
G1 X116.327 Y103.046 E2.6731
G1 X116.659 Y102.977 E2.68212
G1 X116.997 Y102.986 E2.69112
G1 X117.324 Y103.075 E2.70014
G1 X117.622 Y103.238 E2.70918
G1 X117.913 Y103.514 E2.71985
G1 X118.044 Y103.68 E2.72547
G1 X118.382 Y104.134 E2.74053
G1 X118.484 Y104.265 E2.74495
G1 X118.831 Y104.753 E2.76088
G1 X118.9 Y104.844 E2.76392
G1 X119.121 Y105.164 E2.77427
G1 X119.251 Y105.36 E2.78053
G1 X119.404 Y105.662 E2.78954
G1 X119.482 Y105.992 E2.79856
G1 X119.48 Y106.331 E2.80758
G1 X119.4 Y106.66 E2.81659
G1 X119.245 Y106.961 E2.8256
G1 X119.023 Y107.218 E2.83463
G1 X118.748 Y107.416 E2.84365
G1 X118.435 Y107.544 E2.85265
G1 X118.048 Y107.596 E2.86304
G1 X117.548 Y107.595 E2.87634
G1 X117.189 Y107.579 E2.8859
G1 X116.852 Y107.545 E2.89492
G1 X116.532 Y107.434 E2.90393
G1 X116.247 Y107.251 E2.91294
G1 X116.027 Y107.025 E2.92133
G1 X115.756 Y106.678 E2.93305
G1 X115.698 Y106.608 E2.93547
G1 X115.513 Y106.323 E2.94451
G1 X115.4 Y106.004 E2.95351
G1 X115.369 Y105.79 E2.95927
G1 X115.344 Y105.421 E2.96911
G1 X115.331 Y104.933 E2.9821
G1 X115.34 Y104.487 E2.99397
G1 X115.35 Y104.315 E2.99855
G1 X115.412 Y103.982 E3.00756
G1 X115.551 Y103.673 E3.01658
G1 X115.757 Y103.404 E3.02559
G0 F1800 X115.864 Y103.777
G1 F2400 X116.064 Y103.556 E3.03353
G1 X116.316 Y103.395 E3.04148
G1 X116.601 Y103.307 E3.04942
G1 X116.899 Y103.297 E3.05735
G1 X117.19 Y103.366 E3.06531
G1 X117.452 Y103.51 E3.07326
G1 X117.663 Y103.713 E3.08106
G1 X117.788 Y103.871 E3.08642
G1 X118.134 Y104.336 E3.10184
G1 X118.223 Y104.45 E3.10569
G1 X118.571 Y104.939 E3.12166
G1 X118.637 Y105.026 E3.12456
G1 X118.854 Y105.341 E3.13474
G1 X118.984 Y105.537 E3.141
G1 X119.115 Y105.806 E3.14896
G1 X119.17 Y106.099 E3.15689
G1 X119.145 Y106.397 E3.16485
G1 X119.042 Y106.677 E3.17279
G1 X118.869 Y106.921 E3.18075
G1 X118.638 Y107.11 E3.18869
G1 X118.365 Y107.231 E3.19663
G1 X118.049 Y107.276 E3.20513
G1 X117.549 Y107.275 E3.21843
G1 X117.183 Y107.259 E3.22818
G1 X116.886 Y107.224 E3.23614
G1 X116.609 Y107.113 E3.24408
G1 X116.279 Y106.828 E3.25568
G1 X115.991 Y106.459 E3.26813
G1 X115.944 Y106.403 E3.27008
G1 X115.785 Y106.15 E3.27803
G1 X115.688 Y105.767 E3.28854
G1 X115.663 Y105.412 E3.29801
G1 X115.651 Y104.939 E3.3106
G1 X115.662 Y104.441 E3.32385
G1 X115.669 Y104.336 E3.32665
G1 X115.729 Y104.044 E3.33459
G1 X115.864 Y103.777 E3.34255
G0 F1800 X116.175 Y103.896
G1 F2400 X116.366 Y103.731 E3.34926
G1 X116.598 Y103.634 E3.35595
G1 X116.85 Y103.613 E3.36268
G1 X117.095 Y103.673 E3.36939
G1 X117.309 Y103.805 E3.37608
G1 X117.515 Y104.04 E3.3844
G1 X117.882 Y104.534 E3.40077
G1 X117.963 Y104.636 E3.40424
G1 X118.32 Y105.138 E3.42063
G1 X118.374 Y105.209 E3.423
G1 X118.588 Y105.518 E3.43301
G1 X118.718 Y105.714 E3.43926
G1 X118.822 Y105.943 E3.44596
G1 X118.85 Y106.194 E3.45268
G1 X118.799 Y106.441 E3.45939
G1 X118.673 Y106.659 E3.46609
G1 X118.485 Y106.828 E3.47281
G1 X118.254 Y106.93 E3.47953
G1 X118.049 Y106.956 E3.48503
G1 X117.549 Y106.955 E3.49833
G1 X117.177 Y106.939 E3.50824
G1 X116.927 Y106.904 E3.51496
G1 X116.701 Y106.793 E3.52166
G1 X116.531 Y106.631 E3.52791
G1 X116.18 Y106.181 E3.54309
G1 X116.061 Y105.982 E3.54926
G1 X116.007 Y105.744 E3.55575
G1 X115.983 Y105.403 E3.56485
G1 X115.971 Y104.946 E3.57701
G1 X115.982 Y104.463 E3.58987
G1 X115.989 Y104.358 E3.59267
G1 X116.045 Y104.112 E3.59938
G1 X116.175 Y103.896 E3.60609
G0 F1800 X116.483 Y104.04
G1 F2400 X116.656 Y103.949 E3.61129
G1 X116.85 Y103.935 E3.61647
G1 X117.034 Y103.999 E3.62165
G1 X117.264 Y104.24 E3.63051
G1 X117.625 Y104.725 E3.6466
G1 X117.702 Y104.822 E3.6499
G1 X118.065 Y105.332 E3.66655
G1 X118.111 Y105.391 E3.66854
G1 X118.321 Y105.695 E3.67838
G1 X118.524 Y106.072 E3.68977
G1 X118.518 Y106.266 E3.69493
G1 X118.436 Y106.443 E3.70012
G1 X118.29 Y106.572 E3.70531
G1 X118.05 Y106.636 E3.71192
G1 X117.55 Y106.635 E3.72522
G1 X117.171 Y106.619 E3.73531
G1 X116.979 Y106.583 E3.74051
G1 X116.784 Y106.434 E3.74704
G1 X116.505 Y106.077 E3.7591
G1 X116.344 Y105.822 E3.76712
G1 X116.326 Y105.721 E3.76985
G1 X116.303 Y105.394 E3.77857
G1 X116.291 Y104.952 E3.79034
G1 X116.301 Y104.484 E3.8028
G1 X116.36 Y104.191 E3.81075
G1 X116.483 Y104.04 E3.81593
G0 F1800 X116.673 Y104.299
G1 F2400 X116.774 Y104.252 E3.81889
G1 X116.912 Y104.311 E3.82289
G1 X117.017 Y104.444 E3.8274
G1 X117.376 Y104.926 E3.84339
G1 X117.441 Y105.007 E3.84615
G1 X117.803 Y105.516 E3.86277
G1 X117.848 Y105.573 E3.8647
G1 X118.054 Y105.872 E3.87436
G1 X118.184 Y106.068 E3.88062
G1 X118.21 Y106.176 E3.88358
G1 X118.158 Y106.275 E3.88655
G1 X118.051 Y106.316 E3.8896
G1 X117.533 Y106.314 E3.90339
G1 X117.165 Y106.299 E3.91319
G1 X117.036 Y106.237 E3.91699
G1 X116.748 Y105.868 E3.92945
G1 X116.645 Y105.698 E3.93474
G1 X116.623 Y105.385 E3.94309
G1 X116.611 Y104.959 E3.95443
G1 X116.62 Y104.505 E3.96651
G1 X116.673 Y104.299 E3.97217
G0 F1800 X117.872 Y127.283
G1 F2400 X118.365 Y127.266 E3.98529
G1 X118.853 Y127.329 E3.99839
G1 X119.326 Y127.47 E4.01152
G1 X119.769 Y127.685 E4.02462
G1 X120.172 Y127.969 E4.03774
G1 X120.523 Y128.314 E4.05084
G1 X120.814 Y128.712 E4.06395
G1 X121.037 Y129.151 E4.07706
G1 X121.186 Y129.621 E4.09017
G1 X121.264 Y130.352 E4.10974
G1 X121.257 Y130.6 E4.11634
G1 X121.232 Y131.039 E4.12804
G1 X121.221 Y131.177 E4.13172
G1 X121.181 Y131.566 E4.14213
G1 X121.152 Y131.786 E4.14803
G1 X121.042 Y132.267 E4.16116
G1 X120.856 Y132.723 E4.17426
G1 X120.599 Y133.143 E4.18736
G1 X120.277 Y133.517 E4.2005
G1 X119.9 Y133.833 E4.21359
G1 X119.476 Y134.084 E4.2267
G1 X119.017 Y134.264 E4.23981
G1 X118.535 Y134.367 E4.25293
G1 X118.21 Y134.391 E4.2616
G1 X117.576 Y134.405 E4.27847
G1 X117.386 Y134.404 E4.28353
G1 X116.896 Y134.349 E4.29665
G1 X116.421 Y134.217 E4.30977
G1 X115.975 Y134.009 E4.32286
G1 X115.567 Y133.732 E4.33598
G1 X115.21 Y133.392 E4.3491
G1 X114.912 Y133 E4.3622
G1 X114.682 Y132.564 E4.37532
G1 X114.525 Y132.097 E4.38843
G1 X114.445 Y131.611 E4.40153
G1 X114.445 Y131.118 E4.41465
G1 X114.525 Y130.632 E4.42776
G1 X114.682 Y130.165 E4.44087
G1 X114.958 Y129.661 E4.45616
G1 X115.195 Y129.311 E4.4674
G1 X115.379 Y129.046 E4.47599
G1 X115.651 Y128.667 E4.4884
G1 X115.792 Y128.479 E4.49465
G1 X116.119 Y128.11 E4.50777
G1 X116.501 Y127.799 E4.52088
G1 X116.928 Y127.553 E4.53399
G1 X117.389 Y127.38 E4.54709
G1 X117.872 Y127.283 E4.5602
G0 F1800 X118.035 Y127.59
G1 F2400 X118.501 Y127.597 E4.5726
G1 X118.959 Y127.684 E4.58501
G1 X119.395 Y127.848 E4.5974
G1 X119.797 Y128.084 E4.60981
G1 X120.153 Y128.385 E4.62221
G1 X120.452 Y128.743 E4.63462
G1 X120.686 Y129.146 E4.64702
G1 X120.847 Y129.583 E4.65941
G1 X120.931 Y130.041 E4.6718
G1 X120.944 Y130.347 E4.67995
G1 X120.938 Y130.582 E4.68621
G1 X120.913 Y131.021 E4.69791
G1 X120.903 Y131.144 E4.70119
G1 X120.863 Y131.533 E4.71159
G1 X120.835 Y131.741 E4.71718
G1 X120.729 Y132.194 E4.72956
G1 X120.547 Y132.624 E4.74198
G1 X120.295 Y133.015 E4.75436
G1 X119.98 Y133.358 E4.76675
G1 X119.61 Y133.642 E4.77916
G1 X119.198 Y133.859 E4.79155
G1 X118.754 Y134.002 E4.80396
G1 X118.203 Y134.071 E4.81874
G1 X117.569 Y134.085 E4.83561
