;FLAVOR:Marlin
;TIME:1018
;Filament used: 1.08467m
;Layer height: 0.3
;MINX:95.541
;MINY:99.909
;MINZ:0.2
;MAXX:140.438
;MAXY:135.091
;MAXZ:8
;Generated with Cura_SteamEngine 4.11.0
M140 S60
M105
M190 S60
M104 S215
M105
M109 S215
M82 ;absolute extrusion mode
; Ender 3 Custom Start G-code
G92 E0 ; Reset Extruder
G28 ; Home all axes
G1 Z2.0 F3000 ; Move Z Axis up little to prevent scratching of Heat Bed
G1 X0.1 Y20 Z0.3 F5000.0 ; Move to start position
G1 X0.1 Y200.0 Z0.3 F1500.0 E15 ; Draw the first line
G1 X0.4 Y200.0 Z0.3 F5000.0 ; Move to side a little
G1 X0.4 Y20 Z0.3 F1500.0 E30 ; Draw the second line
G92 E0 ; Reset Extruder
G1 Z2.0 F3000 ; Move Z Axis up little to prevent scratching of Heat Bed
G1 X5 Y20 Z0.3 F5000.0 ; Move over to prevent blob squish
G92 E0
G92 E0
G1 F12000 E-5
;LAYER_COUNT:26
;LAYER:0
M107
G1 F300 Z0.5
;MESH:Leg.stl(1)
G0 F12000 X103.534 Y104.77 Z0.5
;TYPE:WALL-INNER
G1 F300 Z0.2
G1 F12000 E0
G1 F2100 X103.534 Y104.776 E0.00022
G1 X129.757 Y106.563 E0.96184
G1 X129.766 Y106.555 E0.96228
G1 X131.722 Y104.729 E1.06018
G1 X131.722 Y102.627 E1.13709
G1 X131.713 Y102.619 E1.13753
G1 X129.767 Y100.801 E1.23496
G1 X129.757 Y100.792 E1.23545
G1 X103.534 Y102.579 E2.19708
G1 X103.534 Y102.586 E2.19733
G1 X103.534 Y104.77 E2.27724
G0 F12000 X103.934 Y104.402
;TYPE:WALL-OUTER
G1 F2100 X129.611 Y106.152 E3.21884
G1 X131.322 Y104.555 E3.30447
G1 X131.322 Y102.801 E3.36864
G1 X129.611 Y101.203 E3.45429
G1 X103.934 Y102.953 E4.3959
G1 X103.934 Y104.402 E4.44891
G1 F12000 E-0.55109
G1 F300 Z0.5
G0 F12000 X132.109 Y105.36 Z0.5
;TYPE:WALL-INNER
G1 F300 Z0.2
G1 F12000 E4.44891
G1 F2100 X132.109 Y107.046 E4.51059
G1 X131.148 Y107.046 E4.54575
G1 X129.743 Y106.95 E4.59728
G1 X129.731 Y106.95 E4.59772
G1 X103.508 Y105.162 E5.52921
G1 X103.503 Y105.162 E5.5294
G1 X97.348 Y104.742 E5.75511
G1 X97.348 Y102.613 E5.833
G1 X103.501 Y102.194 E6.05864
G1 X103.507 Y102.194 E6.05886
G1 X129.73 Y100.406 E6.98795
G1 X129.743 Y100.406 E6.98842
G1 X131.148 Y100.309 E7.03995
G1 X132.109 Y100.309 E7.07511
G1 X132.109 Y101.996 E7.13683
G1 X137.346 Y101.996 E7.32843
G1 X137.346 Y102.185 E7.33534
G1 X132.109 Y102.185 E7.4261
G1 X132.109 Y102.614 E7.4418
G1 X132.109 Y102.627 E7.44227
G1 X132.109 Y104.729 E7.51686
G1 X132.109 Y105.171 E7.53303
G1 X137.346 Y105.171 E7.72463
G1 X137.347 Y105.36 E7.73155
G1 X132.109 Y105.36 E7.82233
G0 F12000 X132.509 Y105.76
;TYPE:WALL-OUTER
G1 F2100 X132.509 Y107.446 E7.88402
G1 X131.136 Y107.446 E7.93425
G1 X96.948 Y105.116 E9.18796
G1 X96.948 Y102.239 E9.29322
G1 X131.136 Y99.909 E10.54692
G1 X132.509 Y99.909 E10.59716
G1 X132.509 Y101.596 E10.65888
G1 X137.746 Y101.596 E10.85048
G1 X137.746 Y102.585 E10.88666
G1 X132.509 Y102.585 E11.07827
G1 X132.509 Y104.771 E11.15824
G1 X137.746 Y104.771 E11.34984
G1 X137.747 Y105.76 E11.38603
G1 X132.509 Y105.76 E11.57767
G0 F12000 X131.719 Y105.266
;TYPE:SKIN
G1 F2100 X131.719 Y106.656 E11.62852
G1 X131.175 Y106.656 E11.64842
G1 X130.294 Y106.596 E11.68073
G1 X131.719 Y105.266 E11.75205
G0 F12000 X131.316 Y105.86
G1 F2100 X131.558 Y106.102 E11.76457
G0 F12000 X131.386 Y106.495
G1 F2100 X131.024 Y106.133 E11.7833
G0 F12000 X130.731 Y106.406
G1 F2100 X130.792 Y106.468 E11.78648
G0 F12000 X131.719 Y102.09
G1 F2100 X130.293 Y100.759 E11.85785
G1 X131.175 Y100.699 E11.89019
G1 X131.719 Y100.699 E11.91009
G1 X131.719 Y102.09 E11.96098
G0 F12000 X131.558 Y101.011
G1 F2100 X131.406 Y100.859 E11.96885
G0 F12000 X130.862 Y100.881
G1 F2100 X131.558 Y101.577 E12.00486
G1 F12000 E7.00486
G1 F300 Z0.5
G0 F12000 X103.144 Y102.61 Z0.5
G1 F300 Z0.2
G1 F12000 E12.00486
G1 F2100 X103.144 Y104.745 E12.08297
G1 X97.738 Y104.377 E12.28121
G1 X97.738 Y102.978 E12.3324
G1 X103.144 Y102.61 E12.53064
G0 F12000 X102.795 Y102.795
G1 F2100 X102.983 Y102.983 E12.54037
G0 F12000 X102.983 Y103.549
G1 F2100 X102.265 Y102.831 E12.57752
G0 F12000 X101.735 Y102.867
G1 F2100 X102.983 Y104.115 E12.64209
G0 F12000 X102.866 Y104.563
G1 F2100 X101.206 Y102.903 E12.72798
G0 F12000 X100.676 Y102.939
G1 F2100 X102.259 Y104.522 E12.80988
G0 F12000 X101.652 Y104.481
G1 F2100 X100.146 Y102.975 E12.88781
G0 F12000 X99.617 Y103.011
G1 F2100 X101.045 Y104.439 E12.96169
G0 F12000 X100.438 Y104.398
G1 F2100 X99.086 Y103.046 E13.03164
G0 F12000 X98.557 Y103.082
G1 F2100 X99.832 Y104.357 E13.09761
G0 F12000 X99.224 Y104.315
G1 F2100 X98.027 Y103.118 E13.15955
G0 F12000 X97.897 Y103.554
G1 F2100 X98.618 Y104.274 E13.19683
G0 F12000 X98.01 Y104.233
G1 F2100 X97.897 Y104.12 E13.20267
G1 F12000 E8.20267
G1 F300 Z0.5
;MESH:Leg.stl
G0 F12000 X132.437 Y118.592 Z0.5
;TYPE:WALL-INNER
G1 F300 Z0.2
G1 F12000 E13.20267
G1 F2100 X132.437 Y116.407 E13.28261
G1 X132.437 Y116.401 E13.28283
G1 X106.215 Y114.614 E14.24442
G1 X106.206 Y114.622 E14.24486
G1 X104.258 Y116.441 E14.34237
G1 X104.25 Y116.449 E14.34279
G1 X104.25 Y118.551 E14.41969
G1 X104.258 Y118.559 E14.4201
G1 X106.205 Y120.377 E14.51756
G1 X106.215 Y120.386 E14.51806
G1 X132.437 Y118.599 E15.47964
G1 X132.437 Y118.592 E15.4799
G0 F12000 X132.037 Y118.225
;TYPE:WALL-OUTER
G1 F2100 X132.037 Y116.775 E15.53295
G1 X106.361 Y115.025 E16.47451
G1 X104.65 Y116.623 E16.56017
G1 X104.65 Y118.377 E16.62434
G1 X106.361 Y119.975 E16.71
G1 X132.037 Y118.225 E17.65156
G1 F12000 E12.65156
G1 F300 Z0.5
G0 F12000 X103.862 Y119.182 Z0.5
;TYPE:WALL-INNER
G1 F300 Z0.2
G1 F12000 E17.65156
G1 F2100 X98.625 Y119.182 E17.84316
G1 X98.625 Y118.993 E17.85008
G1 X103.862 Y118.993 E17.94084
G1 X103.862 Y118.563 E17.95657
G1 X103.862 Y118.551 E17.957
G1 X103.862 Y116.449 E18.03179
G1 X103.862 Y116.437 E18.03222
G1 X103.862 Y116.007 E18.04795
G1 X98.625 Y116.007 E18.23955
G1 X98.624 Y115.818 E18.24647
G1 X103.862 Y115.818 E18.33725
G1 X103.862 Y114.131 E18.39897
G1 X104.824 Y114.131 E18.43417
G1 X106.229 Y114.227 E18.48569
G1 X106.241 Y114.227 E18.48613
G1 X132.463 Y116.015 E19.4176
G1 X132.468 Y116.015 E19.41778
G1 X138.623 Y116.436 E19.64349
G1 X138.623 Y118.564 E19.72135
G1 X132.47 Y118.984 E19.94699
G1 X132.464 Y118.984 E19.94721
G1 X106.242 Y120.772 E20.87626
G1 X106.229 Y120.772 E20.87674
G1 X104.824 Y120.869 E20.92826
G1 X103.862 Y120.869 E20.96346
G1 X103.862 Y119.182 E21.02518
G0 F12000 X103.462 Y119.582
;TYPE:WALL-OUTER
G1 F2100 X98.225 Y119.582 E21.21678
G1 X98.225 Y118.593 E21.25296
G1 X103.462 Y118.593 E21.44457
G1 X103.462 Y116.407 E21.52454
G1 X98.225 Y116.407 E21.71614
G1 X98.224 Y115.418 E21.75233
G1 X103.462 Y115.418 E21.94397
G1 X103.462 Y113.731 E22.00569
G1 X104.836 Y113.731 E22.05596
G1 X139.023 Y116.062 E23.30963
G1 X139.023 Y118.938 E23.41485
G1 X104.836 Y121.269 E24.66853
G1 X103.462 Y121.269 E24.7188
G1 X103.462 Y119.582 E24.78052
G0 F12000 X104.252 Y119.087
;TYPE:SKIN
G1 F2100 X105.679 Y120.419 E24.85194
G1 X104.797 Y120.479 E24.88428
G1 X104.252 Y120.479 E24.90422
G1 X104.252 Y119.087 E24.95515
G0 F12000 X104.478 Y120.317
G1 F2100 X104.412 Y120.251 E24.95856
G0 F12000 X104.412 Y119.685
G1 F2100 X105.027 Y120.3 E24.99038
G0 F12000 X104.252 Y115.913
G1 F2100 X104.252 Y114.521 E25.04131
G1 X104.797 Y114.521 E25.06125
G1 X105.679 Y114.581 E25.09359
G1 X104.252 Y115.913 E25.16501
G0 F12000 X104.61 Y115.358
G1 F2100 X104.412 Y115.16 E25.17526
G0 F12000 X104.498 Y114.68
G1 F2100 X104.902 Y115.085 E25.19619
G0 F12000 X105.195 Y114.812
G1 F2100 X105.085 Y114.701 E25.2019
G1 F12000 E20.2019
G1 F300 Z0.5
G0 F12000 X132.827 Y116.433 Z0.5
G1 F300 Z0.2
G1 F12000 E25.2019
G1 F2100 X138.233 Y116.801 E25.40015
G1 X138.233 Y118.199 E25.45129
G1 X132.827 Y118.567 E25.64954
G1 X132.827 Y116.433 E25.72761
G0 F12000 X133.094 Y118.386
G1 F2100 X132.986 Y118.278 E25.7332
G0 F12000 X132.986 Y117.712
G1 F2100 X133.624 Y118.35 E25.76621
G0 F12000 X134.153 Y118.314
G1 F2100 X132.986 Y117.147 E25.82659
G0 F12000 X133.012 Y116.607
G1 F2100 X134.683 Y118.278 E25.91305
G0 F12000 X135.212 Y118.242
G1 F2100 X133.619 Y116.648 E25.9955
G0 F12000 X134.226 Y116.69
G1 F2100 X135.742 Y118.206 E26.07394
G0 F12000 X136.272 Y118.17
G1 F2100 X134.833 Y116.731 E26.14839
G0 F12000 X135.439 Y116.772
G1 F2100 X136.802 Y118.134 E26.21889
G0 F12000 X137.332 Y118.098
G1 F2100 X136.047 Y116.814 E26.28535
G0 F12000 X136.654 Y116.855
G1 F2100 X137.861 Y118.062 E26.3478
G0 F12000 X138.072 Y117.707
G1 F2100 X137.26 Y116.896 E26.38979
G0 F12000 X137.868 Y116.937
G1 F2100 X138.072 Y117.142 E26.40037
G1 F12000 E21.40037
G1 F300 Z0.5
;MESH:Leg.stl(2)
G0 F12000 X103.541 Y132.414 Z0.5
;TYPE:WALL-INNER
G1 F300 Z0.2
G1 F12000 E26.40037
G1 F2100 X103.541 Y132.42 E26.40059
G1 X129.764 Y134.207 E27.36221
G1 X129.772 Y134.199 E27.36263
G1 X131.729 Y132.373 E27.46055
G1 X131.729 Y130.271 E27.53746
G1 X131.72 Y130.263 E27.5379
G1 X129.774 Y128.445 E27.63533
G1 X129.764 Y128.436 E27.63582
G1 X103.541 Y130.223 E28.59744
G1 X103.541 Y130.23 E28.5977
G1 X103.541 Y132.414 E28.6776
G0 F12000 X103.941 Y132.046
;TYPE:WALL-OUTER
G1 F2100 X129.618 Y133.796 E29.61921
G1 X131.329 Y132.199 E29.70484
G1 X131.329 Y130.445 E29.76901
G1 X129.618 Y128.847 E29.85466
G1 X103.941 Y130.597 E30.79626
G1 X103.941 Y132.046 E30.84928
G1 F12000 E25.84928
G1 F300 Z0.5
G0 F12000 X132.116 Y133.004 Z0.5
;TYPE:WALL-INNER
G1 F300 Z0.2
G1 F12000 E30.84928
G1 F2100 X132.116 Y134.691 E30.911
G1 X131.155 Y134.691 E30.94616
G1 X129.749 Y134.595 E30.99772
G1 X129.738 Y134.595 E30.99812
G1 X103.515 Y132.807 E31.93203
G1 X103.51 Y132.807 E31.93221
G1 X97.355 Y132.386 E32.15793
G1 X97.355 Y130.257 E32.23582
G1 X103.508 Y129.838 E32.46145
G1 X103.514 Y129.838 E32.46167
G1 X129.737 Y128.05 E33.39076
G1 X129.75 Y128.05 E33.39124
G1 X131.155 Y127.953 E33.44276
G1 X132.116 Y127.953 E33.47792
G1 X132.116 Y129.64 E33.53964
G1 X137.353 Y129.64 E33.73125
G1 X137.353 Y129.829 E33.73816
G1 X132.116 Y129.829 E33.82892
G1 X132.116 Y130.258 E33.84462
G1 X132.116 Y130.271 E33.84508
G1 X132.116 Y132.373 E33.91968
G1 X132.116 Y132.815 E33.93585
G1 X137.353 Y132.815 E34.12745
G1 X137.354 Y133.004 E34.13436
G1 X132.116 Y133.004 E34.22515
G0 F12000 X132.516 Y133.404
;TYPE:WALL-OUTER
G1 F2100 X132.516 Y135.091 E34.28687
G1 X131.143 Y135.091 E34.3371
G1 X96.955 Y132.76 E35.59081
G1 X96.955 Y129.883 E35.69607
G1 X131.143 Y127.553 E36.94978
G1 X132.516 Y127.553 E37.00001
G1 X132.516 Y129.24 E37.06173
G1 X137.753 Y129.24 E37.25334
G1 X137.753 Y130.229 E37.28952
G1 X132.516 Y130.229 E37.48112
G1 X132.516 Y132.415 E37.5611
G1 X137.753 Y132.415 E37.7527
G1 X137.754 Y133.404 E37.78888
G1 X132.516 Y133.404 E37.98052
G0 F12000 X131.726 Y132.91
;TYPE:SKIN
G1 F2100 X131.726 Y134.301 E38.03141
G1 X131.182 Y134.301 E38.05132
G1 X130.3 Y134.241 E38.08366
G1 X131.726 Y132.91 E38.15503
G0 F12000 X131.28 Y133.543
G1 F2100 X131.566 Y133.829 E38.16983
G0 F12000 X131.311 Y134.14
G1 F2100 X130.988 Y133.817 E38.18654
G0 F12000 X131.726 Y129.734
G1 F2100 X130.3 Y128.403 E38.2579
G1 X131.182 Y128.343 E38.29025
G1 X131.726 Y128.343 E38.31015
G1 X131.726 Y129.734 E38.36104
G0 F12000 X131.565 Y128.737
G1 F2100 X131.331 Y128.503 E38.37315
G0 F12000 X130.794 Y128.531
G1 F2100 X131.563 Y129.3 E38.41294
G1 F12000 E33.41294
G1 F300 Z0.5
G0 F12000 X103.151 Y130.254 Z0.5
G1 F300 Z0.2
G1 F12000 E38.41294
G1 F2100 X103.151 Y132.389 E38.49105
G1 X97.745 Y132.021 E38.68929
G1 X97.745 Y130.622 E38.74048
G1 X103.151 Y130.254 E38.93872
G0 F12000 X102.724 Y130.443
G1 F2100 X102.991 Y130.71 E38.95253
G0 F12000 X102.991 Y131.275
G1 F2100 X102.195 Y130.479 E38.99372
G0 F12000 X101.665 Y130.515
G1 F2100 X102.991 Y131.841 E39.06233
G0 F12000 X102.786 Y132.202
G1 F2100 X101.136 Y130.551 E39.14772
G0 F12000 X100.606 Y130.587
G1 F2100 X102.179 Y132.16 E39.22911
G0 F12000 X101.572 Y132.119
G1 F2100 X100.076 Y130.623 E39.30652
G0 F12000 X99.547 Y130.659
G1 F2100 X100.965 Y132.078 E39.37991
G0 F12000 X100.358 Y132.036
G1 F2100 X99.017 Y130.695 E39.44929
G0 F12000 X98.487 Y130.732
G1 F2100 X99.751 Y131.995 E39.51467
G0 F12000 X99.144 Y131.954
G1 F2100 X97.958 Y130.768 E39.57603
G0 F12000 X97.905 Y131.28
G1 F2100 X98.537 Y131.912 E39.60873
G1 F12000 E34.60873
G1 F300 Z0.5
;MESH:NONMESH
G0 F12000 X103.534 Y104.77 Z0.5
;TIME_ELAPSED:53.617732
;LAYER:1
M106 S68
;TYPE:WALL-INNER
;MESH:Leg.stl(1)
G1 F300 Z0.5
G1 F12000 E39.60873
G1 F2400 X103.534 Y104.776 E39.60906
G1 X129.757 Y106.563 E41.0515
G1 X129.766 Y106.555 E41.05216
G1 X131.722 Y104.729 E41.19901
G1 X131.722 Y102.627 E41.31436
G1 X131.713 Y102.619 E41.31502
G1 X129.767 Y100.801 E41.46117
G1 X129.757 Y100.792 E41.46191
G1 X103.534 Y102.579 E42.90435
G1 X103.534 Y102.586 E42.90473
G1 X103.534 Y104.77 E43.02459
G0 F12000 X103.934 Y104.402
;TYPE:WALL-OUTER
G1 F1725 X129.611 Y106.152 E44.43699
G1 X131.322 Y104.555 E44.56543
G1 X131.322 Y102.801 E44.66169
G1 X129.611 Y101.203 E44.79018
G1 X103.934 Y102.953 E46.20258
G1 X103.934 Y104.402 E46.2821
G1 F12000 E41.2821
G1 F300 Z0.8
G0 F12000 X132.109 Y105.36 Z0.8
;TYPE:WALL-INNER
G1 F300 Z0.5
G1 F12000 E46.2821
G1 F2400 X132.109 Y107.046 E46.37462
G1 X131.148 Y107.046 E46.42736
G1 X129.743 Y106.95 E46.50465
G1 X129.731 Y106.95 E46.50531
G1 X103.508 Y105.162 E47.90256
G1 X103.503 Y105.162 E47.90283
G1 X96.981 Y104.717 E48.26158
G1 X96.98 Y102.639 E48.37562
G1 X103.501 Y102.194 E48.73432
G1 X103.507 Y102.194 E48.73465
G1 X129.73 Y100.406 E50.12829
G1 X129.743 Y100.406 E50.129
G1 X131.148 Y100.309 E50.20629
G1 X132.109 Y100.309 E50.25903
G1 X132.109 Y101.996 E50.35161
G1 X137.951 Y101.996 E50.67221
G1 X137.951 Y102.185 E50.68259
G1 X132.109 Y102.185 E50.83445
G1 X132.109 Y102.614 E50.85799
G1 X132.109 Y102.627 E50.8587
G1 X132.109 Y104.729 E50.97058
G1 X132.109 Y105.171 E50.99484
G1 X137.951 Y105.171 E51.31545
G1 X137.952 Y105.36 E51.32582
G1 X132.109 Y105.36 E51.47772
G0 F12000 X132.509 Y105.76
;TYPE:WALL-OUTER
G1 F1725 X132.509 Y107.446 E51.57025
G1 X131.136 Y107.446 E51.6456
G1 X96.581 Y105.091 E53.54635
G1 X96.58 Y102.265 E53.70144
G1 X131.136 Y99.909 E55.60225
G1 X132.509 Y99.909 E55.6776
G1 X132.509 Y101.596 E55.77018
G1 X138.351 Y101.596 E56.09078
G1 X138.351 Y102.585 E56.14506
G1 X132.509 Y102.585 E56.46566
G1 X132.509 Y104.771 E56.58563
G1 X138.351 Y104.771 E56.90623
G1 X138.352 Y105.76 E56.96051
G1 X132.509 Y105.76 E57.28117
G0 F12000 X131.719 Y105.266
;TYPE:SKIN
G1 F1725 X131.719 Y106.656 E57.35745
G1 X131.175 Y106.656 E57.3873
G1 X130.294 Y106.596 E57.43576
G1 X131.719 Y105.266 E57.54274
G0 F12000 X131.097 Y106.49
G1 F1725 X131.558 Y106.029 E57.57852
G0 F12000 X131.719 Y102.09
G1 F1725 X130.293 Y100.759 E57.68557
G1 X131.175 Y100.699 E57.73408
G1 X131.719 Y100.699 E57.76394
G1 X131.719 Y102.09 E57.84027
G0 F12000 X131.444 Y101.617
G1 F1725 X131.557 Y101.504 E57.84904
G0 F12000 X131.152 Y101.343
G1 F1725 X131.557 Y100.938 E57.88047
G0 F12000 X131.063 Y100.867
G1 F1725 X130.86 Y101.071 E57.89627
G1 F12000 E52.89627
G1 F300 Z0.8
G0 F12000 X103.144 Y102.611 Z0.8
G1 F300 Z0.5
G1 F12000 E57.89627
G1 F1725 X103.144 Y104.745 E58.01338
G1 X97.371 Y104.352 E58.33093
G1 X97.37 Y103.004 E58.40491
G1 X103.144 Y102.611 E58.72252
G0 F12000 X102.501 Y104.539
G1 F1725 X102.983 Y104.057 E58.75992
G0 F12000 X102.983 Y103.491
G1 F1725 X101.971 Y104.503 E58.83847
G0 F12000 X101.442 Y104.467
G1 F1725 X102.983 Y102.925 E58.9581
G0 F12000 X102.53 Y102.813
G1 F1725 X100.912 Y104.431 E59.08368
G0 F12000 X100.382 Y104.395
G1 F1725 X101.923 Y102.854 E59.20328
G0 F12000 X101.316 Y102.896
G1 F1725 X99.852 Y104.359 E59.31686
G0 F12000 X99.323 Y104.323
G1 F1725 X100.709 Y102.937 E59.42443
G0 F12000 X100.102 Y102.978
G1 F1725 X98.793 Y104.287 E59.52602
G0 F12000 X98.263 Y104.251
G1 F1725 X99.495 Y103.019 E59.62164
G0 F12000 X98.888 Y103.06
G1 F1725 X97.734 Y104.215 E59.71124
G0 F12000 X97.53 Y103.853
