;FLAVOR:Marlin
;TIME:1664
;Filament used: 0.232217m
;Layer height: 0.12
;MINX:105.552
;MINY:97.389
;MINZ:0.2
;MAXX:132.893
;MAXY:137.622
;MAXZ:11.48
;Generated with Cura_SteamEngine 4.11.0
M140 S60
M105
M190 S60
M104 S213
M105
M109 S213
M82 ;absolute extrusion mode
; Ender 3 Custom Start G-code
G92 E0 ; Reset Extruder
G28 ; Home all axes
G1 Z2.0 F3000 ; Move Z Axis up little to prevent scratching of Heat Bed
G1 X0.1 Y20 Z0.3 F5000.0 ; Move to start position
G1 X0.1 Y200.0 Z0.3 F1500.0 E15 ; Draw the first line
G1 X0.4 Y200.0 Z0.3 F5000.0 ; Move to side a little
G1 X0.4 Y20 Z0.3 F1500.0 E30 ; Draw the second line
G92 E0 ; Reset Extruder
G1 Z2.0 F3000 ; Move Z Axis up little to prevent scratching of Heat Bed
G1 X5 Y20 Z0.3 F5000.0 ; Move over to prevent blob squish
G92 E0
G92 E0
G1 F4500 E-5
;LAYER_COUNT:94
;LAYER:0
M107
G1 F300 Z0.44
G0 F12000 X109.455 Y121.229 Z0.44
;TYPE:SKIRT
G1 F300 Z0.2
G1 F4500 E0
G1 F1800 X109.707 Y121.201 E0.00843
G1 X109.969 Y121.302 E0.01777
G1 X110.116 Y121.443 E0.02455
G1 X110.174 Y121.607 E0.03033
G1 X110.121 Y121.848 E0.03854
G1 X109.964 Y122.002 E0.04585
G1 X109.743 Y122.044 E0.05334
G1 X109.535 Y121.96 E0.0608
G1 X109.405 Y121.778 E0.06824
G1 X109.381 Y121.45 E0.07918
G1 X109.455 Y121.229 E0.08693
G1 F4500 E-4.91307
G1 F300 Z0.44
G0 F12000 X109.102 Y121.04 Z0.44
G1 F300 Z0.2
G1 F4500 E0.08693
G1 F1800 X109.253 Y120.876 E0.09434
G1 X109.521 Y120.802 E0.10359
G1 X109.643 Y120.793 E0.10766
G1 X109.99 Y120.876 E0.11952
G1 X110.223 Y120.987 E0.12811
G1 X110.454 Y121.227 E0.13919
G1 X110.569 Y121.538 E0.15022
G1 X110.545 Y121.873 E0.16139
G1 X110.394 Y122.156 E0.17206
G1 X110.16 Y122.351 E0.18219
G1 X109.89 Y122.44 E0.19164
G1 X109.614 Y122.429 E0.20083
G1 X109.329 Y122.304 E0.21118
G1 X109.146 Y122.13 E0.21958
G1 X109.02 Y121.888 E0.22865
G1 X108.982 Y121.635 E0.23716
G1 X108.986 Y121.378 E0.24571
G1 X109.102 Y121.04 E0.2576
G1 F4500 E-4.7424
G1 F300 Z0.44
G0 F12000 X108.781 Y120.797 Z0.44
G1 F300 Z0.2
G1 F4500 E0.2576
G1 F1800 X108.917 Y120.623 E0.26494
G1 X109.069 Y120.516 E0.27112
G1 X109.374 Y120.421 E0.28175
G1 X109.651 Y120.393 E0.29101
G1 X109.93 Y120.432 E0.30038
G1 X110.33 Y120.586 E0.31464
G1 X110.589 Y120.766 E0.32513
G1 X110.792 Y121.011 E0.33571
G1 X110.918 Y121.275 E0.34544
G1 X110.975 Y121.567 E0.35533
G1 X110.934 Y121.971 E0.36884
G1 X110.823 Y122.238 E0.37846
G1 X110.65 Y122.469 E0.38806
G1 X110.415 Y122.667 E0.39828
G1 X110.121 Y122.798 E0.40898
G1 X109.868 Y122.844 E0.41753
G1 X109.541 Y122.823 E0.42843
G1 X109.208 Y122.7 E0.44024
G1 X108.957 Y122.517 E0.45057
G1 X108.766 Y122.285 E0.46057
G1 X108.643 Y122.023 E0.47019
G1 X108.584 Y121.706 E0.48092
G1 X108.581 Y121.426 E0.49023
G1 X108.661 Y121.044 E0.50321
G1 X108.781 Y120.797 E0.51235
G1 F4500 E-4.48765
G1 F300 Z0.44
G0 F12000 X108.391 Y120.67 Z0.44
G1 F300 Z0.2
G1 F4500 E0.51235
G1 F1800 X108.633 Y120.34 E0.52596
G1 X108.863 Y120.172 E0.53543
G1 X108.908 Y120.149 E0.53711
G1 X109.149 Y120.066 E0.54559
G1 X109.421 Y120.007 E0.55484
G1 X109.66 Y119.993 E0.56281
G1 X109.918 Y120.018 E0.57143
G1 X110.261 Y120.123 E0.58336
G1 X110.516 Y120.231 E0.59257
G1 X110.861 Y120.472 E0.60657
G1 X111.132 Y120.798 E0.62067
G1 X111.302 Y121.157 E0.63388
G1 X111.361 Y121.417 E0.64275
G1 X111.376 Y121.55 E0.6472
G1 X111.368 Y121.811 E0.65588
G1 X111.322 Y122.068 E0.66457
G1 X111.28 Y122.197 E0.66908
G1 X111.169 Y122.439 E0.67793
G1 X110.93 Y122.758 E0.69119
G1 X110.715 Y122.947 E0.70071
G1 X110.425 Y123.111 E0.71179
G1 X110.138 Y123.207 E0.72186
G1 X109.767 Y123.247 E0.73427
G1 X109.47 Y123.217 E0.7442
G1 X109.222 Y123.146 E0.75278
G1 X108.89 Y122.974 E0.76522
G1 X108.688 Y122.813 E0.77381
G1 X108.509 Y122.616 E0.78266
G1 X108.367 Y122.394 E0.79142
G1 X108.26 Y122.139 E0.80062
G1 X108.199 Y121.873 E0.8097
G1 X108.182 Y121.673 E0.81638
G1 X108.181 Y121.408 E0.82519
G1 X108.207 Y121.184 E0.83269
G1 X108.282 Y120.913 E0.84204
G1 X108.391 Y120.67 E0.8509
G1 F4500 E-4.1491
G1 F300 Z0.44
G0 F12000 X109.027 Y119.684 Z0.44
G1 F300 Z0.2
G1 F4500 E0.8509
G1 F1800 X109.364 Y119.611 E0.86237
G1 X109.668 Y119.592 E0.8725
G1 X109.997 Y119.626 E0.8835
G1 X110.156 Y119.664 E0.88894
G1 X110.408 Y119.75 E0.89779
G1 X110.693 Y119.87 E0.90808
G1 X110.904 Y119.996 E0.91625
G1 X111.132 Y120.176 E0.92591
G1 X111.288 Y120.339 E0.93342
G1 X111.471 Y120.582 E0.94354
G1 X111.606 Y120.836 E0.9531
G1 X111.685 Y121.038 E0.96032
G1 X111.755 Y121.345 E0.97079
G1 X111.777 Y121.539 E0.97728
G1 X111.767 Y121.853 E0.98773
G1 X111.711 Y122.166 E0.99831
G1 X111.654 Y122.343 E1.00449
G1 X111.52 Y122.636 E1.01521
G1 X111.348 Y122.888 E1.02536
G1 X111.212 Y123.042 E1.03219
G1 X110.96 Y123.263 E1.04334
G1 X110.711 Y123.419 E1.05311
G1 X110.372 Y123.558 E1.0653
G1 X110.066 Y123.627 E1.07573
G1 X109.766 Y123.648 E1.08573
G1 X109.396 Y123.611 E1.0981
G1 X109.09 Y123.523 E1.10869
G1 X108.818 Y123.399 E1.11863
G1 X108.546 Y123.219 E1.12948
G1 X108.287 Y122.976 E1.14129
G1 X108.089 Y122.713 E1.15224
G1 X107.936 Y122.417 E1.16333
G1 X107.834 Y122.097 E1.1745
G1 X107.786 Y121.761 E1.18579
G1 X107.782 Y121.667 E1.18892
G1 X107.781 Y121.386 E1.19826
G1 X107.815 Y121.1 E1.20784
G1 X107.906 Y120.774 E1.2191
G1 X108.037 Y120.481 E1.22977
G1 X108.214 Y120.214 E1.24043
G1 X108.417 Y119.997 E1.25031
G1 X108.659 Y119.826 E1.26017
G1 X108.75 Y119.78 E1.26356
G1 X109.027 Y119.684 E1.27331
G1 F4500 E-3.72669
G1 F300 Z0.44
;MESH:Mount Phone Clamp Knob.stl
G0 F12000 X109.74 Y124.849 Z0.44
;TYPE:WALL-OUTER
G1 F300 Z0.2
G1 F4500 E1.27331
G1 F1500 X109.995 Y124.842 E1.28179
G1 X110.247 Y124.815 E1.29022
G1 X110.497 Y124.768 E1.29868
G1 X110.74 Y124.702 E1.30706
G1 X111.045 Y124.587 E1.3179
G1 X111.269 Y124.482 E1.32613
G1 X111.489 Y124.356 E1.33456
G1 X111.696 Y124.213 E1.34293
G1 X112.068 Y123.887 E1.35938
G1 X112.289 Y123.638 E1.37045
G1 X112.568 Y123.228 E1.38695
G1 X112.773 Y122.781 E1.4033
G1 X112.878 Y122.457 E1.41463
G1 X112.965 Y121.978 E1.43082
G1 X112.978 Y121.497 E1.44683
G1 X112.941 Y121.146 E1.45857
G1 X112.833 Y120.681 E1.47444
G1 X112.703 Y120.344 E1.48646
G1 X112.481 Y119.93 E1.50208
G1 X112.205 Y119.56 E1.51744
G1 X111.941 Y119.286 E1.53009
G1 X111.588 Y119.007 E1.54506
G1 X111.24 Y118.8 E1.55852
G1 X110.836 Y118.628 E1.57313
G1 X110.481 Y118.507 E1.5856
G1 X110.249 Y118.452 E1.59353
G1 X109.997 Y118.411 E1.60202
G1 X109.703 Y118.391 E1.61183
G1 X109.467 Y118.396 E1.61968
G1 X109.204 Y118.421 E1.62846
G1 X108.946 Y118.466 E1.63717
G1 X108.689 Y118.532 E1.646
G1 X108.277 Y118.674 E1.66049
G1 X108.043 Y118.792 E1.66921
G1 X107.67 Y119.055 E1.68439
G1 X107.486 Y119.22 E1.69261
G1 X107.275 Y119.465 E1.70336
G1 X107.107 Y119.701 E1.713
G1 X106.974 Y119.922 E1.72158
G1 X106.77 Y120.377 E1.73816
G1 X106.638 Y120.854 E1.75462
G1 X106.6 Y121.105 E1.76307
G1 X106.581 Y121.352 E1.77131
G1 X106.582 Y121.705 E1.78305
G1 X106.588 Y121.838 E1.78748
G1 X106.614 Y122.104 E1.79637
G1 X106.664 Y122.37 E1.80537
G1 X106.735 Y122.63 E1.81433
G1 X106.829 Y122.882 E1.82328
G1 X106.943 Y123.126 E1.83224
G1 X107.078 Y123.36 E1.84122
G1 X107.231 Y123.58 E1.85013
G1 X107.404 Y123.79 E1.85918
G1 X107.594 Y123.983 E1.86819
G1 X107.795 Y124.156 E1.87701
G1 X108.017 Y124.316 E1.88611
G1 X108.247 Y124.455 E1.89505
G1 X108.489 Y124.574 E1.90402
G1 X108.668 Y124.648 E1.91046
G1 X108.924 Y124.733 E1.91943
G1 X109.173 Y124.791 E1.92794
G1 X109.421 Y124.827 E1.93627
G1 X109.488 Y124.834 E1.93851
G1 X109.74 Y124.849 E1.94691
G1 F4500 E-3.05309
G1 F300 Z0.44
G0 F12000 X110.166 Y125.43 Z0.44
G1 F300 Z0.2
G1 F4500 E1.94691
G1 F1500 X109.887 Y125.447 E1.95621
G1 X109.634 Y125.445 E1.96462
G1 X109.304 Y125.42 E1.97563
G1 X109.055 Y125.378 E1.98403
G1 X108.727 Y125.299 E1.99525
G1 X108.426 Y125.197 E2.00582
G1 X108.225 Y125.116 E2.01303
G1 X107.996 Y125.002 E2.02154
G1 X107.765 Y124.869 E2.0304
G1 X107.542 Y124.717 E2.03938
G1 X107.289 Y124.518 E2.05008
G1 X107.097 Y124.339 E2.05881
G1 X106.903 Y124.129 E2.06832
G1 X106.711 Y123.886 E2.07862
G1 X106.564 Y123.672 E2.08726
G1 X106.43 Y123.439 E2.0962
G1 X106.289 Y123.145 E2.10704
G1 X106.182 Y122.864 E2.11704
G1 X106.117 Y122.655 E2.12432
G1 X106.052 Y122.377 E2.13382
G1 X106.005 Y122.068 E2.14421
G1 X105.985 Y121.816 E2.15262
G1 X105.983 Y121.548 E2.16154
G1 X105.985 Y121.485 E2.16363
G1 X106.005 Y121.23 E2.17214
G1 X106.051 Y120.927 E2.18233
G1 X106.101 Y120.705 E2.1899
G1 X106.182 Y120.432 E2.19937
G1 X106.295 Y120.139 E2.20982
G1 X106.407 Y119.899 E2.21863
G1 X106.53 Y119.681 E2.22695
G1 X106.678 Y119.456 E2.23591
G1 X106.71 Y119.412 E2.23772
G1 X106.87 Y119.208 E2.24634
G1 X107.062 Y118.995 E2.25588
G1 X107.259 Y118.806 E2.26496
G1 X107.465 Y118.636 E2.27384
G1 X107.72 Y118.457 E2.28421
G1 X107.935 Y118.327 E2.29256
G1 X108.174 Y118.206 E2.30147
G1 X108.462 Y118.086 E2.31185
G1 X108.729 Y117.997 E2.32121
G1 X109 Y117.929 E2.3305
G1 X109.271 Y117.882 E2.33965
G1 X109.565 Y117.855 E2.34947
G1 X109.83 Y117.848 E2.35829
G1 X110.103 Y117.862 E2.36738
G1 X110.356 Y117.893 E2.37586
G1 X110.672 Y117.955 E2.38657
G1 X110.946 Y118.031 E2.39603
G1 X111.245 Y118.142 E2.40663
G1 X111.473 Y118.245 E2.41496
G1 X111.705 Y118.371 E2.42374
G1 X111.94 Y118.521 E2.43301
G1 X112.149 Y118.676 E2.44166
G1 X112.391 Y118.884 E2.45228
G1 X112.587 Y119.084 E2.46159
G1 X112.761 Y119.288 E2.47051
G1 X112.942 Y119.538 E2.48077
G1 X113.078 Y119.757 E2.48935
G1 X113.208 Y120.003 E2.4986
G1 X113.308 Y120.233 E2.50694
G1 X113.402 Y120.499 E2.51633
G1 X113.49 Y120.816 E2.52727
G1 X113.539 Y121.072 E2.53594
G1 X113.572 Y121.376 E2.54611
G1 X113.582 Y121.642 E2.55496
G1 X113.574 Y121.904 E2.56368
G1 X113.538 Y122.222 E2.57432
G1 X113.488 Y122.483 E2.58316
G1 X113.402 Y122.8 E2.59409
G1 X113.33 Y123.012 E2.60153
G1 X113.228 Y123.251 E2.61018
G1 X113.208 Y123.293 E2.61173
G1 X113.08 Y123.536 E2.62086
G1 X112.943 Y123.76 E2.62959
G1 X112.785 Y123.978 E2.63855
G1 X112.618 Y124.178 E2.64721
G1 X112.431 Y124.373 E2.6562
G1 X112.214 Y124.568 E2.6659
G1 X111.986 Y124.745 E2.6755
G1 X111.758 Y124.894 E2.68456
G1 X111.532 Y125.021 E2.69319
G1 X111.476 Y125.05 E2.69528
G1 X111.234 Y125.161 E2.70414
G1 X110.998 Y125.249 E2.71252
G1 X110.728 Y125.329 E2.72188
G1 X110.448 Y125.39 E2.73141
G1 X110.166 Y125.43 E2.74089
G1 F4500 E-2.25911
G1 F300 Z0.44
G0 F12000 X110.066 Y114.579 Z0.44
G1 F300 Z0.2
G1 F4500 E2.74089
G1 F1500 X109.716 Y114.593 E2.75254
G1 X109.352 Y114.554 E2.76471
G1 X109.01 Y114.461 E2.7765
G1 X108.726 Y114.338 E2.78679
G1 X108.418 Y114.147 E2.79885
G1 X108.154 Y113.919 E2.81045
G1 X107.926 Y113.653 E2.8221
G1 X107.735 Y113.344 E2.83418
G1 X107.584 Y112.972 E2.84754
G1 X107.512 Y112.668 E2.85793
G1 X107.482 Y112.287 E2.87064
G1 X107.508 Y111.949 E2.88192
G1 X107.591 Y111.595 E2.89401
G1 X107.711 Y111.291 E2.90488
G1 X107.879 Y111.003 E2.91597
G1 X108.114 Y110.71 E2.92846
G1 X108.384 Y110.468 E2.94052
G1 X108.659 Y110.287 E2.95147
G1 X108.97 Y110.142 E2.96288
G1 X109.339 Y110.037 E2.97564
G1 X109.67 Y109.996 E2.98674
G1 X109.84 Y109.995 E2.99239
G1 X110.196 Y110.031 E3.00429
G1 X110.616 Y110.151 E3.01882
G1 X110.906 Y110.288 E3.02949
G1 X111.182 Y110.469 E3.04047
G1 X111.433 Y110.69 E3.05159
G1 X111.641 Y110.938 E3.06235
G1 X111.814 Y111.213 E3.07316
G1 X111.961 Y111.556 E3.08557
G1 X112.036 Y111.832 E3.09508
G1 X112.081 Y112.215 E3.10791
G1 X112.075 Y112.473 E3.11649
G1 X112.034 Y112.767 E3.12637
G1 X111.95 Y113.059 E3.13647
G1 X111.828 Y113.345 E3.14681
G1 X111.589 Y113.717 E3.16152
G1 X111.346 Y113.982 E3.17348
G1 X111.071 Y114.201 E3.18517
G1 X110.758 Y114.378 E3.19713
G1 X110.409 Y114.509 E3.20953
G1 X110.066 Y114.579 E3.22117
G1 F4500 E-1.77883
G1 F300 Z0.44
G0 F12000 X109.959 Y112.059 Z0.44
;TYPE:SKIN
G1 F300 Z0.2
G1 F4500 E3.22117
G1 F1500 X110.068 Y112.219 E3.22761
G1 X110.055 Y112.404 E3.23378
G1 X109.91 Y112.562 E3.24091
G1 X109.722 Y112.583 E3.24721
G1 X109.58 Y112.508 E3.25255
G1 X109.494 Y112.357 E3.25833
G1 X109.509 Y112.181 E3.2642
G1 X109.64 Y112.035 E3.27073
G1 X109.778 Y111.998 E3.27548
G1 X109.959 Y112.059 E3.28183
G1 F4500 E-1.71817
G1 F300 Z0.44
G0 F12000 X110.283 Y111.811 Z0.44
G1 F300 Z0.2
G1 F4500 E3.28183
G1 F1500 X110.448 Y112.09 E3.29261
G1 X110.476 Y112.353 E3.30141
G1 X110.407 Y112.596 E3.30981
G1 X110.251 Y112.81 E3.31862
G1 X109.976 Y112.965 E3.32912
G1 X109.65 Y112.978 E3.33997
G1 X109.369 Y112.855 E3.35017
G1 X109.161 Y112.605 E3.36099
G1 X109.086 Y112.283 E3.37198
G1 X109.15 Y112.001 E3.3816
G1 X109.361 Y111.74 E3.39277
G1 X109.664 Y111.608 E3.40376
G1 X109.771 Y111.596 E3.40734
G1 X110.046 Y111.651 E3.41667
G1 X110.283 Y111.811 E3.42618
G1 F4500 E-1.57382
G1 F300 Z0.44
G0 F12000 X110.451 Y111.425 Z0.44
G1 F300 Z0.2
G1 F4500 E3.42618
G1 F1500 X110.673 Y111.653 E3.43676
G1 X110.827 Y111.961 E3.44821
G1 X110.879 Y112.27 E3.45864
G1 X110.856 Y112.527 E3.46722
G1 X110.763 Y112.782 E3.47625
G1 X110.526 Y113.102 E3.48949
G1 X110.249 Y113.289 E3.50061
G1 X109.928 Y113.383 E3.51173
G1 X109.574 Y113.372 E3.52351
G1 X109.272 Y113.265 E3.53417
G1 X109.014 Y113.075 E3.54482
G1 X108.805 Y112.791 E3.55655
G1 X108.7 Y112.473 E3.56769
G1 X108.696 Y112.141 E3.57873
G1 X108.791 Y111.823 E3.58977
G1 X108.988 Y111.537 E3.60132
G1 X109.247 Y111.336 E3.61223
G1 X109.584 Y111.215 E3.62414
G1 X109.786 Y111.195 E3.63089
G1 X110.185 Y111.274 E3.64442
G1 X110.451 Y111.425 E3.65459
G1 F4500 E-1.34541
G1 F300 Z0.44
G0 F12000 X110.695 Y111.106 Z0.44
G1 F300 Z0.2
G1 F4500 E3.65459
G1 F1500 X110.998 Y111.417 E3.66903
G1 X111.096 Y111.573 E3.67516
G1 X111.205 Y111.827 E3.68435
G1 X111.247 Y111.98 E3.68963
G1 X111.28 Y112.254 E3.69881
G1 X111.25 Y112.605 E3.71053
G1 X111.115 Y112.974 E3.72359
G1 X110.951 Y113.23 E3.73371
G1 X110.621 Y113.538 E3.74872
G1 X110.194 Y113.737 E3.76439
G1 X109.741 Y113.79 E3.77956
G1 X109.284 Y113.707 E3.79501
G1 X108.898 Y113.505 E3.8095
G1 X108.572 Y113.177 E3.82488
G1 X108.449 Y112.977 E3.83269
G1 X108.352 Y112.739 E3.84124
G1 X108.283 Y112.284 E3.85654
G1 X108.299 Y112.082 E3.86328
G1 X108.36 Y111.824 E3.8721
G1 X108.545 Y111.45 E3.88598
G1 X108.872 Y111.105 E3.90179
G1 X109.249 Y110.894 E3.91616
G1 X109.501 Y110.822 E3.92487
G1 X109.804 Y110.795 E3.93499
G1 X110.051 Y110.82 E3.94325
G1 X110.322 Y110.897 E3.95262
G1 X110.695 Y111.106 E3.96684
G1 F4500 E-1.03316
G1 F300 Z0.44
G0 F12000 X110.94 Y110.789 Z0.44
G1 F300 Z0.2
G1 F4500 E3.96684
G1 F1500 X111.143 Y110.968 E3.97584
G1 X111.323 Y111.182 E3.98514
G1 X111.454 Y111.391 E3.99335
G1 X111.583 Y111.692 E4.00424
G1 X111.64 Y111.902 E4.01148
G1 X111.681 Y112.238 E4.02273
G1 X111.642 Y112.686 E4.03769
G1 X111.576 Y112.916 E4.04565
G1 X111.471 Y113.161 E4.05451
G1 X111.271 Y113.473 E4.06684
G1 X111.076 Y113.686 E4.07645
G1 X110.845 Y113.871 E4.08629
G1 X110.588 Y114.016 E4.0961
G1 X110.303 Y114.123 E4.10623
G1 X110.02 Y114.181 E4.11584
G1 X109.729 Y114.191 E4.12552
G1 X109.424 Y114.16 E4.13572
G1 X109.15 Y114.085 E4.14517
G1 X108.904 Y113.978 E4.15409
G1 X108.656 Y113.825 E4.16378
G1 X108.44 Y113.637 E4.1733
G1 X108.248 Y113.415 E4.18307
G1 X108.091 Y113.16 E4.19303
G1 X107.97 Y112.861 E4.20376
G1 X107.906 Y112.595 E4.21285
G1 X107.882 Y112.285 E4.2232
G1 X107.902 Y112.021 E4.232
G1 X107.978 Y111.703 E4.24288
G1 X108.069 Y111.473 E4.2511
G1 X108.213 Y111.225 E4.26064
G1 X108.406 Y110.984 E4.27091
G1 X108.626 Y110.788 E4.28071
G1 X108.855 Y110.637 E4.28983
G1 X109.114 Y110.516 E4.29934
G1 X109.419 Y110.429 E4.30989
G1 X109.688 Y110.396 E4.31891
G1 X109.821 Y110.395 E4.32333
G1 X110.124 Y110.425 E4.33346
G1 X110.469 Y110.524 E4.34539
G1 X110.712 Y110.639 E4.35434
G1 X110.94 Y110.789 E4.36341
G1 F4500 E-0.63659
G1 F300 Z0.44
;MESH:Mount Phone Clamp Bolt v1.stl
