;FLAVOR:Marlin
;TIME:4508
;Filament used: 4.50866m
;Layer height: 0.32
;MINX:86.2
;MINY:86.273
;MINZ:0.2
;MAXX:148.8
;MAXY:148.704
;MAXZ:28.04
;Generated with Cura_SteamEngine 4.11.0
M140 S60
M105
M190 S60
M104 S205
M105
M109 S205
M82 ;absolute extrusion mode
; Ender 3 Custom Start G-code
G92 E0 ; Reset Extruder
G28 ; Home all axes
G1 Z2.0 F3000 ; Move Z Axis up little to prevent scratching of Heat Bed
G1 X0.1 Y20 Z0.3 F5000.0 ; Move to start position
G1 X0.1 Y200.0 Z0.3 F1500.0 E15 ; Draw the first line
G1 X0.4 Y200.0 Z0.3 F5000.0 ; Move to side a little
G1 X0.4 Y20 Z0.3 F1500.0 E30 ; Draw the second line
G92 E0 ; Reset Extruder
G1 Z2.0 F3000 ; Move Z Axis up little to prevent scratching of Heat Bed
G1 X5 Y20 Z0.3 F5000.0 ; Move over to prevent blob squish
G92 E0
G92 E0
G1 F12000 E-6
;LAYER_COUNT:88
;LAYER:0
M107
G0 X124.355 Y111.306 Z0.2
;TYPE:SKIRT
G1 F12000 E0
G1 F1800 X124.508 Y111.217 E0.00589
G1 X125.599 Y113.105 E0.07841
G1 X125.425 Y113.074 E0.08429
G1 X125.372 Y112.983 E0.08779
G1 X124.355 Y111.306 E0.15303
G0 F12000 X123.98 Y111.459
G1 F1800 X123.772 Y111.18 E0.1646
G1 X124.653 Y110.671 E0.19844
G1 X126.433 Y113.75 E0.31673
G1 X126.159 Y113.621 E0.3268
G1 X125.753 Y113.517 E0.34074
G1 X125.334 Y113.492 E0.3547
G1 X125.208 Y113.509 E0.35893
G1 X125.03 Y113.19 E0.37108
G1 X123.98 Y111.459 E0.43842
G0 F12000 X123.638 Y111.666
G1 F1800 X123.408 Y111.365 E0.45102
G1 X123.121 Y111.118 E0.46361
G1 X123.101 Y111.106 E0.46439
G1 X124.8 Y110.125 E0.52964
G1 X127.601 Y114.972 E0.71584
G1 X127.308 Y115.141 E0.72709
G1 X127.268 Y115.051 E0.73036
G1 X127.044 Y114.745 E0.74298
G1 X126.908 Y114.611 E0.74933
G1 X126.61 Y114.346 E0.76259
G1 X126.302 Y114.125 E0.7752
G1 X125.955 Y113.974 E0.78778
G1 X125.583 Y113.899 E0.80041
G1 X125.204 Y113.903 E0.81301
G1 X124.99 Y113.942 E0.82025
G1 X124.688 Y113.397 E0.84097
G1 X123.638 Y111.666 E0.90831
G0 F12000 X123.296 Y111.874
G1 F1800 X123.09 Y111.611 E0.91942
G1 X122.734 Y111.353 E0.93404
G1 X122.276 Y111.12 E0.95113
G1 X124.956 Y109.572 E1.05407
G1 X124.983 Y109.641 E1.05654
G1 X128.111 Y115.054 E1.26447
G1 X128.156 Y115.114 E1.26697
G1 X127.09 Y115.73 E1.30792
G1 X127.016 Y115.446 E1.31768
G1 X126.858 Y115.152 E1.32878
G1 X126.642 Y114.91 E1.33957
G1 X126.344 Y114.645 E1.35283
G1 X126.07 Y114.454 E1.36394
G1 X125.758 Y114.334 E1.37506
G1 X125.427 Y114.291 E1.38616
G1 X125.104 Y114.326 E1.39697
G1 X124.769 Y114.402 E1.40839
G1 X124.688 Y114.221 E1.41499
G1 X124.375 Y113.654 E1.43653
G1 X123.296 Y111.874 E1.50576
G0 F12000 X122.954 Y112.081
G1 F1800 X122.775 Y111.863 E1.51514
G1 X122.553 Y111.709 E1.52413
G1 X121.439 Y111.142 E1.5657
G1 X125.197 Y108.972 E1.71003
G1 X125.241 Y109.24 E1.71907
G1 X125.329 Y109.441 E1.72637
G1 X128.457 Y114.854 E1.9343
G1 X128.631 Y115.076 E1.94368
G1 X128.805 Y115.201 E1.95081
G1 X126.666 Y116.436 E2.03296
G1 X126.706 Y116.062 E2.04547
G1 X126.696 Y115.78 E2.05485
G1 X126.608 Y115.512 E2.06424
G1 X126.377 Y115.209 E2.07691
G1 X126.079 Y114.944 E2.09017
G1 X125.843 Y114.788 E2.09958
G1 X125.574 Y114.704 E2.10895
G1 X125.192 Y114.716 E2.12167
G1 X124.511 Y114.871 E2.1449
G1 X124.406 Y114.569 E2.15553
G1 X124.337 Y114.415 E2.16114
G1 X124.004 Y113.812 E2.18405
G1 X122.954 Y112.081 E2.25139
G0 F12000 X122.612 Y112.289
G1 F1800 X122.371 Y112.065 E2.26233
G1 X120.584 Y111.155 E2.32903
G1 X120.889 Y110.978 E2.34076
G1 X120.961 Y110.956 E2.34327
G1 X125.961 Y108.069 E2.5353
G1 X125.832 Y108.179 E2.54094
G1 X125.718 Y108.402 E2.54927
G1 X125.615 Y108.786 E2.56249
G1 X125.598 Y109.003 E2.56973
G1 X125.676 Y109.241 E2.57806
G1 X128.804 Y114.654 E2.78599
G1 X128.945 Y114.82 E2.79324
G1 X129.168 Y114.934 E2.80157
G1 X129.553 Y115.037 E2.81482
G1 X129.77 Y115.054 E2.82206
G1 X129.973 Y114.988 E2.82916
G1 X126.186 Y117.174 E2.9746
G1 X126.309 Y116.019 E3.01323
G1 X126.292 Y115.802 E3.02047
G1 X126.111 Y115.508 E3.03195
G1 X125.813 Y115.243 E3.04522
G1 X125.626 Y115.13 E3.05248
G1 X125.281 Y115.106 E3.06399
G1 X124.251 Y115.34 E3.09912
G1 X124.028 Y114.7 E3.12166
G1 X123.987 Y114.608 E3.12501
G1 X123.662 Y114.02 E3.14735
G1 X122.612 Y112.289 E3.21469
G0 F12000 X122.27 Y112.496
G1 F1800 X122.19 Y112.422 E3.21832
G1 X119.901 Y111.256 E3.30376
G1 X119.706 Y111.2 E3.3105
G1 X120.693 Y110.63 E3.34841
G1 X120.761 Y110.609 E3.35078
G1 X142.022 Y98.332 E4.16735
G1 X142.123 Y98.255 E4.17158
G1 X142.393 Y98.597 E4.18607
G1 X142.618 Y98.904 E4.19873
G1 X126.198 Y108.384 E4.82935
G1 X126.105 Y108.505 E4.83442
G1 X126.002 Y108.889 E4.84764
G1 X126.022 Y109.041 E4.85274
G1 X129.15 Y114.454 E5.06068
G1 X129.271 Y114.547 E5.06576
G1 X129.656 Y114.65 E5.07901
G1 X129.808 Y114.63 E5.08411
G1 X146.226 Y105.149 E5.71469
G1 X146.39 Y105.527 E5.72839
G1 X146.541 Y105.902 E5.74184
G1 X146.419 Y105.956 E5.74627
G1 X125.705 Y117.914 E6.54178
G1 X125.911 Y115.977 E6.60657
G1 X125.845 Y115.807 E6.61264
G1 X125.547 Y115.542 E6.6259
G1 X125.37 Y115.496 E6.63198
G1 X123.975 Y115.813 E6.67956
G1 X123.926 Y115.62 E6.68619
G1 X123.651 Y114.832 E6.71395
G1 X123.637 Y114.801 E6.71508
G1 X123.32 Y114.227 E6.73689
G1 X122.27 Y112.496 E6.80422
G0 F12000 X115.311 Y111.211
G1 F1800 X114.968 Y111.344 E6.81646
G1 X114.739 Y111.458 E6.82497
G1 X114.45 Y111.591 E6.83555
G1 X113.679 Y112.031 E6.86508
G1 X113.652 Y112.05 E6.86617
G1 X113.235 Y112.39 E6.88407
G1 X113.027 Y112.567 E6.89315
G1 X112.357 Y113.211 E6.92406
G1 X112.332 Y113.241 E6.92536
G1 X111.474 Y114.477 E6.9754
G1 X111.447 Y114.532 E6.97744
G1 X111.307 Y114.987 E6.99328
G1 X110.606 Y116.762 E7.05675
G1 X110.594 Y116.865 E7.0602
G1 X110.788 Y118.159 E7.10372
G1 X110.354 Y117.909 E7.12038
G1 X110.247 Y117.882 E7.12405
G1 X109.848 Y117.895 E7.13733
G1 X109.549 Y118.059 E7.14867
G1 X88.581 Y105.956 E7.95391
G1 X88.461 Y105.904 E7.95826
G1 X88.653 Y105.429 E7.9753
G1 X88.774 Y105.149 E7.98544
G1 X105.193 Y114.632 E8.61608
G1 X105.345 Y114.652 E8.62118
G1 X105.73 Y114.549 E8.63443
G1 X105.851 Y114.456 E8.63951
G1 X108.98 Y109.044 E8.84743
G1 X109 Y108.892 E8.85253
G1 X108.897 Y108.507 E8.86579
G1 X108.804 Y108.386 E8.87086
G1 X92.382 Y98.905 E9.50155
G1 X92.624 Y98.576 E9.51514
G1 X92.875 Y98.257 E9.52864
G1 X92.978 Y98.332 E9.53288
G1 X114.235 Y110.605 E10.34927
G1 X114.304 Y110.628 E10.35169
G1 X115.311 Y111.211 E10.39039
G0 F12000 X114.427 Y111.162
G1 F1800 X114.236 Y111.252 E10.39741
G1 X113.48 Y111.684 E10.42637
G1 X113.399 Y111.74 E10.42965
G1 X112.976 Y112.085 E10.4478
G1 X112.75 Y112.278 E10.45769
G1 X112.08 Y112.922 E10.48859
G1 X112.003 Y113.013 E10.49256
G1 X111.145 Y114.249 E10.5426
G1 X111.065 Y114.414 E10.5487
G1 X110.93 Y114.852 E10.56395
G1 X110.234 Y116.615 E10.62699
G1 X110.199 Y116.924 E10.63733
G1 X110.283 Y117.485 E10.6562
G1 X110.234 Y117.482 E10.65783
G1 X109.835 Y117.495 E10.67111
G1 X109.536 Y117.589 E10.68153
G1 X105.047 Y114.998 E10.85392
G1 X105.199 Y115.052 E10.85929
G1 X105.448 Y115.039 E10.86758
G1 X105.833 Y114.936 E10.88084
G1 X106.03 Y114.842 E10.8881
G1 X106.197 Y114.656 E10.89641
G1 X109.326 Y109.244 E11.10433
G1 X109.399 Y109.039 E11.11157
G1 X109.387 Y108.789 E11.1199
G1 X109.284 Y108.404 E11.13315
G1 X109.19 Y108.207 E11.14041
G1 X109.029 Y108.062 E11.14762
G1 X114.035 Y110.952 E11.33987
G1 X114.103 Y110.974 E11.34225
G1 X114.427 Y111.162 E11.35471
G0 F12000 X113.594 Y111.159
G1 F1800 X113.282 Y111.337 E11.36666
G1 X113.146 Y111.43 E11.37214
G1 X112.717 Y111.78 E11.39055
G1 X112.519 Y111.948 E11.39919
G1 X112.473 Y111.99 E11.40126
G1 X111.803 Y112.634 E11.43217
G1 X111.675 Y112.785 E11.43875
G1 X110.817 Y114.021 E11.4888
G1 X110.682 Y114.297 E11.49902
G1 X110.55 Y114.725 E11.51391
G1 X109.862 Y116.468 E11.57624
G1 X109.796 Y116.742 E11.58561
G1 X109.82 Y117.096 E11.59741
G1 X109.56 Y117.141 E11.60619
G1 X106.204 Y115.205 E11.73505
G1 X106.414 Y115.033 E11.74408
G1 X106.544 Y114.857 E11.75136
G1 X109.673 Y109.445 E11.95928
G1 X109.778 Y109.183 E11.96867
G1 X109.799 Y108.968 E11.97585
G1 X113.594 Y111.159 E12.1216
G0 F12000 X112.825 Y111.176
G1 F1800 X112.458 Y111.475 E12.13735
G1 X112.26 Y111.643 E12.14598
G1 X112.196 Y111.702 E12.14888
G1 X111.526 Y112.346 E12.17979
G1 X111.346 Y112.557 E12.18901
G1 X110.488 Y113.793 E12.23906
G1 X110.3 Y114.179 E12.25334
G1 X110.173 Y114.591 E12.26768
G1 X109.49 Y116.321 E12.32954
G1 X109.417 Y116.597 E12.33903
G1 X106.845 Y115.112 E12.43781
G1 X106.89 Y115.057 E12.44018
G1 X110.019 Y109.645 E12.6481
G1 X110.05 Y109.574 E12.65068
G1 X112.825 Y111.176 E12.75725
G0 F12000 X112.124 Y111.234
G1 F1800 X111.919 Y111.413 E12.7663
G1 X111.249 Y112.057 E12.79721
G1 X111.017 Y112.329 E12.8091
G1 X110.159 Y113.565 E12.85914
G1 X109.918 Y114.061 E12.87749
G1 X109.796 Y114.456 E12.89124
G1 X109.186 Y116.002 E12.94651
G1 X107.401 Y114.972 E13.01506
G1 X110.203 Y110.125 E13.20127
G1 X112.124 Y111.234 E13.27504
G0 F12000 X111.451 Y111.307
G1 F1800 X110.971 Y111.769 E13.2972
G1 X110.689 Y112.1 E13.31167
G1 X109.831 Y113.336 E13.36171
G1 X109.626 Y113.702 E13.37566
G1 X109.535 Y113.943 E13.38423
G1 X109.415 Y114.333 E13.3978
G1 X108.984 Y115.424 E13.43682
G1 X107.948 Y114.826 E13.4766
G1 X110.35 Y110.671 E13.63623
G1 X111.451 Y111.307 E13.67852
G0 F12000 X110.791 Y111.388
G1 F1800 X110.694 Y111.481 E13.68299
G1 X110.36 Y111.872 E13.70009
G1 X109.502 Y113.108 E13.75014
G1 X109.276 Y113.504 E13.7653
G1 X109.153 Y113.826 E13.77677
G1 X109.039 Y114.195 E13.78961
G1 X108.783 Y114.845 E13.81285
G1 X108.495 Y114.679 E13.8239
G1 X110.496 Y111.218 E13.95687
G1 X110.791 Y111.388 E13.9682
G1 F12000 E7.9682
G0 X121.914 Y123.105
G1 F12000 E13.9682
G1 F1800 X121.914 Y123.809 E13.99161
G1 X121.899 Y123.878 E13.99396
G1 X121.9 Y148.426 E14.81043
G1 X121.915 Y148.553 E14.81468
G1 X121.475 Y148.617 E14.82947
G1 X121.107 Y148.659 E14.84179
G1 X121.107 Y129.702 E15.4723
G1 X121.048 Y129.561 E15.47739
G1 X120.766 Y129.279 E15.49065
G1 X120.625 Y129.22 E15.49573
G1 X114.375 Y129.22 E15.70361
G1 X114.234 Y129.279 E15.70869
G1 X113.952 Y129.561 E15.72196
G1 X113.893 Y129.702 E15.72704
G1 X113.894 Y148.658 E16.35752
G1 X113.506 Y148.615 E16.37051
G1 X113.086 Y148.555 E16.38462
G1 X113.1 Y148.428 E16.38887
G1 X113.1 Y123.88 E17.20534
G1 X113.084 Y123.806 E17.20785
G1 X113.084 Y122.623 E17.2472
G1 X113.315 Y122.823 E17.25736
G1 X114.048 Y123.376 E17.2879
G1 X114.088 Y123.399 E17.28944
G1 X115.66 Y124.081 E17.34643
G1 X115.716 Y124.097 E17.34837
G1 X116.118 Y124.145 E17.36183
G1 X116.564 Y124.225 E17.3769
G1 X117.521 Y124.298 E17.40883
G1 X119.256 Y124.222 E17.46659
G1 X119.382 Y124.17 E17.47112
G1 X119.64 Y123.936 E17.48271
G1 X121.914 Y123.105 E17.56323
G0 F12000 X121.514 Y123.677
G1 F1800 X121.499 Y123.878 E17.56994
G1 X121.499 Y129.66 E17.76225
G1 X121.467 Y129.487 E17.7681
G1 X121.331 Y129.278 E17.77639
G1 X121.049 Y128.996 E17.78966
G1 X120.87 Y128.872 E17.7969
G1 X120.625 Y128.82 E17.80523
G1 X114.375 Y128.82 E18.0131
G1 X114.16 Y128.86 E18.02038
G1 X113.951 Y128.996 E18.02867
G1 X113.669 Y129.278 E18.04194
G1 X113.545 Y129.457 E18.04918
G1 X113.5 Y129.669 E18.05639
G1 X113.5 Y123.88 E18.24893
G1 X113.484 Y123.806 E18.25145
G1 X113.484 Y123.451 E18.26326
G1 X113.807 Y123.695 E18.27672
G1 X113.929 Y123.766 E18.28141
G1 X115.501 Y124.448 E18.33841
G1 X115.669 Y124.494 E18.3442
G1 X116.05 Y124.539 E18.35696
G1 X116.493 Y124.619 E18.37193
G1 X116.553 Y124.626 E18.37394
G1 X117.466 Y124.696 E18.4044
G1 X117.538 Y124.697 E18.40679
G1 X119.273 Y124.621 E18.46455
G1 X119.486 Y124.572 E18.47182
G1 X119.651 Y124.466 E18.47835
G1 X119.85 Y124.285 E18.48729
G1 X121.514 Y123.677 E18.54622
G0 F12000 X121.099 Y124.254
G1 F1800 X121.099 Y128.541 E18.6888
G1 X120.842 Y128.444 E18.69794
G1 X120.625 Y128.42 E18.7052
G1 X114.375 Y128.42 E18.91308
G1 X114.096 Y128.46 E18.92245
G1 X113.9 Y128.548 E18.9296
G1 X113.9 Y124.189 E19.07458
G1 X115.342 Y124.815 E19.12686
G1 X115.621 Y124.891 E19.13648
G1 X116 Y124.936 E19.14918
G1 X116.422 Y125.012 E19.16344
G1 X116.523 Y125.025 E19.16682
G1 X117.436 Y125.095 E19.19728
G1 X117.556 Y125.097 E19.20127
G1 X119.291 Y125.021 E19.25903
G1 X119.568 Y124.969 E19.26841
G1 X119.92 Y124.762 E19.28199
G1 X120.063 Y124.632 E19.28842
G1 X121.099 Y124.254 E19.3251
G0 F12000 X120.699 Y124.826
G1 F1800 X120.699 Y128.031 E19.4317
G1 X120.625 Y128.02 E19.43418
G1 X114.375 Y128.02 E19.64206
G1 X114.3 Y128.029 E19.64457
G1 X114.3 Y124.799 E19.752
G1 X115.183 Y125.182 E19.78401
G1 X115.574 Y125.288 E19.79749
G1 X115.934 Y125.331 E19.80955
G1 X116.352 Y125.406 E19.82367
G1 X116.492 Y125.424 E19.82837
G1 X117.405 Y125.494 E19.85882
G1 X117.573 Y125.497 E19.86441
G1 X119.308 Y125.421 E19.92217
G1 X119.638 Y125.366 E19.9333
G1 X119.945 Y125.235 E19.9444
G1 X120.189 Y125.058 E19.95443
G1 X120.273 Y124.981 E19.95822
G1 X120.699 Y124.826 E19.9733
G0 F12000 X120.299 Y125.463
G1 F1800 X120.299 Y127.62 E20.04504
G1 X114.7 Y127.62 E20.23126
G1 X114.7 Y125.408 E20.30483
G1 X115.024 Y125.549 E20.31659
G1 X115.527 Y125.685 E20.33392
G1 X115.865 Y125.725 E20.34524
G1 X116.281 Y125.8 E20.3593
G1 X116.461 Y125.823 E20.36533
G1 X117.374 Y125.893 E20.39579
G1 X117.591 Y125.896 E20.403
G1 X119.326 Y125.82 E20.46077
G1 X119.701 Y125.764 E20.47338
G1 X120.055 Y125.63 E20.48597
G1 X120.299 Y125.463 E20.4958
G0 F12000 X119.899 Y126.114
G1 F1800 X119.899 Y127.22 E20.53259
G1 X115.1 Y127.22 E20.6922
G1 X115.1 Y125.993 E20.73301
G1 X115.479 Y126.082 E20.74596
G1 X115.815 Y126.122 E20.75721
G1 X116.21 Y126.193 E20.77056
G1 X116.431 Y126.222 E20.77798
G1 X117.344 Y126.292 E20.80843
G1 X117.608 Y126.296 E20.81721
G1 X119.343 Y126.22 E20.87498
G1 X119.758 Y126.162 E20.88891
G1 X119.899 Y126.114 E20.89387
G0 F12000 X119.499 Y126.602
G1 F1800 X119.499 Y126.82 E20.90112
G1 X115.5 Y126.82 E21.03412
G1 X115.5 Y126.488 E21.04517
G1 X115.766 Y126.52 E21.05408
G1 X116.14 Y126.587 E21.06672
G1 X116.4 Y126.62 E21.07543
G1 X117.313 Y126.69 E21.10589
G1 X117.626 Y126.696 E21.1163
G1 X119.361 Y126.62 E21.17406
G1 X119.499 Y126.602 E21.17869
G1 F12000 E15.17869
;MESH:Housing.stl
G0 X111.5 Y147.465
;TYPE:WALL-INNER
G1 F12000 E21.17869
G1 F2100 X111.261 Y147.415 E21.18681
G1 X110.407 Y147.235 E21.21584
G1 X110.05 Y147.142 E21.22811
G1 X108.621 Y146.75 E21.2774
G1 X108.286 Y146.64 E21.28912
G1 X106.905 Y146.171 E21.33763
G1 X106.551 Y146.034 E21.35026
G1 X105.199 Y145.481 E21.39884
G1 X104.86 Y145.323 E21.41128
G1 X103.53 Y144.685 E21.46034
G1 X103.212 Y144.512 E21.47238
G1 X101.944 Y143.805 E21.52067
G1 X101.617 Y143.602 E21.53347
G1 X100.385 Y142.818 E21.58204
G1 X98.9 Y141.744 E21.643
G1 X97.477 Y140.579 E21.70416
G1 X96.122 Y139.326 E21.76555
G1 X94.851 Y138.002 E21.82659
G1 X93.672 Y136.613 E21.88719
G1 X92.57 Y135.143 E21.94829
G1 X91.553 Y133.606 E22.00959
G1 X90.635 Y132.011 E22.0708
G1 X89.815 Y130.371 E22.13178
G1 X89.1 Y128.69 E22.19254
G1 X88.479 Y126.955 E22.25383
G1 X87.968 Y125.193 E22.31485
G1 X87.643 Y123.768 E22.36347
G1 X87.563 Y123.404 E22.37586
G1 X87.323 Y121.963 E22.42445
G1 X87.268 Y121.604 E22.43653
G1 X87.114 Y120.137 E22.48559
G1 X87.081 Y119.789 E22.49722
G1 X87.015 Y118.305 E22.54662
G1 X87.003 Y117.936 E22.5589
G1 X87.025 Y116.478 E22.6074
G1 X87.035 Y116.111 E22.61961
G1 X87.144 Y114.65 E22.66834
G1 X87.177 Y114.29 E22.68036
G1 X87.375 Y112.829 E22.7294
G1 X87.434 Y112.447 E22.74226
G1 X87.715 Y111.027 E22.7904
G1 X87.796 Y110.657 E22.803
G1 X88.164 Y109.242 E22.85163
G1 X88.265 Y108.882 E22.86406
G1 X88.535 Y108.054 E22.89303
G1 X88.536 Y108.053 E22.89308
G1 X88.611 Y107.82 E22.90122
G1 X88.824 Y107.942 E22.90622
G1 X108.698 Y119.416 E23.66948
G1 X108.868 Y120.117 E23.69348
G1 X108.931 Y120.312 E23.70029
G1 X109.209 Y121.068 E23.72708
G1 X109.291 Y121.257 E23.73393
