;FLAVOR:Marlin
;TIME:2900
;Filament used: 1.78764m
;Layer height: 0.32
;MINX:89.495
;MINY:105.652
;MINZ:0.2
;MAXX:148.468
;MAXY:129.33
;MAXZ:9.78
;Generated with Cura_SteamEngine 4.11.0
M140 S60
M105
M190 S60
M104 S210
M105
M109 S210
M82 ;absolute extrusion mode
; Ender 3 Custom Start G-code
G92 E0 ; Reset Extruder
G28 ; Home all axes
G1 Z2.0 F3000 ; Move Z Axis up little to prevent scratching of Heat Bed
G1 X0.1 Y20 Z0.3 F5000.0 ; Move to start position
G1 X0.1 Y200.0 Z0.3 F1500.0 E15 ; Draw the first line
G1 X0.4 Y200.0 Z0.3 F5000.0 ; Move to side a little
G1 X0.4 Y20 Z0.3 F1500.0 E30 ; Draw the second line
G92 E0 ; Reset Extruder
G1 Z2.0 F3000 ; Move Z Axis up little to prevent scratching of Heat Bed
G1 X5 Y20 Z0.3 F5000.0 ; Move over to prevent blob squish
G92 E0
G92 E0
G1 F4500 E-5
;LAYER_COUNT:30
;LAYER:0
M107
G1 F300 Z0.5
G0 F12000 X135.385 Y108.207 Z0.5
;TYPE:SKIRT
G1 F300 Z0.2
G1 F4500 E0
G1 F1800 X135.951 Y108.207 E0.01883
G1 X135.95 Y126.698 E0.63384
G1 X135.385 Y126.698 E0.65263
G1 X135.385 Y108.207 E1.26764
G0 F12000 X134.985 Y107.807
G1 F1800 X136.351 Y107.807 E1.31308
G1 X136.35 Y127.098 E1.9547
G1 X134.985 Y127.098 E2.0001
G1 X134.985 Y107.807 E2.64172
G0 F12000 X134.585 Y107.407
G1 F1800 X136.751 Y107.407 E2.71376
G1 X136.75 Y127.498 E3.38199
G1 X134.585 Y127.498 E3.454
G1 X134.585 Y107.407 E4.12223
G0 F12000 X134.185 Y107.007
G1 F1800 X137.151 Y107.007 E4.22088
G1 X137.15 Y127.898 E4.91571
G1 X134.185 Y127.898 E5.01433
G1 X134.185 Y107.007 E5.70917
G0 F12000 X133.785 Y106.75
G1 F1800 X133.724 Y106.607 E5.71434
G1 X137.613 Y106.607 E5.84369
G1 X137.551 Y106.751 E5.8489
G1 X137.55 Y127.939 E6.55362
G1 X137.565 Y128.016 E6.55623
G1 X137.682 Y128.298 E6.56638
G1 X133.724 Y128.298 E6.69803
G1 X133.785 Y128.155 E6.7032
G1 X133.785 Y106.75 E7.41513
G1 F4500 E2.41513
G1 F300 Z0.5
G0 F12000 X122.545 Y106.654 Z0.5
G1 F300 Z0.2
G1 F4500 E7.41513
G1 F1800 X122.483 Y106.798 E7.42034
G1 X122.483 Y128.202 E8.13224
G1 X122.544 Y128.345 E8.13742
G1 X118.654 Y128.345 E8.2668
G1 X118.716 Y128.201 E8.27201
G1 X118.717 Y107.013 E8.97673
G1 X118.702 Y106.936 E8.97934
G1 X118.585 Y106.654 E8.98949
G1 X122.545 Y106.654 E9.1212
G0 F12000 X122.083 Y107.054
G1 F1800 X122.083 Y127.945 E9.81604
G1 X119.116 Y127.945 E9.91472
G1 X119.117 Y107.054 E10.60956
G1 X122.083 Y107.054 E10.70821
G0 F12000 X121.683 Y107.454
G1 F1800 X121.683 Y127.545 E11.37644
G1 X119.516 Y127.545 E11.44851
G1 X119.517 Y107.454 E12.11674
G1 X121.683 Y107.454 E12.18878
G0 F12000 X121.283 Y107.854
G1 F1800 X121.283 Y127.145 E12.8304
G1 X119.916 Y127.145 E12.87587
G1 X119.917 Y107.854 E13.51749
G1 X121.283 Y107.854 E13.56293
G0 F12000 X120.883 Y108.254
G1 F1800 X120.883 Y126.745 E14.17794
G1 X120.316 Y126.745 E14.1968
G1 X120.317 Y108.254 E14.81181
G1 X120.883 Y108.254 E14.83064
G1 F4500 E9.83064
G1 F300 Z0.5
G0 F12000 X98.041 Y106.685 Z0.5
G1 F300 Z0.2
G1 F4500 E14.83064
G1 F1800 X97.978 Y106.83 E14.83589
G1 X97.977 Y128.018 E15.54061
G1 X97.992 Y128.094 E15.54319
G1 X98.108 Y128.376 E15.55333
G1 X94.151 Y128.376 E15.68494
G1 X94.212 Y128.233 E15.69011
G1 X94.212 Y106.828 E16.40204
G1 X94.15 Y106.684 E16.40726
G1 X98.041 Y106.685 E16.53667
G0 F12000 X97.578 Y107.085
G1 F1800 X97.577 Y127.976 E17.23151
G1 X94.612 Y127.976 E17.33013
G1 X94.612 Y107.084 E18.025
G1 X97.578 Y107.085 E18.12365
G0 F12000 X97.178 Y107.485
G1 F1800 X97.177 Y127.576 E18.79188
G1 X95.012 Y127.576 E18.86388
G1 X95.012 Y107.484 E19.53215
G1 X97.178 Y107.485 E19.60419
G0 F12000 X96.778 Y107.885
G1 F1800 X96.777 Y127.176 E20.24581
G1 X95.412 Y127.176 E20.29121
G1 X95.412 Y107.884 E20.93286
G1 X96.778 Y107.885 E20.9783
G0 F12000 X96.378 Y108.285
G1 F1800 X96.377 Y126.776 E21.59331
G1 X95.812 Y126.776 E21.6121
G1 X95.812 Y108.284 E22.22715
G1 X96.378 Y108.285 E22.24597
G1 F4500 E17.24597
G1 F300 Z0.5
;MESH:Jaw_C.stl
G0 F12000 X108.495 Y126.716 Z0.5
;TYPE:WALL-INNER
G1 F300 Z0.2
G1 F4500 E22.24597
G1 F1500 X99.951 Y126.717 E22.53015
G1 X99.752 Y126.717 E22.53677
G1 X99.752 Y126.518 E22.54105
G1 X99.752 Y108.344 E23.14552
G1 X102.495 Y108.344 E23.23675
G1 X102.495 Y113.794 E23.41802
G1 X103.704 Y115.021 E23.47531
G1 X103.845 Y115.164 E23.48199
G1 X103.986 Y115.021 E23.48628
G1 X104.846 Y114.148 E23.52704
G1 X105.296 Y114.147 E23.54201
G1 X105.495 Y114.147 E23.54863
G1 X105.495 Y114.346 E23.55291
G1 X105.495 Y121.793 E23.8006
G1 X106.704 Y123.021 E23.85791
G1 X106.845 Y123.164 E23.86459
G1 X106.986 Y123.021 E23.86889
G1 X107.846 Y122.148 E23.90964
G1 X108.296 Y122.147 E23.92461
G1 X108.495 Y122.147 E23.93123
G1 X108.495 Y122.346 E23.93551
G1 X108.495 Y126.716 E24.08086
G0 F12000 X108.895 Y127.116
;TYPE:WALL-OUTER
G1 F1500 X99.352 Y127.117 E24.39826
G1 X99.352 Y107.944 E25.03596
G1 X102.895 Y107.944 E25.1538
G1 X102.895 Y113.63 E25.34292
G1 X103.845 Y114.594 E25.38793
G1 X104.678 Y113.748 E25.42742
G1 X105.895 Y113.747 E25.4679
G1 X105.895 Y121.629 E25.73005
G1 X106.845 Y122.594 E25.77509
G1 X107.678 Y121.748 E25.81458
G1 X108.895 Y121.747 E25.85506
G1 X108.895 Y127.116 E26.03363
G1 F4500 E21.03363
G1 F300 Z0.5
G0 F12000 X102.695 Y117.987 Z0.5
;TYPE:SKIN
G1 F300 Z0.2
G1 F4500 E26.03363
G1 F1500 X102.695 Y122.941 E26.1984
G1 X103.656 Y123.916 E26.24394
G1 X102.552 Y123.917 E26.28066
G1 X102.552 Y117.842 E26.48271
G1 X102.695 Y117.987 E26.48948
G0 F12000 X103.095 Y117.823
G1 F1500 X103.095 Y122.777 E26.65426
G1 X104.611 Y124.316 E26.72611
G1 X102.152 Y124.317 E26.80789
G1 X102.152 Y116.866 E27.05571
G1 X103.095 Y117.823 E27.1004
G0 F12000 X103.495 Y117.659
G1 F1500 X103.495 Y122.613 E27.26517
G1 X105.566 Y124.716 E27.36334
G1 X101.752 Y124.717 E27.49019
G1 X101.752 Y115.89 E27.78378
G1 X103.495 Y117.659 E27.86638
G0 F12000 X103.845 Y117.444
G1 F1500 X103.895 Y117.393 E27.86876
G1 X103.895 Y122.449 E28.03692
G1 X106.522 Y125.116 E28.16143
G1 X101.352 Y125.117 E28.33338
G1 X101.352 Y114.914 E28.67274
G1 X103.845 Y117.444 E28.79087
G0 F12000 X103.845 Y116.874
G1 F1500 X104.295 Y116.417 E28.81221
G1 X104.295 Y122.285 E29.00738
G1 X106.845 Y124.874 E29.12824
G1 X107.295 Y124.417 E29.14957
G1 X107.295 Y125.516 E29.18613
G1 X100.952 Y125.517 E29.3971
G1 X100.952 Y109.544 E29.92836
G1 X101.295 Y109.544 E29.93977
G1 X101.295 Y114.286 E30.09749
G1 X103.845 Y116.874 E30.21833
G0 F12000 X103.845 Y116.304
G1 F1500 X104.695 Y115.441 E30.25862
G1 X104.695 Y122.121 E30.48079
G1 X106.845 Y124.304 E30.5827
G1 X107.695 Y123.441 E30.62299
G1 X107.695 Y125.916 E30.70531
G1 X100.552 Y125.917 E30.94289
G1 X100.552 Y109.144 E31.50076
G1 X101.695 Y109.144 E31.53878
G1 X101.695 Y114.122 E31.70434
G1 X103.845 Y116.304 E31.80623
G0 F12000 X103.845 Y115.734
G1 F1500 X105.013 Y114.548 E31.86159
G1 X105.095 Y114.548 E31.86432
G1 X105.095 Y121.957 E32.11075
G1 X106.845 Y123.734 E32.1937
G1 X108.013 Y122.548 E32.24906
G1 X108.095 Y122.548 E32.25179
G1 X108.095 Y126.316 E32.37711
G1 X100.152 Y126.317 E32.6413
G1 X100.152 Y108.744 E33.22578
G1 X102.095 Y108.744 E33.2904
G1 X102.095 Y113.958 E33.46382
G1 X103.845 Y115.734 E33.54675
G1 F4500 E28.54675
G1 F300 Z0.5
G0 F12000 X91.695 Y126.716 Z0.5
;TYPE:WALL-INNER
G1 F300 Z0.2
G1 F4500 E33.54675
G1 F1500 X91.695 Y108.344 E34.1578
G1 X92.437 Y108.344 E34.18248
G1 X92.437 Y126.518 E34.78695
G1 X92.437 Y126.717 E34.79357
G1 X92.238 Y126.717 E34.79785
G1 X91.695 Y126.716 E34.81591
G0 F12000 X91.295 Y124.553
;TYPE:WALL-OUTER
G1 F1500 X89.495 Y124.553 E34.87578
G1 X89.495 Y124.389 E34.88124
G1 X91.295 Y124.389 E34.94111
G1 X91.295 Y120.411 E35.07341
G1 X89.495 Y120.412 E35.13328
G1 X89.495 Y120.389 E35.13405
G1 X91.295 Y120.389 E35.19392
G1 X91.295 Y112.225 E35.46545
G1 X89.495 Y112.225 E35.52532
G1 X89.495 Y112.108 E35.52921
G1 X91.295 Y112.108 E35.58908
G1 X91.295 Y108.225 E35.71823
G1 X89.495 Y108.225 E35.7781
G1 X89.495 Y107.998 E35.78565
G1 X90.906 Y107.984 E35.83258
G1 X91.295 Y107.986 E35.84552
G1 X91.295 Y107.944 E35.84691
G1 X92.837 Y107.944 E35.8982
G1 X92.837 Y127.117 E36.5359
G1 X91.295 Y127.116 E36.58719
G1 X91.295 Y124.553 E36.67243
G0 F12000 X91.735 Y124.242
G1 F4500 E31.67243
G1 F300 Z0.5
;MESH:Jaw_A.stl
G0 F12000 X116.942 Y126.686 Z0.5
;TYPE:WALL-INNER
G1 F300 Z0.2
G1 F4500 E36.67243
G1 F1500 X114.2 Y126.686 E36.76363
G1 X114.2 Y121.236 E36.9449
G1 X112.991 Y120.009 E37.00219
G1 X112.85 Y119.866 E37.00887
G1 X112.709 Y120.009 E37.01316
G1 X111.849 Y120.882 E37.05392
G1 X111.399 Y120.883 E37.06889
G1 X111.2 Y120.883 E37.07551
G1 X111.2 Y120.684 E37.07979
G1 X111.2 Y113.237 E37.32748
G1 X109.991 Y112.009 E37.38479
G1 X109.85 Y111.866 E37.39147
G1 X109.709 Y112.009 E37.39576
G1 X108.849 Y112.882 E37.43652
G1 X108.399 Y112.883 E37.45149
G1 X108.2 Y112.883 E37.45811
G1 X108.2 Y112.684 E37.46239
G1 X108.2 Y108.314 E37.60774
G1 X116.744 Y108.313 E37.89191
G1 X116.943 Y108.313 E37.89853
G1 X116.943 Y108.512 E37.90281
G1 X116.942 Y126.686 E38.50728
G0 F12000 X117.342 Y127.086
;TYPE:WALL-OUTER
G1 F1500 X113.8 Y127.086 E38.62509
G1 X113.8 Y121.4 E38.81421
G1 X112.85 Y120.436 E38.85922
G1 X112.017 Y121.282 E38.89871
G1 X110.8 Y121.283 E38.93919
G1 X110.8 Y113.401 E39.20135
G1 X109.85 Y112.436 E39.24639
G1 X109.017 Y113.282 E39.28587
G1 X107.8 Y113.283 E39.32635
G1 X107.8 Y107.914 E39.50493
G1 X117.343 Y107.913 E39.82233
G1 X117.342 Y127.086 E40.46002
G1 F4500 E35.46002
G1 F300 Z0.5
G0 F12000 X114.142 Y117.187 Z0.5
;TYPE:SKIN
G1 F300 Z0.2
G1 F4500 E40.46002
G1 F1500 X114 Y117.043 E40.46675
G1 X114 Y112.089 E40.63152
G1 X113.039 Y111.114 E40.67705
G1 X114.143 Y111.113 E40.71377
G1 X114.142 Y117.187 E40.91579
G0 F12000 X113.6 Y117.207
G1 F1500 X113.6 Y112.253 E41.08057
G1 X112.084 Y110.714 E41.15242
G1 X114.543 Y110.713 E41.2342
G1 X114.542 Y118.163 E41.48199
G1 X113.6 Y117.207 E41.52663
G0 F12000 X113.2 Y117.371
G1 F1500 X113.2 Y112.417 E41.6914
G1 X111.129 Y110.314 E41.78957
G1 X114.943 Y110.313 E41.91642
G1 X114.942 Y119.14 E42.21001
G1 X113.2 Y117.371 E42.29259
G0 F12000 X112.85 Y117.586
G1 F1500 X112.8 Y117.637 E42.29496
G1 X112.8 Y112.581 E42.46313
G1 X110.173 Y109.914 E42.58764
G1 X115.343 Y109.913 E42.75959
G1 X115.342 Y120.116 E43.09894
G1 X112.85 Y117.586 E43.21706
G0 F12000 X112.85 Y118.156
G1 F1500 X112.4 Y118.613 E43.23839
G1 X112.4 Y112.745 E43.43356
G1 X109.85 Y110.156 E43.55442
G1 X109.4 Y110.613 E43.57576
G1 X109.4 Y109.514 E43.61231
G1 X115.743 Y109.513 E43.82328
G1 X115.742 Y125.486 E44.35454
G1 X115.4 Y125.486 E44.36592
G1 X115.4 Y120.744 E44.52364
G1 X112.85 Y118.156 E44.64448
G0 F12000 X112.85 Y118.726
G1 F1500 X112 Y119.589 E44.68477
G1 X112 Y112.909 E44.90694
G1 X109.85 Y110.726 E45.00885
G1 X109 Y111.589 E45.04914
G1 X109 Y109.114 E45.13146
G1 X116.143 Y109.113 E45.36904
G1 X116.142 Y125.886 E45.92691
G1 X115 Y125.886 E45.96489
G1 X115 Y120.908 E46.13046
G1 X112.85 Y118.726 E46.23235
G0 F12000 X112.85 Y119.296
G1 F1500 X111.682 Y120.482 E46.28771
G1 X111.6 Y120.482 E46.29044
G1 X111.6 Y113.073 E46.53686
G1 X109.85 Y111.296 E46.61981
G1 X108.682 Y112.482 E46.67518
G1 X108.6 Y112.482 E46.67791
G1 X108.6 Y108.714 E46.80323
G1 X116.543 Y108.713 E47.06741
G1 X116.542 Y126.286 E47.65189
G1 X114.6 Y126.286 E47.71649
G1 X114.6 Y121.072 E47.8899
G1 X112.85 Y119.296 E47.97283
G1 F4500 E42.97283
G1 F300 Z0.5
G0 F12000 X125 Y126.686 Z0.5
;TYPE:WALL-INNER
G1 F300 Z0.2
G1 F4500 E47.97283
G1 F1500 X124.456 Y126.687 E47.99093
G1 X124.257 Y126.687 E47.99755
G1 X124.257 Y126.488 E48.00183
G1 X124.257 Y108.313 E48.60633
G1 X125 Y108.313 E48.63104
G1 X125 Y126.686 E49.24213
G0 F12000 X125.4 Y124.403
;TYPE:WALL-OUTER
G1 F1500 X125.4 Y127.086 E49.33137
G1 X123.857 Y127.087 E49.38269
G1 X123.857 Y107.913 E50.02042
G1 X127.2 Y107.914 E50.13161
G1 X127.2 Y108.077 E50.13703
G1 X125.4 Y108.077 E50.1969
G1 X125.4 Y111.958 E50.32598
G1 X127.2 Y111.957 E50.38585
G1 X127.2 Y112.077 E50.38984
G1 X125.4 Y112.077 E50.44971
G1 X125.4 Y120.243 E50.72131
G1 X127.2 Y120.242 E50.78118
G1 X127.2 Y120.26 E50.78178
G1 X125.4 Y120.26 E50.84164
G1 X125.4 Y124.242 E50.97409
G1 X127.2 Y124.242 E51.03395
G1 X127.2 Y124.403 E51.03931
G1 X125.4 Y124.403 E51.09918
G0 F12000 X124.96 Y124.092
;MESH:Jaw_B.stl
G0 X131.268 Y126.638
;TYPE:WALL-INNER
G1 F1500 X131.267 Y108.266 E51.71023
G1 X131.811 Y108.265 E51.72833
G1 X132.01 Y108.265 E51.73495
G1 X132.01 Y108.464 E51.73923
G1 X132.01 Y126.44 E52.33711
G1 X132.01 Y126.639 E52.34373
G1 X131.811 Y126.639 E52.34801
G1 X131.268 Y126.638 E52.36607
G0 F12000 X130.868 Y125.774
;TYPE:WALL-OUTER
G1 F1500 X129.068 Y125.774 E52.42594
G1 X129.068 Y125.576 E52.43253
G1 X130.868 Y125.576 E52.49239
G1 X130.868 Y121.65 E52.62297
G1 X129.068 Y121.651 E52.68284
G1 X129.068 Y121.576 E52.68534
G1 X130.868 Y121.576 E52.74521
G1 X130.867 Y113.412 E53.01674
G1 X129.067 Y113.412 E53.07661
G1 X129.067 Y113.339 E53.07904
G1 X130.867 Y113.34 E53.13891
G1 X130.867 Y109.412 E53.26955
G1 X129.067 Y109.412 E53.32942
G1 X129.067 Y109.215 E53.33597
G1 X130.867 Y109.216 E53.39584
G1 X130.867 Y107.866 E53.44074
G1 X132.41 Y107.865 E53.49206
G1 X132.41 Y127.039 E54.12979
G1 X130.868 Y127.038 E54.18108
G1 X130.868 Y125.774 E54.22312
G0 F12000 X131.308 Y125.463
G0 X139.325 Y126.639
;TYPE:WALL-INNER
G1 F1500 X139.325 Y126.44 E54.22974
G1 X139.325 Y108.266 E54.83421
G1 X142.067 Y108.266 E54.92541
G1 X142.068 Y113.716 E55.10667
G1 X143.277 Y114.943 E55.16397
G1 X143.418 Y115.086 E55.17065
G1 X143.559 Y114.943 E55.17494
G1 X144.419 Y114.07 E55.2157
G1 X144.869 Y114.069 E55.23066
G1 X145.068 Y114.069 E55.23728
G1 X145.068 Y114.268 E55.24157
G1 X145.068 Y121.715 E55.48925
G1 X146.277 Y122.943 E55.54657
G1 X146.418 Y123.086 E55.55325
G1 X146.559 Y122.943 E55.55754
G1 X147.419 Y122.07 E55.5983
G1 X147.869 Y122.069 E55.61327
G1 X148.068 Y122.069 E55.61989
G1 X148.068 Y122.268 E55.62417
G1 X148.068 Y126.638 E55.76951
G1 X139.524 Y126.639 E56.05369
G1 X139.325 Y126.639 E56.05797
G0 F12000 X138.925 Y127.039
;TYPE:WALL-OUTER
G1 F1500 X138.925 Y107.866 E56.69567
G1 X142.467 Y107.866 E56.81348
G1 X142.468 Y113.552 E57.00259
G1 X143.418 Y114.516 E57.04761
G1 X144.251 Y113.67 E57.0871
G1 X145.468 Y113.669 E57.12757
G1 X145.468 Y121.551 E57.38973
G1 X146.418 Y122.516 E57.43477
G1 X147.251 Y121.67 E57.47426
G1 X148.468 Y121.669 E57.51474
G1 X148.468 Y127.038 E57.69331
G1 X138.925 Y127.039 E58.01071
G0 F12000 X142.268 Y117.909
;TYPE:SKIN
G1 F1500 X142.268 Y122.863 E58.17548
G1 X143.229 Y123.838 E58.22101
G1 X142.125 Y123.839 E58.25773
G1 X142.125 Y117.764 E58.45979
G1 X142.268 Y117.909 E58.46656
G0 F12000 X142.668 Y117.745
G1 F1500 X142.668 Y122.699 E58.63133
G1 X144.184 Y124.238 E58.70318
G1 X141.725 Y124.239 E58.78497
G1 X141.725 Y116.788 E59.03279
G1 X142.668 Y117.745 E59.07748
G0 F12000 X143.068 Y117.581
G1 F1500 X143.068 Y122.535 E59.24225
G1 X145.139 Y124.638 E59.34042
G1 X141.325 Y124.639 E59.46727
G1 X141.325 Y115.812 E59.76086
G1 X143.068 Y117.581 E59.84346
G0 F12000 X143.418 Y117.366
G1 F1500 X143.468 Y117.315 E59.84583
G1 X143.468 Y122.371 E60.014
G1 X146.095 Y125.038 E60.13851
G1 X140.925 Y125.039 E60.31046
G1 X140.925 Y114.836 E60.64982
G1 X143.418 Y117.366 E60.76795
G0 F12000 X143.418 Y116.796
G1 F1500 X143.868 Y116.339 E60.78928
G1 X143.868 Y122.207 E60.98445
G1 X146.418 Y124.796 E61.10532
G1 X146.868 Y124.339 E61.12665
G1 X146.868 Y125.438 E61.1632
G1 X140.525 Y125.439 E61.37417
G1 X140.525 Y109.466 E61.90544
G1 X140.867 Y109.466 E61.91681
G1 X140.868 Y114.208 E62.07453
G1 X143.418 Y116.796 E62.19537
G0 F12000 X143.418 Y116.226
G1 F1500 X144.268 Y115.363 E62.23566
G1 X144.268 Y122.043 E62.45784
G1 X146.418 Y124.226 E62.55975
G1 X147.268 Y123.363 E62.60004
G1 X147.268 Y125.838 E62.68235
G1 X140.125 Y125.839 E62.91993
G1 X140.125 Y109.066 E63.4778
