;FLAVOR:Marlin
;TIME:1051
;Filament used: 0.579597m
;Layer height: 0.28
;MINX:109.381
;MINY:109.381
;MINZ:0.2
;MAXX:125.619
;MAXY:125.619
;MAXZ:20.92
;Generated with Cura_SteamEngine 4.11.0
M140 S60
M105
M190 S60
M104 S210
M105
M109 S210
M82 ;absolute extrusion mode
; Ender 3 Custom Start G-code
G92 E0 ; Reset Extruder
G28 ; Home all axes
G1 Z2.0 F3000 ; Move Z Axis up little to prevent scratching of Heat Bed
G1 X0.1 Y20 Z0.3 F5000.0 ; Move to start position
G1 X0.1 Y200.0 Z0.3 F1500.0 E15 ; Draw the first line
G1 X0.4 Y200.0 Z0.3 F5000.0 ; Move to side a little
G1 X0.4 Y20 Z0.3 F1500.0 E30 ; Draw the second line
G92 E0 ; Reset Extruder
G1 Z2.0 F3000 ; Move Z Axis up little to prevent scratching of Heat Bed
G1 X5 Y20 Z0.3 F5000.0 ; Move over to prevent blob squish
G92 E0
G92 E0
G1 F4500 E-5
;LAYER_COUNT:75
;LAYER:0
M107
G1 F300 Z0.5
;MESH:pinion_herringbone_small.stl
G0 F12000 X117.5 Y120.903 Z0.5
;TYPE:WALL-INNER
G1 F300 Z0.2
G1 F4500 E0
G1 F1500 X118.163 Y120.837 E0.02216
G1 X118.803 Y120.644 E0.04439
G1 X119.392 Y120.329 E0.06661
G1 X119.906 Y119.906 E0.08875
G1 X120.329 Y119.392 E0.11089
G1 X120.644 Y118.803 E0.13311
G1 X120.837 Y118.163 E0.15534
G1 X120.903 Y117.498 E0.17757
G1 X120.836 Y116.834 E0.19976
G1 X120.643 Y116.195 E0.22196
G1 X120.328 Y115.606 E0.24418
G1 X119.904 Y115.092 E0.26634
G1 X119.39 Y114.67 E0.28846
G1 X118.8 Y114.354 E0.31072
G1 X118.161 Y114.163 E0.3329
G1 X117.498 Y114.097 E0.35507
G1 X116.834 Y114.164 E0.37726
G1 X116.195 Y114.357 E0.39946
G1 X115.606 Y114.672 E0.42168
G1 X115.092 Y115.096 E0.44384
G1 X114.67 Y115.61 E0.46596
G1 X114.354 Y116.199 E0.48819
G1 X114.163 Y116.837 E0.51034
G1 X114.097 Y117.5 E0.5325
G1 X114.163 Y118.163 E0.55466
G1 X114.356 Y118.803 E0.5769
G1 X114.671 Y119.392 E0.59911
G1 X115.094 Y119.906 E0.62125
G1 X115.608 Y120.329 E0.64339
G1 X116.197 Y120.644 E0.66561
G1 X116.837 Y120.837 E0.68784
G1 X117.5 Y120.903 E0.71
G0 F12000 X117.5 Y120.501
;TYPE:WALL-OUTER
G1 F1500 X118.085 Y120.443 E0.72956
G1 X118.649 Y120.273 E0.74915
G1 X119.168 Y119.995 E0.76873
G1 X119.622 Y119.622 E0.78827
G1 X119.995 Y119.168 E0.80782
G1 X120.273 Y118.649 E0.8274
G1 X120.443 Y118.085 E0.84699
G1 X120.501 Y117.498 E0.86661
G1 X120.442 Y116.913 E0.88617
G1 X120.272 Y116.349 E0.90576
G1 X119.994 Y115.83 E0.92534
G1 X119.62 Y115.377 E0.94488
G1 X119.166 Y115.004 E0.96442
G1 X118.647 Y114.726 E0.984
G1 X118.083 Y114.557 E1.00359
G1 X117.498 Y114.499 E1.02314
G1 X116.913 Y114.558 E1.0427
G1 X116.349 Y114.728 E1.06229
G1 X115.83 Y115.006 E1.08187
G1 X115.377 Y115.38 E1.10141
G1 X115.004 Y115.834 E1.12095
G1 X114.726 Y116.353 E1.14053
G1 X114.557 Y116.915 E1.16005
G1 X114.499 Y117.5 E1.17961
G1 X114.557 Y118.085 E1.19916
G1 X114.727 Y118.649 E1.21875
G1 X115.005 Y119.168 E1.23833
G1 X115.378 Y119.622 E1.25788
G1 X115.832 Y119.995 E1.27742
G1 X116.351 Y120.273 E1.297
G1 X116.915 Y120.443 E1.31659
G1 X117.5 Y120.501 E1.33615
G0 F12000 X117.5 Y120.941
G0 X119.142 Y122.158
;TYPE:WALL-INNER
G1 F1500 X119.151 Y121.755 E1.34955
G1 X119.152 Y121.754 E1.3496
G1 X119.155 Y121.543 E1.35662
G1 X118.944 Y121.552 E1.3611
G1 X116.896 Y121.64 E1.42928
G1 X116.496 Y121.569 E1.44279
G1 X116.294 Y121.534 E1.44961
G1 X116.266 Y121.738 E1.45399
G1 X116.012 Y123.54 E1.51452
G1 X115.95 Y123.71 E1.52054
G1 X115.796 Y123.974 E1.5307
G1 X115.602 Y124.22 E1.54112
G1 X115.317 Y124.505 E1.55453
G1 X115.011 Y124.748 E1.56752
G1 X114.962 Y124.787 E1.56961
G1 X114.66 Y124.677 E1.5803
G1 X114.648 Y124.616 E1.58236
G1 X114.577 Y124.266 E1.59424
G1 X114.55 Y124.013 E1.60271
G1 X114.543 Y123.699 E1.61315
G1 X114.569 Y123.408 E1.62287
G1 X114.667 Y123.073 E1.63448
G1 X115.37 Y121.953 E1.67846
G1 X115.656 Y121.668 E1.69189
G1 X115.803 Y121.521 E1.6988
G1 X115.65 Y121.381 E1.7032
G1 X114.148 Y120.006 E1.77093
G1 X113.91 Y119.668 E1.78468
G1 X113.792 Y119.501 E1.79148
G1 X113.629 Y119.624 E1.79583
G1 X112.186 Y120.712 E1.85594
G1 X112.01 Y120.796 E1.86243
G1 X111.713 Y120.873 E1.87263
G1 X111.412 Y120.91 E1.88272
G1 X111.006 Y120.909 E1.89622
G1 X110.614 Y120.865 E1.90934
G1 X110.555 Y120.859 E1.91132
G1 X110.416 Y120.565 E1.92213
G1 X110.449 Y120.516 E1.9241
G1 X110.65 Y120.216 E1.93611
G1 X110.922 Y119.895 E1.9501
G1 X111.136 Y119.695 E1.95984
G1 X111.347 Y119.54 E1.96855
G1 X111.541 Y119.442 E1.97578
G1 X112.842 Y119.142 E2.02019
G1 X113.245 Y119.151 E2.03359
G1 X113.246 Y119.152 E2.03364
G1 X113.457 Y119.155 E2.04066
G1 X113.448 Y118.944 E2.04514
G1 X113.36 Y116.896 E2.11332
G1 X113.431 Y116.496 E2.12683
G1 X113.466 Y116.294 E2.13365
G1 X113.262 Y116.266 E2.13803
G1 X111.46 Y116.012 E2.19856
G1 X111.291 Y115.951 E2.20454
G1 X111.023 Y115.794 E2.21487
G1 X110.78 Y115.602 E2.22517
G1 X110.495 Y115.317 E2.23857
G1 X110.252 Y115.011 E2.25157
G1 X110.213 Y114.961 E2.25368
G1 X110.323 Y114.66 E2.26434
G1 X110.385 Y114.648 E2.26644
G1 X110.733 Y114.577 E2.27825
G1 X110.979 Y114.551 E2.28648
G1 X111.297 Y114.544 E2.29706
G1 X111.581 Y114.568 E2.30654
G1 X111.922 Y114.665 E2.31833
G1 X113.049 Y115.371 E2.36256
G1 X113.333 Y115.656 E2.37594
G1 X113.479 Y115.803 E2.38283
G1 X113.619 Y115.65 E2.38723
G1 X114.994 Y114.148 E2.45496
G1 X115.332 Y113.91 E2.46871
G1 X115.499 Y113.792 E2.47551
G1 X115.376 Y113.629 E2.47986
G1 X114.288 Y112.186 E2.53997
G1 X114.204 Y112.009 E2.54649
G1 X114.125 Y111.705 E2.55694
G1 X114.09 Y111.414 E2.56668
G1 X114.091 Y111 E2.58045
G1 X114.135 Y110.613 E2.59341
G1 X114.141 Y110.553 E2.59541
G1 X114.435 Y110.416 E2.6062
G1 X114.485 Y110.449 E2.60819
G1 X114.784 Y110.65 E2.62018
G1 X115.103 Y110.921 E2.6341
G1 X115.305 Y111.136 E2.64391
G1 X115.46 Y111.347 E2.65262
G1 X115.558 Y111.541 E2.65985
G1 X115.858 Y112.842 E2.70425
G1 X115.849 Y113.245 E2.71766
G1 X115.848 Y113.246 E2.71771
G1 X115.845 Y113.457 E2.72473
G1 X116.056 Y113.448 E2.72921
G1 X118.104 Y113.36 E2.79738
G1 X118.504 Y113.431 E2.8109
G1 X118.706 Y113.466 E2.81772
G1 X118.734 Y113.262 E2.8221
G1 X118.986 Y111.475 E2.88212
G1 X119.052 Y111.285 E2.88881
G1 X119.204 Y111.026 E2.8988
G1 X119.398 Y110.78 E2.90922
G1 X119.683 Y110.495 E2.92263
G1 X119.989 Y110.252 E2.93562
G1 X120.038 Y110.213 E2.93771
G1 X120.34 Y110.323 E2.9484
G1 X120.352 Y110.384 E2.95047
G1 X120.423 Y110.733 E2.96231
G1 X120.449 Y110.976 E2.97044
G1 X120.456 Y111.297 E2.98112
G1 X120.432 Y111.581 E2.9906
G1 X120.335 Y111.923 E3.00242
G1 X119.629 Y113.049 E3.04662
G1 X119.344 Y113.333 E3.06001
G1 X119.197 Y113.479 E3.0669
G1 X119.35 Y113.619 E3.0713
G1 X120.852 Y114.994 E3.13902
G1 X121.09 Y115.332 E3.15277
G1 X121.208 Y115.499 E3.15958
G1 X121.371 Y115.376 E3.16393
G1 X122.814 Y114.288 E3.22404
G1 X122.99 Y114.204 E3.23052
G1 X123.287 Y114.127 E3.24073
G1 X123.588 Y114.09 E3.25081
G1 X123.994 Y114.091 E3.26432
G1 X124.386 Y114.135 E3.27744
G1 X124.445 Y114.141 E3.27941
G1 X124.584 Y114.435 E3.29023
G1 X124.551 Y114.484 E3.29219
G1 X124.35 Y114.784 E3.3042
G1 X124.079 Y115.103 E3.31812
G1 X123.864 Y115.305 E3.32794
G1 X123.653 Y115.46 E3.33664
G1 X123.459 Y115.558 E3.34387
G1 X122.158 Y115.858 E3.38828
G1 X121.755 Y115.849 E3.40169
G1 X121.754 Y115.848 E3.40173
G1 X121.543 Y115.845 E3.40875
G1 X121.552 Y116.056 E3.41323
G1 X121.64 Y118.104 E3.48141
G1 X121.569 Y118.504 E3.49492
G1 X121.534 Y118.706 E3.50174
G1 X121.738 Y118.734 E3.50613
G1 X123.525 Y118.986 E3.56615
G1 X123.715 Y119.052 E3.57284
G1 X123.974 Y119.204 E3.58283
G1 X124.22 Y119.398 E3.59325
G1 X124.505 Y119.683 E3.60665
G1 X124.748 Y119.989 E3.61965
G1 X124.787 Y120.039 E3.62176
G1 X124.677 Y120.34 E3.63242
G1 X124.615 Y120.352 E3.63452
G1 X124.267 Y120.423 E3.64633
G1 X124.021 Y120.449 E3.65456
G1 X123.703 Y120.456 E3.66514
G1 X123.419 Y120.432 E3.67462
G1 X123.078 Y120.335 E3.68641
G1 X121.951 Y119.629 E3.73064
G1 X121.667 Y119.344 E3.74402
G1 X121.521 Y119.197 E3.75091
G1 X121.381 Y119.35 E3.75531
G1 X120.006 Y120.852 E3.82304
G1 X119.668 Y121.09 E3.83679
G1 X119.501 Y121.208 E3.84359
G1 X119.624 Y121.371 E3.84794
G1 X120.712 Y122.814 E3.90805
G1 X120.796 Y122.99 E3.91454
G1 X120.873 Y123.286 E3.92471
G1 X120.91 Y123.586 E3.93476
G1 X120.909 Y123.994 E3.94833
G1 X120.865 Y124.387 E3.96149
G1 X120.859 Y124.447 E3.96349
G1 X120.565 Y124.584 E3.97428
G1 X120.515 Y124.551 E3.97627
G1 X120.216 Y124.35 E3.98826
G1 X119.895 Y124.078 E4.00225
G1 X119.695 Y123.864 E4.01199
G1 X119.54 Y123.653 E4.0207
G1 X119.442 Y123.459 E4.02793
G1 X119.142 Y122.158 E4.07234
G0 F12000 X118.746 Y121.961
;TYPE:WALL-OUTER
G1 F1500 X116.871 Y122.042 E4.13476
G1 X116.632 Y122 E4.14283
G1 X116.402 Y123.636 E4.19778
G1 X116.314 Y123.88 E4.2064
G1 X116.126 Y124.202 E4.21881
G1 X115.901 Y124.487 E4.23088
G1 X115.586 Y124.802 E4.2457
G1 X115.402 Y124.956 E4.25368
G1 X115.179 Y125.124 E4.26297
G1 X115.013 Y125.232 E4.26955
G1 X114.329 Y124.982 E4.29378
G1 X114.283 Y124.822 E4.29931
G1 X114.22 Y124.552 E4.30853
G1 X114.179 Y124.31 E4.3167
G1 X114.15 Y124.041 E4.3257
G1 X114.143 Y123.681 E4.33767
G1 X114.171 Y123.358 E4.34846
G1 X114.224 Y123.106 E4.35702
G1 X114.308 Y122.893 E4.36464
G1 X115.056 Y121.7 E4.41147
G1 X115.224 Y121.533 E4.41935
G1 X113.845 Y120.27 E4.48154
G1 X113.703 Y120.069 E4.48973
G1 X112.396 Y121.055 E4.54418
G1 X112.145 Y121.174 E4.55342
G1 X111.789 Y121.267 E4.56566
G1 X111.435 Y121.31 E4.57752
G1 X110.985 Y121.309 E4.59249
G1 X110.742 Y121.289 E4.6006
G1 X110.481 Y121.252 E4.60936
G1 X110.274 Y121.209 E4.6164
G1 X109.966 Y120.548 E4.64065
G1 X110.049 Y120.398 E4.64635
G1 X110.192 Y120.171 E4.65528
G1 X110.338 Y119.965 E4.66367
G1 X110.63 Y119.621 E4.67868
G1 X110.882 Y119.385 E4.69016
G1 X111.136 Y119.199 E4.70064
G1 X111.405 Y119.063 E4.71066
G1 X112.8 Y118.741 E4.75828
G1 X113.039 Y118.746 E4.76623
G1 X112.958 Y116.871 E4.82865
G1 X113 Y116.632 E4.83672
G1 X111.364 Y116.402 E4.89167
G1 X111.12 Y116.314 E4.9003
G1 X110.797 Y116.126 E4.91273
G1 X110.513 Y115.901 E4.92478
G1 X110.198 Y115.586 E4.9396
G1 X110.044 Y115.402 E4.94758
G1 X109.873 Y115.174 E4.95706
G1 X109.768 Y115.013 E4.96345
G1 X110.018 Y114.329 E4.98767
G1 X110.178 Y114.283 E4.99321
G1 X110.448 Y114.22 E5.00243
G1 X110.69 Y114.179 E5.01059
G1 X110.951 Y114.151 E5.01932
G1 X111.314 Y114.143 E5.0314
G1 X111.637 Y114.171 E5.04218
G1 X111.894 Y114.224 E5.05091
G1 X112.104 Y114.306 E5.05841
G1 X113.3 Y115.056 E5.10536
G1 X113.467 Y115.224 E5.11324
G1 X114.73 Y113.845 E5.17544
G1 X114.931 Y113.703 E5.18362
G1 X113.945 Y112.396 E5.23808
G1 X113.826 Y112.145 E5.24731
G1 X113.731 Y111.779 E5.25989
G1 X113.69 Y111.435 E5.27141
G1 X113.691 Y110.985 E5.28638
G1 X113.711 Y110.743 E5.29446
G1 X113.747 Y110.484 E5.30315
G1 X113.791 Y110.274 E5.31029
G1 X114.452 Y109.966 E5.33455
G1 X114.602 Y110.049 E5.34025
G1 X114.829 Y110.192 E5.34917
G1 X115.035 Y110.338 E5.35757
G1 X115.377 Y110.628 E5.37248
G1 X115.615 Y110.882 E5.38406
G1 X115.801 Y111.136 E5.39453
G1 X115.937 Y111.405 E5.40456
G1 X116.259 Y112.8 E5.45217
G1 X116.254 Y113.039 E5.46012
G1 X118.129 Y112.958 E5.52255
G1 X118.368 Y113 E5.53062
G1 X118.596 Y111.378 E5.5851
G1 X118.686 Y111.12 E5.59418
G1 X118.874 Y110.798 E5.60658
G1 X119.099 Y110.513 E5.61866
G1 X119.414 Y110.198 E5.63348
G1 X119.598 Y110.044 E5.64146
G1 X119.821 Y109.876 E5.65075
G1 X119.987 Y109.768 E5.65733
G1 X120.671 Y110.018 E5.68155
G1 X120.717 Y110.178 E5.68709
G1 X120.78 Y110.448 E5.69631
G1 X120.821 Y110.69 E5.70448
G1 X120.849 Y110.948 E5.71311
G1 X120.857 Y111.314 E5.72528
G1 X120.829 Y111.637 E5.73607
G1 X120.776 Y111.893 E5.74476
G1 X120.694 Y112.104 E5.75229
G1 X119.944 Y113.3 E5.79925
G1 X119.776 Y113.467 E5.80712
G1 X121.155 Y114.73 E5.86932
G1 X121.297 Y114.931 E5.8775
G1 X122.604 Y113.945 E5.93196
G1 X122.855 Y113.826 E5.9412
G1 X123.211 Y113.733 E5.95344
G1 X123.565 Y113.69 E5.9653
G1 X124.015 Y113.691 E5.98026
G1 X124.258 Y113.711 E5.98837
G1 X124.519 Y113.748 E5.99714
G1 X124.726 Y113.791 E6.00417
G1 X125.034 Y114.452 E6.02843
G1 X124.951 Y114.602 E6.03413
G1 X124.808 Y114.829 E6.04305
G1 X124.662 Y115.035 E6.05145
G1 X124.372 Y115.377 E6.06636
G1 X124.118 Y115.615 E6.07794
G1 X123.864 Y115.801 E6.08841
G1 X123.595 Y115.937 E6.09844
G1 X122.2 Y116.259 E6.14606
G1 X121.961 Y116.254 E6.15401
G1 X122.042 Y118.129 E6.21643
G1 X122 Y118.368 E6.2245
G1 X123.622 Y118.596 E6.27898
G1 X123.88 Y118.686 E6.28806
G1 X124.202 Y118.874 E6.30047
G1 X124.487 Y119.099 E6.31254
G1 X124.802 Y119.414 E6.32736
G1 X124.956 Y119.598 E6.33534
G1 X125.127 Y119.826 E6.34482
G1 X125.232 Y119.987 E6.35121
G1 X124.982 Y120.671 E6.37543
G1 X124.822 Y120.717 E6.38097
G1 X124.552 Y120.78 E6.39019
G1 X124.31 Y120.821 E6.39836
G1 X124.049 Y120.849 E6.40709
G1 X123.686 Y120.857 E6.41916
G1 X123.363 Y120.829 E6.42995
G1 X123.106 Y120.776 E6.43867
G1 X122.896 Y120.694 E6.44617
G1 X121.7 Y119.944 E6.49313
G1 X121.533 Y119.776 E6.50101
G1 X120.27 Y121.155 E6.5632
G1 X120.069 Y121.297 E6.57139
G1 X121.055 Y122.604 E6.62584
G1 X121.174 Y122.855 E6.63508
G1 X121.267 Y123.211 E6.64732
G1 X121.31 Y123.562 E6.65908
G1 X121.309 Y124.015 E6.67415
G1 X121.289 Y124.257 E6.68222
G1 X121.253 Y124.516 E6.69092
G1 X121.209 Y124.726 E6.69806
G1 X120.548 Y125.034 E6.72231
G1 X120.398 Y124.951 E6.72801
G1 X120.171 Y124.808 E6.73694
G1 X119.965 Y124.662 E6.74533
G1 X119.621 Y124.37 E6.76034
G1 X119.385 Y124.118 E6.77182
G1 X119.199 Y123.864 E6.78229
G1 X119.063 Y123.595 E6.79232
G1 X118.741 Y122.2 E6.83994
G1 X118.746 Y121.961 E6.84789
G0 F12000 X120.369 Y123.023
;TYPE:SKIN
G1 F1500 X120.417 Y123.124 E6.85161
G1 X120.481 Y123.373 E6.86016
G1 X120.51 Y123.603 E6.86787
G1 X120.509 Y123.968 E6.88001
G1 X120.499 Y124.059 E6.88305
G1 X120.463 Y124.035 E6.88449
G1 X120.174 Y123.789 E6.89712
G1 X120 Y123.604 E6.90556
G1 X119.82 Y123.32 E6.91675
G1 X119.544 Y122.116 E6.95783
G1 X119.547 Y121.934 E6.96389
G1 X120.369 Y123.023 E7.00927
G1 F4500 E2.00927
G1 F300 Z0.5
G0 F12000 X120.049 Y111.003 Z0.5
G1 F300 Z0.2
G1 F4500 E7.00927
G1 F1500 X120.056 Y111.291 E7.01885
G1 X120.038 Y111.509 E7.02612
G1 X119.966 Y111.761 E7.03484
G1 X119.319 Y112.793 E7.07535
G1 X119.186 Y112.926 E7.08161
G1 X119.376 Y111.572 E7.12708
G1 X119.53 Y111.26 E7.13866
G1 X119.704 Y111.038 E7.14804
G1 X119.941 Y110.801 E7.15918
G1 X120.016 Y110.741 E7.16238
G1 X120.049 Y111.003 E7.17116
G0 F12000 X119.05 Y113.888
G1 F1500 X119.435 Y114.24 E7.18851
G1 X118.954 Y113.982 E7.20667
G1 X118.413 Y113.821 E7.22544
G1 X119.044 Y113.932 E7.24675
G1 X119.05 Y113.888 E7.24823
G0 F12000 X120.743 Y115.533
G1 F1500 X121.119 Y116.067 E7.26995
G1 X121.151 Y116.043 E7.27128
G1 X121.174 Y116.569 E7.28879
G1 X121.015 Y116.041 E7.30713
G1 X120.743 Y115.533 E7.3263
G0 F12000 X121.179 Y118.415
G1 F1500 X121.068 Y119.044 E7.34754
G1 X121.112 Y119.05 E7.34902
G1 X120.76 Y119.436 E7.36639
G1 X121.016 Y118.957 E7.38446
G1 X121.179 Y118.415 E7.40328
G0 F12000 X122.074 Y119.186
G1 F1500 X123.428 Y119.376 E7.44876
G1 X123.74 Y119.53 E7.46033
G1 X123.962 Y119.704 E7.46971
G1 X124.199 Y119.941 E7.48086
G1 X124.259 Y120.016 E7.48405
G1 X123.994 Y120.049 E7.49294
G1 X123.709 Y120.056 E7.50242
G1 X123.491 Y120.038 E7.50969
G1 X123.243 Y119.966 E7.51828
G1 X122.204 Y119.316 E7.55904
G1 X122.074 Y119.186 E7.56516
G0 F12000 X119.467 Y120.743
G1 F1500 X118.933 Y121.119 E7.58688
G1 X118.957 Y121.151 E7.58821
G1 X118.432 Y121.174 E7.60569
G1 X118.957 Y121.016 E7.62393
G1 X119.467 Y120.743 E7.64317
G0 F12000 X115.814 Y122.075
G1 F1500 X115.622 Y123.44 E7.68901
G1 X115.462 Y123.752 E7.70067
G1 X115.296 Y123.962 E7.70958
G1 X115.062 Y124.196 E7.72058
G1 X114.984 Y124.259 E7.72392
G1 X114.95 Y123.986 E7.73307
G1 X114.943 Y123.708 E7.74232
G1 X114.963 Y123.486 E7.74973
G1 X115.037 Y123.234 E7.75847
G1 X115.681 Y122.209 E7.79873
