;FLAVOR:Marlin
;TIME:2467
;Filament used: 3.11038m
;Layer height: 0.4
;MINX:76.698
;MINY:101.7
;MINZ:0.2
;MAXX:132
;MAXY:133.3
;MAXZ:10.12
;Generated with Cura_SteamEngine 4.11.0
M140 S60
M105
M190 S60
M104 S210
M105
M109 S210
M82 ;absolute extrusion mode
; Ender 3 Custom Start G-code
G92 E0 ; Reset Extruder
G28 ; Home all axes
G1 Z2.0 F3000 ; Move Z Axis up little to prevent scratching of Heat Bed
G1 X0.1 Y20 Z0.3 F5000.0 ; Move to start position
G1 X0.1 Y200.0 Z0.3 F1500.0 E15 ; Draw the first line
G1 X0.4 Y200.0 Z0.3 F5000.0 ; Move to side a little
G1 X0.4 Y20 Z0.3 F1500.0 E30 ; Draw the second line
G92 E0 ; Reset Extruder
G1 Z2.0 F3000 ; Move Z Axis up little to prevent scratching of Heat Bed
G1 X5 Y20 Z0.3 F5000.0 ; Move over to prevent blob squish
G92 E0
G92 E0
G1 F4500 E-5
;LAYER_COUNT:26
;LAYER:0
M107
G1 F300 Z0.52
;MESH:Wallace_6_BedMounts.stl(1)
G0 F12000 X99.099 Y132.9 Z0.52
;TYPE:WALL-INNER
G1 F300 Z0.2
G1 F4500 E0
G1 F1800 X85.74 Y132.9 E0.53763
G1 X85.541 Y132.9 E0.54564
G1 X85.541 Y132.701 E0.55082
G1 X85.542 Y125.748 E0.83064
G1 X87.299 Y123.992 E0.93061
G1 X87.299 Y121.008 E1.0507
G1 X85.191 Y118.9 E1.17068
G1 X82.207 Y118.9 E1.29077
G1 X80.099 Y121.008 E1.41075
G1 X80.099 Y123.992 E1.53084
G1 X81.856 Y125.748 E1.63081
G1 X81.856 Y132.9 E1.91864
G1 X77.299 Y132.9 E2.10203
G1 X77.298 Y119.848 E2.62731
G1 X81.047 Y116.1 E2.84065
G1 X86.351 Y116.099 E3.05411
G1 X90.099 Y119.848 E3.26745
G1 X90.1 Y123.1 E3.39833
G1 X99.099 Y123.1 E3.76049
G1 X99.099 Y132.9 E4.15489
G0 F12000 X99.499 Y133.3
;TYPE:WALL-OUTER
G1 F1800 X85.141 Y133.3 E4.73273
G1 X85.142 Y125.582 E5.04334
G1 X86.899 Y123.826 E5.14331
G1 X86.899 Y121.174 E5.25004
G1 X85.025 Y119.3 E5.35669
G1 X82.373 Y119.3 E5.46342
G1 X80.499 Y121.174 E5.57008
G1 X80.499 Y123.826 E5.67681
G1 X82.256 Y125.582 E5.77678
G1 X82.256 Y133.3 E6.08739
G1 X76.899 Y133.3 E6.30298
G1 X76.898 Y119.682 E6.85103
G1 X80.881 Y115.7 E7.0777
G1 X86.517 Y115.699 E7.30452
G1 X90.499 Y119.682 E7.53118
G1 X90.5 Y122.7 E7.65264
G1 X99.499 Y122.7 E8.0148
G1 X99.499 Y133.3 E8.44139
G0 F12000 X98.709 Y132.51
;TYPE:SKIN
G1 F1800 X85.931 Y132.51 E8.95564
G1 X85.932 Y125.908 E9.22134
G1 X87.689 Y124.154 E9.32125
G1 X87.689 Y120.846 E9.45438
G1 X85.353 Y118.51 E9.58733
G1 X82.045 Y118.51 E9.72046
G1 X79.709 Y120.846 E9.85342
G1 X79.709 Y124.154 E9.98655
G1 X81.466 Y125.908 E10.08646
G1 X81.466 Y132.51 E10.35216
G1 X77.689 Y132.51 E10.50416
G1 X77.688 Y120.008 E11.0073
G1 X81.207 Y116.49 E11.20756
G1 X86.191 Y116.489 E11.40814
G1 X89.709 Y120.008 E11.60839
G1 X89.71 Y123.49 E11.74852
G1 X98.709 Y123.49 E12.11068
G1 X98.709 Y132.51 E12.47369
G0 F12000 X98.549 Y124.005
G1 F1800 X98.193 Y123.649 E12.49395
G0 F12000 X97.628 Y123.649
G1 F1800 X98.549 Y124.571 E12.5464
G0 F12000 X98.549 Y125.136
G1 F1800 X97.062 Y123.649 E12.63103
G0 F12000 X96.496 Y123.649
G1 F1800 X98.549 Y125.702 E12.74788
G0 F12000 X98.549 Y126.268
G1 F1800 X95.931 Y123.649 E12.89691
G0 F12000 X95.365 Y123.649
G1 F1800 X98.549 Y126.833 E13.07813
G0 F12000 X98.549 Y127.399
G1 F1800 X94.799 Y123.649 E13.29156
G0 F12000 X94.233 Y123.649
G1 F1800 X98.549 Y127.965 E13.5372
G0 F12000 X98.549 Y128.53
G1 F1800 X93.668 Y123.649 E13.815
G0 F12000 X93.102 Y123.649
G1 F1800 X98.549 Y129.096 E14.12501
G0 F12000 X98.549 Y129.662
G1 F1800 X92.536 Y123.649 E14.46724
G0 F12000 X91.971 Y123.649
G1 F1800 X98.549 Y130.227 E14.84163
G0 F12000 X98.549 Y130.793
G1 F1800 X91.405 Y123.649 E15.24823
G0 F12000 X90.839 Y123.649
G1 F1800 X98.549 Y131.359 E15.68704
G0 F12000 X98.549 Y131.924
G1 F1800 X90.274 Y123.649 E16.15801
G0 F12000 X89.708 Y123.649
G1 F1800 X98.408 Y132.349 E16.65317
G0 F12000 X97.842 Y132.349
G1 F1800 X87.848 Y122.355 E17.22197
G0 F12000 X87.848 Y121.789
G1 F1800 X89.55 Y123.491 E17.31884
G0 F12000 X89.55 Y122.925
G1 F1800 X87.848 Y121.224 E17.41568
G0 F12000 X87.848 Y122.921
G1 F1800 X97.276 Y132.349 E17.95227
G0 F12000 X96.71 Y132.349
G1 F1800 X87.848 Y123.487 E18.45665
G0 F12000 X87.848 Y124.052
G1 F1800 X96.145 Y132.349 E18.92887
G0 F12000 X95.579 Y132.349
G1 F1800 X87.65 Y124.419 E19.38018
G0 F12000 X87.367 Y124.702
G1 F1800 X95.013 Y132.349 E19.81537
G0 F12000 X94.448 Y132.349
G1 F1800 X87.083 Y124.984 E20.23455
G0 F12000 X86.8 Y125.267
G1 F1800 X93.882 Y132.349 E20.63762
G0 F12000 X93.316 Y132.349
G1 F1800 X86.517 Y125.549 E21.02461
G0 F12000 X86.234 Y125.832
G1 F1800 X92.751 Y132.349 E21.39553
G0 F12000 X92.185 Y132.349
G1 F1800 X86.091 Y126.255 E21.74236
G0 F12000 X86.091 Y126.821
G1 F1800 X91.619 Y132.349 E22.05699
G0 F12000 X91.054 Y132.349
G1 F1800 X86.091 Y127.386 E22.33946
G0 F12000 X86.091 Y127.952
G1 F1800 X90.488 Y132.349 E22.58971
G0 F12000 X89.922 Y132.349
G1 F1800 X86.091 Y128.518 E22.80775
G0 F12000 X86.091 Y129.083
G1 F1800 X89.357 Y132.349 E22.99363
G0 F12000 X88.791 Y132.349
G1 F1800 X86.09 Y129.648 E23.14736
G0 F12000 X86.09 Y130.214
G1 F1800 X88.225 Y132.349 E23.26887
G0 F12000 X87.66 Y132.349
G1 F1800 X86.09 Y130.78 E23.3582
G0 F12000 X86.09 Y131.345
G1 F1800 X87.094 Y132.349 E23.41534
G0 F12000 X86.528 Y132.349
G1 F1800 X86.09 Y131.911 E23.44027
G0 F12000 X81.305 Y131.651
G1 F1800 X77.848 Y128.194 E23.63702
G0 F12000 X77.848 Y128.759
G1 F1800 X81.305 Y132.217 E23.83381
G0 F12000 X80.871 Y132.349
G1 F1800 X77.848 Y129.325 E24.00589
G0 F12000 X77.848 Y129.891
G1 F1800 X80.306 Y132.349 E24.14579
G0 F12000 X79.74 Y132.349
G1 F1800 X77.848 Y130.456 E24.2535
G0 F12000 X77.848 Y131.022
G1 F1800 X79.174 Y132.349 E24.32899
G0 F12000 X78.609 Y132.349
G1 F1800 X77.848 Y131.588 E24.37231
G0 F12000 X77.848 Y132.154
G1 F1800 X78.043 Y132.349 E24.3834
G0 F12000 X81.305 Y131.086
G1 F1800 X77.848 Y127.628 E24.58019
G0 F12000 X77.848 Y127.062
G1 F1800 X81.305 Y130.52 E24.77697
G0 F12000 X81.305 Y129.954
G1 F1800 X77.848 Y126.497 E24.97372
G0 F12000 X77.848 Y125.931
G1 F1800 X81.305 Y129.389 E25.17051
G0 F12000 X81.305 Y128.823
G1 F1800 X77.848 Y125.365 E25.36729
G0 F12000 X77.848 Y124.8
G1 F1800 X81.305 Y128.257 E25.56404
G0 F12000 X81.305 Y127.692
G1 F1800 X77.848 Y124.234 E25.76082
G0 F12000 X77.848 Y123.668
G1 F1800 X81.305 Y127.126 E25.95761
G0 F12000 X81.305 Y126.56
G1 F1800 X77.848 Y123.103 E26.15436
G0 F12000 X77.848 Y122.537
G1 F1800 X81.305 Y125.995 E26.35114
G0 F12000 X79.549 Y123.672
G1 F1800 X77.848 Y121.971 E26.44796
G0 F12000 X77.848 Y121.405
G1 F1800 X79.549 Y123.107 E26.5448
G0 F12000 X79.549 Y122.541
G1 F1800 X77.848 Y120.84 E26.64161
G0 F12000 X77.848 Y120.274
G1 F1800 X79.549 Y121.975 E26.73842
G0 F12000 X79.549 Y121.41
G1 F1800 X78.029 Y119.89 E26.82493
G0 F12000 X78.312 Y119.607
G1 F1800 X79.549 Y120.844 E26.89533
G0 F12000 X79.799 Y120.528
G1 F1800 X78.595 Y119.324 E26.96386
G0 F12000 X78.878 Y119.042
G1 F1800 X80.081 Y120.245 E27.03233
G0 F12000 X80.364 Y119.962
G1 F1800 X79.161 Y118.759 E27.1008
G0 F12000 X79.444 Y118.476
G1 F1800 X80.647 Y119.679 E27.16926
G0 F12000 X80.93 Y119.397
G1 F1800 X79.726 Y118.193 E27.23779
G0 F12000 X80.009 Y117.91
G1 F1800 X81.213 Y119.114 E27.30631
G0 F12000 X81.496 Y118.831
G1 F1800 X80.292 Y117.627 E27.37484
G0 F12000 X80.575 Y117.345
G1 F1800 X81.779 Y118.548 E27.44334
G0 F12000 X82.145 Y118.349
G1 F1800 X80.858 Y117.062 E27.51659
G0 F12000 X81.141 Y116.779
G1 F1800 X82.71 Y118.349 E27.60591
G0 F12000 X83.276 Y118.349
G1 F1800 X81.576 Y116.649 E27.70267
G0 F12000 X82.142 Y116.649
G1 F1800 X83.842 Y118.349 E27.79942
G0 F12000 X84.408 Y118.349
G1 F1800 X82.708 Y116.649 E27.89618
G0 F12000 X83.273 Y116.649
G1 F1800 X84.973 Y118.349 E27.99293
G0 F12000 X84.97 Y116.649
G1 F1800 X89.55 Y121.228 E28.25357
G0 F12000 X89.55 Y120.662
G1 F1800 X85.536 Y116.649 E28.482
G0 F12000 X86.102 Y116.649
G1 F1800 X89.55 Y120.097 E28.67824
G0 F12000 X89.55 Y121.794
G1 F1800 X84.405 Y116.649 E28.97107
G0 F12000 X83.839 Y116.649
G1 F1800 X89.55 Y122.359 E29.29608
G1 F4500 E24.29608
G1 F300 Z0.52
G0 F12000 X101.351 Y118.9 Z0.52
;TYPE:WALL-INNER
G1 F300 Z0.2
G1 F4500 E29.29608
G1 F1800 X96.047 Y118.901 E29.50954
G1 X92.299 Y115.152 E29.72288
G1 X92.298 Y111.9 E29.85376
G1 X83.299 Y111.9 E30.21592
G1 X83.299 Y102.1 E30.61032
G1 X96.658 Y102.1 E31.14795
G1 X96.857 Y102.1 E31.15596
G1 X96.857 Y102.299 E31.16114
G1 X96.856 Y109.252 E31.44096
G1 X95.099 Y111.008 E31.54093
G1 X95.099 Y113.992 E31.66102
G1 X97.207 Y116.1 E31.781
G1 X100.191 Y116.1 E31.90109
G1 X102.299 Y113.992 E32.02107
G1 X102.299 Y111.008 E32.14116
G1 X100.542 Y109.252 E32.24113
G1 X100.542 Y102.1 E32.52896
G1 X105.099 Y102.1 E32.71235
G1 X105.1 Y115.152 E33.23763
G1 X101.351 Y118.9 E33.45097
G0 F12000 X101.517 Y119.3
;TYPE:WALL-OUTER
G1 F1800 X95.881 Y119.301 E33.67779
G1 X91.899 Y115.318 E33.90446
G1 X91.898 Y112.3 E34.02591
G1 X82.899 Y112.3 E34.38808
G1 X82.899 Y101.7 E34.81467
G1 X97.257 Y101.7 E35.39251
G1 X97.256 Y109.418 E35.70311
G1 X95.499 Y111.174 E35.80309
G1 X95.499 Y113.826 E35.90981
G1 X97.373 Y115.7 E36.01647
G1 X100.025 Y115.7 E36.1232
G1 X101.899 Y113.826 E36.22986
G1 X101.899 Y111.174 E36.33659
G1 X100.142 Y109.418 E36.43656
G1 X100.142 Y101.7 E36.74717
G1 X105.499 Y101.7 E36.96276
G1 X105.5 Y115.318 E37.51081
G1 X101.517 Y119.3 E37.73748
G0 F12000 X101.349 Y118.894
G0 X101.191 Y118.51
;TYPE:SKIN
G1 F1800 X96.207 Y118.511 E37.93806
G1 X92.689 Y114.992 E38.13831
G1 X92.688 Y111.51 E38.27844
G1 X83.689 Y111.51 E38.6406
G1 X83.689 Y102.49 E39.00361
G1 X96.467 Y102.49 E39.51786
G1 X96.466 Y109.092 E39.78356
G1 X94.709 Y110.846 E39.88347
G1 X94.709 Y114.154 E40.0166
G1 X97.045 Y116.49 E40.14955
G1 X100.353 Y116.49 E40.28268
G1 X102.689 Y114.154 E40.41563
G1 X102.689 Y110.846 E40.54876
G1 X100.932 Y109.092 E40.64868
G1 X100.932 Y102.49 E40.91437
G1 X104.709 Y102.49 E41.06638
G1 X104.71 Y114.992 E41.56952
G1 X101.191 Y118.51 E41.76977
G1 F4500 E36.76977
G1 F300 Z0.52
G0 F12000 X104.548 Y102.851 Z0.52
G1 F300 Z0.2
G1 F4500 E41.76977
G1 F1800 X104.347 Y102.649 E41.78124
G0 F12000 X103.781 Y102.649
G1 F1800 X104.548 Y103.417 E41.82492
G0 F12000 X104.548 Y103.982
G1 F1800 X103.215 Y102.649 E41.90079
G0 F12000 X102.649 Y102.649
G1 F1800 X104.548 Y104.548 E42.00887
G0 F12000 X104.548 Y105.114
G1 F1800 X102.084 Y102.649 E42.14914
G0 F12000 X101.518 Y102.649
G1 F1800 X104.548 Y105.679 E42.32159
G0 F12000 X104.548 Y106.245
G1 F1800 X101.091 Y102.788 E42.51834
G0 F12000 X101.091 Y103.354
G1 F1800 X104.549 Y106.812 E42.71515
G0 F12000 X104.549 Y107.377
G1 F1800 X101.091 Y103.919 E42.91197
G0 F12000 X101.091 Y104.485
G1 F1800 X104.549 Y107.943 E43.10878
G0 F12000 X104.549 Y108.509
G1 F1800 X101.091 Y105.051 E43.30559
G0 F12000 X101.091 Y105.617
G1 F1800 X104.549 Y109.074 E43.50237
G0 F12000 X104.549 Y109.64
G1 F1800 X101.091 Y106.182 E43.69918
G0 F12000 X101.091 Y106.748
G1 F1800 X104.549 Y110.206 E43.89599
G0 F12000 X104.549 Y110.771
G1 F1800 X101.091 Y107.314 E44.09277
G0 F12000 X101.091 Y107.879
G1 F1800 X104.549 Y111.338 E44.28961
G0 F12000 X104.549 Y111.903
G1 F1800 X101.091 Y108.445 E44.48643
G0 F12000 X101.091 Y109.011
G1 F1800 X104.549 Y112.469 E44.68324
G0 F12000 X104.549 Y113.035
G1 F1800 X102.848 Y111.333 E44.78008
G0 F12000 X102.848 Y111.899
G1 F1800 X104.549 Y113.6 E44.87689
G0 F12000 X104.549 Y114.166
G1 F1800 X102.848 Y112.465 E44.9737
G0 F12000 X102.848 Y113.031
G1 F1800 X104.549 Y114.732 E45.07051
G0 F12000 X104.363 Y115.111
G1 F1800 X102.848 Y113.596 E45.15674
G0 F12000 X102.848 Y114.162
G1 F1800 X104.08 Y115.394 E45.22686
G0 F12000 X103.797 Y115.677
G1 F1800 X102.594 Y114.474 E45.29533
G0 F12000 X102.311 Y114.757
G1 F1800 X103.514 Y115.959 E45.36377
G0 F12000 X103.231 Y116.242
G1 F1800 X102.029 Y115.039 E45.4322
G0 F12000 X101.746 Y115.322
G1 F1800 X102.949 Y116.525 E45.50067
G0 F12000 X102.666 Y116.808
G1 F1800 X101.463 Y115.605 E45.56914
G0 F12000 X101.18 Y115.888
G1 F1800 X102.383 Y117.091 E45.63761
G0 F12000 X102.1 Y117.374
G1 F1800 X100.897 Y116.171 E45.70608
G0 F12000 X100.614 Y116.454
G1 F1800 X101.817 Y117.656 E45.77452
G0 F12000 X101.534 Y117.939
G1 F1800 X100.244 Y116.649 E45.84794
G0 F12000 X99.678 Y116.649
G1 F1800 X101.252 Y118.222 E45.93749
G0 F12000 X100.812 Y118.349
G1 F1800 X99.113 Y116.649 E46.03422
G0 F12000 X98.547 Y116.649
G1 F1800 X100.247 Y118.349 E46.13098
G0 F12000 X99.681 Y118.349
G1 F1800 X97.981 Y116.649 E46.22773
G0 F12000 X97.415 Y116.649
G1 F1800 X99.115 Y118.349 E46.32449
G0 F12000 X98.55 Y118.349
G1 F1800 X92.848 Y112.647 E46.64901
G0 F12000 X92.848 Y113.212
G1 F1800 X97.985 Y118.349 E46.94138
G0 F12000 X97.419 Y118.349
G1 F1800 X92.848 Y113.778 E47.20154
G0 F12000 X92.848 Y114.344
G1 F1800 X96.853 Y118.349 E47.42948
G0 F12000 X96.288 Y118.349
G1 F1800 X92.848 Y114.909 E47.62527
G0 F12000 X94.548 Y113.781
G1 F1800 X92.848 Y112.081 E47.72203
G0 F12000 X92.848 Y111.515
G1 F1800 X94.548 Y113.216 E47.81881
G0 F12000 X94.548 Y112.65
G1 F1800 X84.547 Y102.649 E48.38801
G0 F12000 X83.981 Y102.649
G1 F1800 X92.681 Y111.348 E48.88314
G0 F12000 X92.115 Y111.348
G1 F1800 X83.848 Y103.082 E49.35363
G0 F12000 X83.848 Y103.647
G1 F1800 X91.549 Y111.348 E49.79193
G0 F12000 X90.984 Y111.348
G1 F1800 X83.848 Y104.213 E50.19804
G0 F12000 X83.848 Y104.779
G1 F1800 X90.418 Y111.348 E50.57194
G0 F12000 X89.852 Y111.348
G1 F1800 X83.848 Y105.344 E50.91366
G0 F12000 X83.848 Y105.91
G1 F1800 X89.287 Y111.348 E51.22319
G0 F12000 X88.721 Y111.348
G1 F1800 X83.848 Y106.476 E51.50051
G0 F12000 X83.848 Y107.041
G1 F1800 X88.155 Y111.348 E51.74564
G0 F12000 X87.59 Y111.348
G1 F1800 X83.848 Y107.607 E51.95858
G0 F12000 X83.848 Y108.173
G1 F1800 X87.024 Y111.348 E52.13932
G0 F12000 X86.458 Y111.348
G1 F1800 X83.848 Y108.738 E52.28786
G0 F12000 X83.848 Y109.304
G1 F1800 X85.892 Y111.348 E52.4042
G0 F12000 X85.327 Y111.348
G1 F1800 X83.848 Y109.87 E52.48835
G0 F12000 X83.848 Y110.435
G1 F1800 X84.761 Y111.348 E52.54031
G0 F12000 X84.195 Y111.348
G1 F1800 X83.848 Y111.001 E52.56006
G0 F12000 X85.113 Y102.649
G1 F1800 X94.548 Y112.084 E53.09705
G0 F12000 X94.548 Y111.519
G1 F1800 X85.678 Y102.649 E53.60188
G0 F12000 X86.244 Y102.649
G1 F1800 X94.548 Y110.953 E54.0745
G0 F12000 X94.743 Y110.583
G1 F1800 X86.81 Y102.649 E54.52603
G0 F12000 X87.375 Y102.649
G1 F1800 X95.026 Y110.3 E54.96149
G0 F12000 X95.31 Y110.018
G1 F1800 X87.941 Y102.649 E55.38089
G0 F12000 X88.507 Y102.649
G1 F1800 X95.593 Y109.735 E55.78419
G0 F12000 X95.876 Y109.453
G1 F1800 X89.072 Y102.649 E56.17144
G0 F12000 X89.638 Y102.649
G1 F1800 X96.159 Y109.17 E56.54258
G0 F12000 X96.306 Y108.751
G1 F1800 X90.204 Y102.649 E56.88987
G0 F12000 X90.769 Y102.649
G1 F1800 X96.306 Y108.185 E57.20498
G0 F12000 X96.306 Y107.62
G1 F1800 X91.335 Y102.649 E57.4879
G0 F12000 X91.901 Y102.649
G1 F1800 X96.306 Y107.054 E57.73861
G0 F12000 X96.306 Y106.488
G1 F1800 X92.466 Y102.649 E57.95714
G0 F12000 X93.032 Y102.649
G1 F1800 X96.306 Y105.923 E58.14347
G0 F12000 X96.306 Y105.357
G1 F1800 X93.598 Y102.649 E58.2976
G0 F12000 X94.163 Y102.649
G1 F1800 X96.306 Y104.791 E58.41954
G0 F12000 X96.306 Y104.226
G1 F1800 X94.729 Y102.649 E58.50929
G0 F12000 X95.295 Y102.649
G1 F1800 X96.306 Y103.66 E58.56683
G0 F12000 X96.306 Y103.094
G1 F1800 X95.861 Y102.649 E58.59216
G1 F4500 E53.59216
G1 F300 Z0.52
;MESH:Wallace_6_BedMounts.stl
G0 F12000 X111.842 Y132.9 Z0.52
;TYPE:WALL-INNER
G1 F300 Z0.2
G1 F4500 E58.59216
G1 F1800 X111.842 Y132.701 E58.60017
G1 X111.843 Y125.748 E58.87999
G1 X113.6 Y123.992 E58.97996
G1 X113.6 Y121.008 E59.10005
G1 X111.492 Y118.9 E59.22003
G1 X108.508 Y118.9 E59.34012
G1 X106.4 Y121.008 E59.4601
G1 X106.4 Y123.992 E59.58019
G1 X108.157 Y125.748 E59.68016
G1 X108.157 Y132.9 E59.96799
G1 X103.6 Y132.9 E60.15138
G1 X103.599 Y119.848 E60.67666
G1 X107.348 Y116.1 E60.89
G1 X112.652 Y116.099 E61.10346
